(G-code generated by FlatCAM Evo vUnstable - Version Date: 2022/4/31)

(Name: soft_pump_start-B_Cu.gbr_iso_combined_cnc)
(Type: G-code from Geometry)
(Units: MM)

(Created on Friday, 20 January 2023 at 09:09)

(This preprocessor is the default preprocessor.)
(It is made to work with MACH3 compatible motion controllers.)

(TOOL DIAMETER: 0.4536 mm)
(Feedrate_XY: 120.0 mm/min)
(Feedrate_Z: 60.0 mm/min)
(Feedrate rapids 1500.0 mm/min)

(Z_Cut: -0.1 mm)
(DepthPerCut: 0.025 mm <=>4 passes)
(Z_Move: 2.0 mm)
(Z Start: None mm)
(Z End: 15.0 mm)
(X,Y End: 0.0000, 0.0000 mm)
(Steps per circle: 16)
(Preprocessor Geometry: default)

(X range:  -24.6183 ...   -1.2817  mm)
(Y range:  -21.8183 ...   -1.2232  mm)

(Spindle Speed: 12000.0 RPM)
G21
G90
G94

G01 F120.00
G00 Z2.0000

M03 S12000
G4 P1.0
G01 F120.00
G00 X-5.8312 Y-3.5115
G01 F60.00
G01 Z-0.0250
G01 F120.00
G01 X-5.8735 Y-3.3535
G01 X-5.9185 Y-3.3985
G01 X-5.8910 Y-3.5106
G01 X-5.8732 Y-3.7000
G01 X-5.8910 Y-3.8894
G01 X-5.9185 Y-4.0015
G01 X-5.8735 Y-4.0465
G01 X-5.8312 Y-3.8885
G01 X-5.8147 Y-3.7000
G01 X-5.8312 Y-3.5115
G00 X-5.8312 Y-3.5115
G01 F60.00
G01 Z-0.0500
G01 F120.00
G01 X-5.8735 Y-3.3535
G01 X-5.9185 Y-3.3985
G01 X-5.8910 Y-3.5106
G01 X-5.8732 Y-3.7000
G01 X-5.8910 Y-3.8894
G01 X-5.9185 Y-4.0015
G01 X-5.8735 Y-4.0465
G01 X-5.8312 Y-3.8885
G01 X-5.8147 Y-3.7000
G01 X-5.8312 Y-3.5115
G00 X-5.8312 Y-3.5115
G01 F60.00
G01 Z-0.0750
G01 F120.00
G01 X-5.8735 Y-3.3535
G01 X-5.9185 Y-3.3985
G01 X-5.8910 Y-3.5106
G01 X-5.8732 Y-3.7000
G01 X-5.8910 Y-3.8894
G01 X-5.9185 Y-4.0015
G01 X-5.8735 Y-4.0465
G01 X-5.8312 Y-3.8885
G01 X-5.8147 Y-3.7000
G01 X-5.8312 Y-3.5115
G00 X-5.8312 Y-3.5115
G01 F60.00
G01 Z-0.1000
G01 F120.00
G01 X-5.8735 Y-3.3535
G01 X-5.9185 Y-3.3985
G01 X-5.8910 Y-3.5106
G01 X-5.8732 Y-3.7000
G01 X-5.8910 Y-3.8894
G01 X-5.9185 Y-4.0015
G01 X-5.8735 Y-4.0465
G01 X-5.8312 Y-3.8885
G01 X-5.8147 Y-3.7000
G01 X-5.8312 Y-3.5115
G00 Z2.0000
G00 X-7.1112 Y-2.6954
G01 F60.00
G01 Z-0.0250
G01 F120.00
G01 X-7.0006 Y-2.6781
G01 X-6.8889 Y-2.6735
G01 X-6.7106 Y-2.6910
G01 X-6.5985 Y-2.7185
G01 X-6.5535 Y-2.6735
G01 X-6.7115 Y-2.6312
G01 X-6.9000 Y-2.6147
G01 X-7.0885 Y-2.6312
G01 X-7.2465 Y-2.6735
G01 X-7.2015 Y-2.7185
G01 X-7.1112 Y-2.6954
G00 X-7.1112 Y-2.6954
G01 F60.00
G01 Z-0.0500
G01 F120.00
G01 X-7.0006 Y-2.6781
G01 X-6.8889 Y-2.6735
G01 X-6.7106 Y-2.6910
G01 X-6.5985 Y-2.7185
G01 X-6.5535 Y-2.6735
G01 X-6.7115 Y-2.6312
G01 X-6.9000 Y-2.6147
G01 X-7.0885 Y-2.6312
G01 X-7.2465 Y-2.6735
G01 X-7.2015 Y-2.7185
G01 X-7.1112 Y-2.6954
G00 X-7.1112 Y-2.6954
G01 F60.00
G01 Z-0.0750
G01 F120.00
G01 X-7.0006 Y-2.6781
G01 X-6.8889 Y-2.6735
G01 X-6.7106 Y-2.6910
G01 X-6.5985 Y-2.7185
G01 X-6.5535 Y-2.6735
G01 X-6.7115 Y-2.6312
G01 X-6.9000 Y-2.6147
G01 X-7.0885 Y-2.6312
G01 X-7.2465 Y-2.6735
G01 X-7.2015 Y-2.7185
G01 X-7.1112 Y-2.6954
G00 X-7.1112 Y-2.6954
G01 F60.00
G01 Z-0.1000
G01 F120.00
G01 X-7.0006 Y-2.6781
G01 X-6.8889 Y-2.6735
G01 X-6.7106 Y-2.6910
G01 X-6.5985 Y-2.7185
G01 X-6.5535 Y-2.6735
G01 X-6.7115 Y-2.6312
G01 X-6.9000 Y-2.6147
G01 X-7.0885 Y-2.6312
G01 X-7.2465 Y-2.6735
G01 X-7.2015 Y-2.7185
G01 X-7.1112 Y-2.6954
G00 Z2.0000
G00 X-10.2389 Y-4.0735
G01 F60.00
G01 Z-0.0250
G01 F120.00
G01 X-10.1736 Y-4.0865
G01 X-10.0977 Y-4.1320
G01 X-10.0450 Y-4.2030
G01 X-10.0257 Y-4.2667
G01 X-10.0232 Y-5.7192
G01 X-9.9688 Y-5.7192
G01 X-9.9688 Y-4.2642
G01 X-10.0008 Y-4.1636
G01 X-10.0491 Y-4.0991
G01 X-10.1136 Y-4.0508
G01 X-10.1927 Y-4.0211
G01 X-10.7692 Y-4.0188
G01 X-10.7692 Y-4.0732
G01 X-10.2389 Y-4.0735
G00 X-10.2389 Y-4.0735
G01 F60.00
G01 Z-0.0500
G01 F120.00
G01 X-10.1736 Y-4.0865
G01 X-10.0977 Y-4.1320
G01 X-10.0450 Y-4.2030
G01 X-10.0257 Y-4.2667
G01 X-10.0232 Y-5.7192
G01 X-9.9688 Y-5.7192
G01 X-9.9688 Y-4.2642
G01 X-10.0008 Y-4.1636
G01 X-10.0491 Y-4.0991
G01 X-10.1136 Y-4.0508
G01 X-10.1927 Y-4.0211
G01 X-10.7692 Y-4.0188
G01 X-10.7692 Y-4.0732
G01 X-10.2389 Y-4.0735
G00 X-10.2389 Y-4.0735
G01 F60.00
G01 Z-0.0750
G01 F120.00
G01 X-10.1736 Y-4.0865
G01 X-10.0977 Y-4.1320
G01 X-10.0450 Y-4.2030
G01 X-10.0257 Y-4.2667
G01 X-10.0232 Y-5.7192
G01 X-9.9688 Y-5.7192
G01 X-9.9688 Y-4.2642
G01 X-10.0008 Y-4.1636
G01 X-10.0491 Y-4.0991
G01 X-10.1136 Y-4.0508
G01 X-10.1927 Y-4.0211
G01 X-10.7692 Y-4.0188
G01 X-10.7692 Y-4.0732
G01 X-10.2389 Y-4.0735
G00 X-10.2389 Y-4.0735
G01 F60.00
G01 Z-0.1000
G01 F120.00
G01 X-10.1736 Y-4.0865
G01 X-10.0977 Y-4.1320
G01 X-10.0450 Y-4.2030
G01 X-10.0257 Y-4.2667
G01 X-10.0232 Y-5.7192
G01 X-9.9688 Y-5.7192
G01 X-9.9688 Y-4.2642
G01 X-10.0008 Y-4.1636
G01 X-10.0491 Y-4.0991
G01 X-10.1136 Y-4.0508
G01 X-10.1927 Y-4.0211
G01 X-10.7692 Y-4.0188
G01 X-10.7692 Y-4.0732
G01 X-10.2389 Y-4.0735
G00 Z2.0000
G00 X-12.4765 Y-4.2889
G01 F60.00
G01 Z-0.0250
G01 F120.00
G01 X-12.4635 Y-4.2236
G01 X-12.4322 Y-4.1649
G01 X-12.3851 Y-4.1178
G01 X-12.3264 Y-4.0865
G01 X-12.2500 Y-4.0732
G01 X-11.7308 Y-4.0732
G01 X-11.7308 Y-4.0188
G01 X-12.3073 Y-4.0211
G01 X-12.3864 Y-4.0508
G01 X-12.4509 Y-4.0991
G01 X-12.4992 Y-4.1636
G01 X-12.5312 Y-4.2642
G01 X-12.5312 Y-5.7192
G01 X-12.4768 Y-5.7192
G01 X-12.4765 Y-4.2889
G00 X-12.4765 Y-4.2889
G01 F60.00
G01 Z-0.0500
G01 F120.00
G01 X-12.4635 Y-4.2236
G01 X-12.4322 Y-4.1649
G01 X-12.3851 Y-4.1178
G01 X-12.3264 Y-4.0865
G01 X-12.2500 Y-4.0732
G01 X-11.7308 Y-4.0732
G01 X-11.7308 Y-4.0188
G01 X-12.3073 Y-4.0211
G01 X-12.3864 Y-4.0508
G01 X-12.4509 Y-4.0991
G01 X-12.4992 Y-4.1636
G01 X-12.5312 Y-4.2642
G01 X-12.5312 Y-5.7192
G01 X-12.4768 Y-5.7192
G01 X-12.4765 Y-4.2889
G00 X-12.4765 Y-4.2889
G01 F60.00
G01 Z-0.0750
G01 F120.00
G01 X-12.4635 Y-4.2236
G01 X-12.4322 Y-4.1649
G01 X-12.3851 Y-4.1178
G01 X-12.3264 Y-4.0865
G01 X-12.2500 Y-4.0732
G01 X-11.7308 Y-4.0732
G01 X-11.7308 Y-4.0188
G01 X-12.3073 Y-4.0211
G01 X-12.3864 Y-4.0508
G01 X-12.4509 Y-4.0991
G01 X-12.4992 Y-4.1636
G01 X-12.5312 Y-4.2642
G01 X-12.5312 Y-5.7192
G01 X-12.4768 Y-5.7192
G01 X-12.4765 Y-4.2889
G00 X-12.4765 Y-4.2889
G01 F60.00
G01 Z-0.1000
G01 F120.00
G01 X-12.4635 Y-4.2236
G01 X-12.4322 Y-4.1649
G01 X-12.3851 Y-4.1178
G01 X-12.3264 Y-4.0865
G01 X-12.2500 Y-4.0732
G01 X-11.7308 Y-4.0732
G01 X-11.7308 Y-4.0188
G01 X-12.3073 Y-4.0211
G01 X-12.3864 Y-4.0508
G01 X-12.4509 Y-4.0991
G01 X-12.4992 Y-4.1636
G01 X-12.5312 Y-4.2642
G01 X-12.5312 Y-5.7192
G01 X-12.4768 Y-5.7192
G01 X-12.4765 Y-4.2889
G00 Z2.0000
G00 X-12.4992 Y-8.2364
G01 F60.00
G01 Z-0.0250
G01 F120.00
G01 X-12.4509 Y-8.3009
G01 X-12.3864 Y-8.3492
G01 X-12.3073 Y-8.3789
G01 X-11.7308 Y-8.3812
G01 X-11.7308 Y-8.3268
G01 X-12.2500 Y-8.3268
G01 X-12.3051 Y-8.3200
G01 X-12.3666 Y-8.2945
G01 X-12.4023 Y-8.2680
G01 X-12.4550 Y-8.1970
G01 X-12.4700 Y-8.1551
G01 X-12.4768 Y-8.1000
G01 X-12.4768 Y-6.6808
G01 X-12.5312 Y-6.6808
G01 X-12.5312 Y-8.1358
G01 X-12.4992 Y-8.2364
G00 X-12.4992 Y-8.2364
G01 F60.00
G01 Z-0.0500
G01 F120.00
G01 X-12.4509 Y-8.3009
G01 X-12.3864 Y-8.3492
G01 X-12.3073 Y-8.3789
G01 X-11.7308 Y-8.3812
G01 X-11.7308 Y-8.3268
G01 X-12.2500 Y-8.3268
G01 X-12.3051 Y-8.3200
G01 X-12.3666 Y-8.2945
G01 X-12.4023 Y-8.2680
G01 X-12.4550 Y-8.1970
G01 X-12.4700 Y-8.1551
G01 X-12.4768 Y-8.1000
G01 X-12.4768 Y-6.6808
G01 X-12.5312 Y-6.6808
G01 X-12.5312 Y-8.1358
G01 X-12.4992 Y-8.2364
G00 X-12.4992 Y-8.2364
G01 F60.00
G01 Z-0.0750
G01 F120.00
G01 X-12.4509 Y-8.3009
G01 X-12.3864 Y-8.3492
G01 X-12.3073 Y-8.3789
G01 X-11.7308 Y-8.3812
G01 X-11.7308 Y-8.3268
G01 X-12.2500 Y-8.3268
G01 X-12.3051 Y-8.3200
G01 X-12.3666 Y-8.2945
G01 X-12.4023 Y-8.2680
G01 X-12.4550 Y-8.1970
G01 X-12.4700 Y-8.1551
G01 X-12.4768 Y-8.1000
G01 X-12.4768 Y-6.6808
G01 X-12.5312 Y-6.6808
G01 X-12.5312 Y-8.1358
G01 X-12.4992 Y-8.2364
G00 X-12.4992 Y-8.2364
G01 F60.00
G01 Z-0.1000
G01 F120.00
G01 X-12.4509 Y-8.3009
G01 X-12.3864 Y-8.3492
G01 X-12.3073 Y-8.3789
G01 X-11.7308 Y-8.3812
G01 X-11.7308 Y-8.3268
G01 X-12.2500 Y-8.3268
G01 X-12.3051 Y-8.3200
G01 X-12.3666 Y-8.2945
G01 X-12.4023 Y-8.2680
G01 X-12.4550 Y-8.1970
G01 X-12.4700 Y-8.1551
G01 X-12.4768 Y-8.1000
G01 X-12.4768 Y-6.6808
G01 X-12.5312 Y-6.6808
G01 X-12.5312 Y-8.1358
G01 X-12.4992 Y-8.2364
G00 Z2.0000
G00 X-12.7045 Y-10.0514
G01 F60.00
G01 Z-0.0250
G01 F120.00
G01 X-12.6265 Y-10.1173
G01 X-12.5532 Y-10.2184
G01 X-12.3734 Y-10.2142
G01 X-12.4242 Y-10.1966
G01 X-12.5145 Y-10.1463
G01 X-12.6381 Y-10.0282
G01 X-12.7192 Y-9.9780
G01 X-12.7192 Y-10.0423
G01 X-12.7045 Y-10.0514
G00 X-12.7045 Y-10.0514
G01 F60.00
G01 Z-0.0500
G01 F120.00
G01 X-12.6265 Y-10.1173
G01 X-12.5532 Y-10.2184
G01 X-12.3734 Y-10.2142
G01 X-12.4242 Y-10.1966
G01 X-12.5145 Y-10.1463
G01 X-12.6381 Y-10.0282
G01 X-12.7192 Y-9.9780
G01 X-12.7192 Y-10.0423
G01 X-12.7045 Y-10.0514
G00 X-12.7045 Y-10.0514
G01 F60.00
G01 Z-0.0750
G01 F120.00
G01 X-12.6265 Y-10.1173
G01 X-12.5532 Y-10.2184
G01 X-12.3734 Y-10.2142
G01 X-12.4242 Y-10.1966
G01 X-12.5145 Y-10.1463
G01 X-12.6381 Y-10.0282
G01 X-12.7192 Y-9.9780
G01 X-12.7192 Y-10.0423
G01 X-12.7045 Y-10.0514
G00 X-12.7045 Y-10.0514
G01 F60.00
G01 Z-0.1000
G01 F120.00
G01 X-12.6265 Y-10.1173
G01 X-12.5532 Y-10.2184
G01 X-12.3734 Y-10.2142
G01 X-12.4242 Y-10.1966
G01 X-12.5145 Y-10.1463
G01 X-12.6381 Y-10.0282
G01 X-12.7192 Y-9.9780
G01 X-12.7192 Y-10.0423
G01 X-12.7045 Y-10.0514
G00 Z2.0000
G00 X-12.0677 Y-10.2077
G01 F60.00
G01 Z-0.0250
G01 F120.00
G01 X-12.0094 Y-10.1844
G01 X-11.9369 Y-10.1700
G01 X-11.7058 Y-10.1682
G01 X-11.7058 Y-10.1138
G01 X-11.9628 Y-10.1142
G01 X-12.0726 Y-10.1461
G01 X-12.1760 Y-10.2006
G01 X-12.2427 Y-10.2142
G01 X-12.0803 Y-10.2142
G01 X-12.0677 Y-10.2077
G00 X-12.0677 Y-10.2077
G01 F60.00
G01 Z-0.0500
G01 F120.00
G01 X-12.0094 Y-10.1844
G01 X-11.9369 Y-10.1700
G01 X-11.7058 Y-10.1682
G01 X-11.7058 Y-10.1138
G01 X-11.9628 Y-10.1142
G01 X-12.0726 Y-10.1461
G01 X-12.1760 Y-10.2006
G01 X-12.2427 Y-10.2142
G01 X-12.0803 Y-10.2142
G01 X-12.0677 Y-10.2077
G00 X-12.0677 Y-10.2077
G01 F60.00
G01 Z-0.0750
G01 F120.00
G01 X-12.0094 Y-10.1844
G01 X-11.9369 Y-10.1700
G01 X-11.7058 Y-10.1682
G01 X-11.7058 Y-10.1138
G01 X-11.9628 Y-10.1142
G01 X-12.0726 Y-10.1461
G01 X-12.1760 Y-10.2006
G01 X-12.2427 Y-10.2142
G01 X-12.0803 Y-10.2142
G01 X-12.0677 Y-10.2077
G00 X-12.0677 Y-10.2077
G01 F60.00
G01 Z-0.1000
G01 F120.00
G01 X-12.0094 Y-10.1844
G01 X-11.9369 Y-10.1700
G01 X-11.7058 Y-10.1682
G01 X-11.7058 Y-10.1138
G01 X-11.9628 Y-10.1142
G01 X-12.0726 Y-10.1461
G01 X-12.1760 Y-10.2006
G01 X-12.2427 Y-10.2142
G01 X-12.0803 Y-10.2142
G01 X-12.0677 Y-10.2077
G00 Z2.0000
G00 X-10.5389 Y-10.1685
G01 F60.00
G01 Z-0.0250
G01 F120.00
G01 X-10.4513 Y-10.1815
G01 X-10.3697 Y-10.2142
G01 X-10.2710 Y-10.2142
G01 X-10.3774 Y-10.1461
G01 X-10.4872 Y-10.1142
G01 X-10.7442 Y-10.1138
G01 X-10.7442 Y-10.1682
G01 X-10.5389 Y-10.1685
G00 X-10.5389 Y-10.1685
G01 F60.00
G01 Z-0.0500
G01 F120.00
G01 X-10.4513 Y-10.1815
G01 X-10.3697 Y-10.2142
G01 X-10.2710 Y-10.2142
G01 X-10.3774 Y-10.1461
G01 X-10.4872 Y-10.1142
G01 X-10.7442 Y-10.1138
G01 X-10.7442 Y-10.1682
G01 X-10.5389 Y-10.1685
G00 X-10.5389 Y-10.1685
G01 F60.00
G01 Z-0.0750
G01 F120.00
G01 X-10.4513 Y-10.1815
G01 X-10.3697 Y-10.2142
G01 X-10.2710 Y-10.2142
G01 X-10.3774 Y-10.1461
G01 X-10.4872 Y-10.1142
G01 X-10.7442 Y-10.1138
G01 X-10.7442 Y-10.1682
G01 X-10.5389 Y-10.1685
G00 X-10.5389 Y-10.1685
G01 F60.00
G01 Z-0.1000
G01 F120.00
G01 X-10.4513 Y-10.1815
G01 X-10.3697 Y-10.2142
G01 X-10.2710 Y-10.2142
G01 X-10.3774 Y-10.1461
G01 X-10.4872 Y-10.1142
G01 X-10.7442 Y-10.1138
G01 X-10.7442 Y-10.1682
G01 X-10.5389 Y-10.1685
G00 Z2.0000
G00 X-10.1742 Y-11.7892
G01 F60.00
G01 Z-0.0250
G01 F120.00
G01 X-10.2019 Y-11.6708
G01 X-10.2660 Y-11.5675
G01 X-10.3110 Y-11.5237
G01 X-10.3627 Y-11.4882
G01 X-10.4765 Y-11.4454
G01 X-10.5500 Y-11.4382
G01 X-11.9000 Y-11.4382
G01 X-11.9735 Y-11.4454
G01 X-12.0677 Y-11.4777
G01 X-12.1390 Y-11.5237
G01 X-12.1981 Y-11.5847
G01 X-12.2481 Y-11.6708
G01 X-12.2696 Y-11.7415
G01 X-12.2765 Y-11.8039
G01 X-12.2767 Y-12.1206
G01 X-12.2696 Y-12.1885
G01 X-12.2323 Y-12.2926
G01 X-12.1664 Y-12.3814
G01 X-12.0776 Y-12.4473
G01 X-11.9625 Y-12.4865
G01 X-11.9000 Y-12.4918
G01 X-10.5500 Y-12.4918
G01 X-10.4765 Y-12.4846
G01 X-10.3823 Y-12.4523
G01 X-10.3110 Y-12.4063
G01 X-10.2519 Y-12.3453
G01 X-10.2019 Y-12.2592
G01 X-10.1742 Y-12.1408
G01 X-10.1742 Y-11.7892
G00 X-10.1742 Y-11.7892
G01 F60.00
G01 Z-0.0500
G01 F120.00
G01 X-10.2019 Y-11.6708
G01 X-10.2660 Y-11.5675
G01 X-10.3110 Y-11.5237
G01 X-10.3627 Y-11.4882
G01 X-10.4765 Y-11.4454
G01 X-10.5500 Y-11.4382
G01 X-11.9000 Y-11.4382
G01 X-11.9735 Y-11.4454
G01 X-12.0677 Y-11.4777
G01 X-12.1390 Y-11.5237
G01 X-12.1981 Y-11.5847
G01 X-12.2481 Y-11.6708
G01 X-12.2696 Y-11.7415
G01 X-12.2765 Y-11.8039
G01 X-12.2767 Y-12.1206
G01 X-12.2696 Y-12.1885
G01 X-12.2323 Y-12.2926
G01 X-12.1664 Y-12.3814
G01 X-12.0776 Y-12.4473
G01 X-11.9625 Y-12.4865
G01 X-11.9000 Y-12.4918
G01 X-10.5500 Y-12.4918
G01 X-10.4765 Y-12.4846
G01 X-10.3823 Y-12.4523
G01 X-10.3110 Y-12.4063
G01 X-10.2519 Y-12.3453
G01 X-10.2019 Y-12.2592
G01 X-10.1742 Y-12.1408
G01 X-10.1742 Y-11.7892
G00 X-10.1742 Y-11.7892
G01 F60.00
G01 Z-0.0750
G01 F120.00
G01 X-10.2019 Y-11.6708
G01 X-10.2660 Y-11.5675
G01 X-10.3110 Y-11.5237
G01 X-10.3627 Y-11.4882
G01 X-10.4765 Y-11.4454
G01 X-10.5500 Y-11.4382
G01 X-11.9000 Y-11.4382
G01 X-11.9735 Y-11.4454
G01 X-12.0677 Y-11.4777
G01 X-12.1390 Y-11.5237
G01 X-12.1981 Y-11.5847
G01 X-12.2481 Y-11.6708
G01 X-12.2696 Y-11.7415
G01 X-12.2765 Y-11.8039
G01 X-12.2767 Y-12.1206
G01 X-12.2696 Y-12.1885
G01 X-12.2323 Y-12.2926
G01 X-12.1664 Y-12.3814
G01 X-12.0776 Y-12.4473
G01 X-11.9625 Y-12.4865
G01 X-11.9000 Y-12.4918
G01 X-10.5500 Y-12.4918
G01 X-10.4765 Y-12.4846
G01 X-10.3823 Y-12.4523
G01 X-10.3110 Y-12.4063
G01 X-10.2519 Y-12.3453
G01 X-10.2019 Y-12.2592
G01 X-10.1742 Y-12.1408
G01 X-10.1742 Y-11.7892
G00 X-10.1742 Y-11.7892
G01 F60.00
G01 Z-0.1000
G01 F120.00
G01 X-10.2019 Y-11.6708
G01 X-10.2660 Y-11.5675
G01 X-10.3110 Y-11.5237
G01 X-10.3627 Y-11.4882
G01 X-10.4765 Y-11.4454
G01 X-10.5500 Y-11.4382
G01 X-11.9000 Y-11.4382
G01 X-11.9735 Y-11.4454
G01 X-12.0677 Y-11.4777
G01 X-12.1390 Y-11.5237
G01 X-12.1981 Y-11.5847
G01 X-12.2481 Y-11.6708
G01 X-12.2696 Y-11.7415
G01 X-12.2765 Y-11.8039
G01 X-12.2767 Y-12.1206
G01 X-12.2696 Y-12.1885
G01 X-12.2323 Y-12.2926
G01 X-12.1664 Y-12.3814
G01 X-12.0776 Y-12.4473
G01 X-11.9625 Y-12.4865
G01 X-11.9000 Y-12.4918
G01 X-10.5500 Y-12.4918
G01 X-10.4765 Y-12.4846
G01 X-10.3823 Y-12.4523
G01 X-10.3110 Y-12.4063
G01 X-10.2519 Y-12.3453
G01 X-10.2019 Y-12.2592
G01 X-10.1742 Y-12.1408
G01 X-10.1742 Y-11.7892
G00 Z2.0000
G00 X-10.1742 Y-13.0592
G01 F60.00
G01 Z-0.0250
G01 F120.00
G01 X-10.2019 Y-12.9408
G01 X-10.2660 Y-12.8375
G01 X-10.3110 Y-12.7937
G01 X-10.3627 Y-12.7582
G01 X-10.4765 Y-12.7154
G01 X-10.5500 Y-12.7082
G01 X-11.9000 Y-12.7082
G01 X-11.9735 Y-12.7154
G01 X-12.0677 Y-12.7477
G01 X-12.1390 Y-12.7937
G01 X-12.1981 Y-12.8547
G01 X-12.2481 Y-12.9408
G01 X-12.2696 Y-13.0115
G01 X-12.2765 Y-13.0739
G01 X-12.2767 Y-13.3906
G01 X-12.2696 Y-13.4585
G01 X-12.2323 Y-13.5626
G01 X-12.1664 Y-13.6514
G01 X-12.0776 Y-13.7173
G01 X-11.9625 Y-13.7565
G01 X-11.9000 Y-13.7618
G01 X-10.5500 Y-13.7618
G01 X-10.4765 Y-13.7546
G01 X-10.3823 Y-13.7223
G01 X-10.3110 Y-13.6763
G01 X-10.2519 Y-13.6153
G01 X-10.2019 Y-13.5292
G01 X-10.1742 Y-13.4108
G01 X-10.1742 Y-13.0592
G00 X-10.1742 Y-13.0592
G01 F60.00
G01 Z-0.0500
G01 F120.00
G01 X-10.2019 Y-12.9408
G01 X-10.2660 Y-12.8375
G01 X-10.3110 Y-12.7937
G01 X-10.3627 Y-12.7582
G01 X-10.4765 Y-12.7154
G01 X-10.5500 Y-12.7082
G01 X-11.9000 Y-12.7082
G01 X-11.9735 Y-12.7154
G01 X-12.0677 Y-12.7477
G01 X-12.1390 Y-12.7937
G01 X-12.1981 Y-12.8547
G01 X-12.2481 Y-12.9408
G01 X-12.2696 Y-13.0115
G01 X-12.2765 Y-13.0739
G01 X-12.2767 Y-13.3906
G01 X-12.2696 Y-13.4585
G01 X-12.2323 Y-13.5626
G01 X-12.1664 Y-13.6514
G01 X-12.0776 Y-13.7173
G01 X-11.9625 Y-13.7565
G01 X-11.9000 Y-13.7618
G01 X-10.5500 Y-13.7618
G01 X-10.4765 Y-13.7546
G01 X-10.3823 Y-13.7223
G01 X-10.3110 Y-13.6763
G01 X-10.2519 Y-13.6153
G01 X-10.2019 Y-13.5292
G01 X-10.1742 Y-13.4108
G01 X-10.1742 Y-13.0592
G00 X-10.1742 Y-13.0592
G01 F60.00
G01 Z-0.0750
G01 F120.00
G01 X-10.2019 Y-12.9408
G01 X-10.2660 Y-12.8375
G01 X-10.3110 Y-12.7937
G01 X-10.3627 Y-12.7582
G01 X-10.4765 Y-12.7154
G01 X-10.5500 Y-12.7082
G01 X-11.9000 Y-12.7082
G01 X-11.9735 Y-12.7154
G01 X-12.0677 Y-12.7477
G01 X-12.1390 Y-12.7937
G01 X-12.1981 Y-12.8547
G01 X-12.2481 Y-12.9408
G01 X-12.2696 Y-13.0115
G01 X-12.2765 Y-13.0739
G01 X-12.2767 Y-13.3906
G01 X-12.2696 Y-13.4585
G01 X-12.2323 Y-13.5626
G01 X-12.1664 Y-13.6514
G01 X-12.0776 Y-13.7173
G01 X-11.9625 Y-13.7565
G01 X-11.9000 Y-13.7618
G01 X-10.5500 Y-13.7618
G01 X-10.4765 Y-13.7546
G01 X-10.3823 Y-13.7223
G01 X-10.3110 Y-13.6763
G01 X-10.2519 Y-13.6153
G01 X-10.2019 Y-13.5292
G01 X-10.1742 Y-13.4108
G01 X-10.1742 Y-13.0592
G00 X-10.1742 Y-13.0592
G01 F60.00
G01 Z-0.1000
G01 F120.00
G01 X-10.2019 Y-12.9408
G01 X-10.2660 Y-12.8375
G01 X-10.3110 Y-12.7937
G01 X-10.3627 Y-12.7582
G01 X-10.4765 Y-12.7154
G01 X-10.5500 Y-12.7082
G01 X-11.9000 Y-12.7082
G01 X-11.9735 Y-12.7154
G01 X-12.0677 Y-12.7477
G01 X-12.1390 Y-12.7937
G01 X-12.1981 Y-12.8547
G01 X-12.2481 Y-12.9408
G01 X-12.2696 Y-13.0115
G01 X-12.2765 Y-13.0739
G01 X-12.2767 Y-13.3906
G01 X-12.2696 Y-13.4585
G01 X-12.2323 Y-13.5626
G01 X-12.1664 Y-13.6514
G01 X-12.0776 Y-13.7173
G01 X-11.9625 Y-13.7565
G01 X-11.9000 Y-13.7618
G01 X-10.5500 Y-13.7618
G01 X-10.4765 Y-13.7546
G01 X-10.3823 Y-13.7223
G01 X-10.3110 Y-13.6763
G01 X-10.2519 Y-13.6153
G01 X-10.2019 Y-13.5292
G01 X-10.1742 Y-13.4108
G01 X-10.1742 Y-13.0592
G00 Z2.0000
G00 X-10.4058 Y-15.0031
G01 F60.00
G01 Z-0.0250
G01 F120.00
G01 X-10.3629 Y-14.9819
G01 X-9.8925 Y-14.9819
G01 X-9.7769 Y-15.0975
G01 X-9.7767 Y-16.2111
G01 X-9.7594 Y-16.3277
G01 X-9.7206 Y-16.4248
G01 X-9.6372 Y-16.5372
G01 X-8.4372 Y-17.7372
G01 X-8.3650 Y-17.7965
G01 X-8.2825 Y-17.8406
G01 X-8.1930 Y-17.8678
G01 X-8.1056 Y-17.8769
G01 X-5.6891 Y-17.8769
G01 X-5.6273 Y-17.9796
G01 X-5.5137 Y-18.1180
G01 X-5.4314 Y-18.1937
G01 X-5.3411 Y-18.2597
G01 X-5.1831 Y-18.3441
G01 X-5.0781 Y-18.3826
G01 X-4.8917 Y-18.4205
G01 X-4.7800 Y-18.4268
G01 X-4.6683 Y-18.4205
G01 X-4.4819 Y-18.3826
G01 X-4.3769 Y-18.3441
G01 X-4.2095 Y-18.2538
G01 X-4.1202 Y-18.1865
G01 X-3.9863 Y-18.0514
G01 X-3.9203 Y-17.9611
G01 X-3.8314 Y-17.7929
G01 X-3.7974 Y-17.6981
G01 X-3.7710 Y-17.5894
G01 X-3.7573 Y-17.4895
G01 X-3.7573 Y-17.3105
G01 X-3.7729 Y-17.1997
G01 X-3.7974 Y-17.1019
G01 X-3.8744 Y-16.9160
G01 X-3.9863 Y-16.7486
G01 X-4.0539 Y-16.6739
G01 X-4.1374 Y-16.5994
G01 X-4.2863 Y-16.4999
G01 X-4.3769 Y-16.4559
G01 X-4.4819 Y-16.4174
G01 X-4.5797 Y-16.3929
G01 X-4.7689 Y-16.3735
G01 X-4.8917 Y-16.3795
G01 X-5.0781 Y-16.4174
G01 X-5.2541 Y-16.4894
G01 X-5.3596 Y-16.5527
G01 X-5.5061 Y-16.6739
G01 X-5.6273 Y-16.8204
G01 X-5.6891 Y-16.9231
G01 X-7.9025 Y-16.9231
G01 X-8.8231 Y-16.0025
G01 X-8.8231 Y-14.8944
G01 X-8.8303 Y-14.8179
G01 X-8.8471 Y-14.7510
G01 X-8.8975 Y-14.6444
G01 X-8.9589 Y-14.5667
G01 X-9.3658 Y-14.1601
G01 X-9.4300 Y-14.1085
G01 X-9.5125 Y-14.0644
G01 X-9.6020 Y-14.0372
G01 X-9.6839 Y-14.0283
G01 X-10.3629 Y-14.0281
G01 X-10.4513 Y-13.9915
G01 X-10.5444 Y-13.9783
G01 X-11.9258 Y-13.9792
G01 X-12.0338 Y-14.0029
G01 X-12.1184 Y-14.0481
G01 X-12.1913 Y-14.1160
G01 X-12.2481 Y-14.2108
G01 X-12.2696 Y-14.2815
G01 X-12.2767 Y-14.3494
G01 X-12.2767 Y-14.6606
G01 X-12.2635 Y-14.7537
G01 X-12.2323 Y-14.8326
G01 X-12.1840 Y-14.9025
G01 X-12.1184 Y-14.9619
G01 X-12.0442 Y-15.0031
G01 X-11.9735 Y-15.0246
G01 X-11.9000 Y-15.0318
G01 X-10.5444 Y-15.0317
G01 X-10.4765 Y-15.0246
G01 X-10.4058 Y-15.0031
G00 X-10.4058 Y-15.0031
G01 F60.00
G01 Z-0.0500
G01 F120.00
G01 X-10.3629 Y-14.9819
G01 X-9.8925 Y-14.9819
G01 X-9.7769 Y-15.0975
G01 X-9.7767 Y-16.2111
G01 X-9.7594 Y-16.3277
G01 X-9.7206 Y-16.4248
G01 X-9.6372 Y-16.5372
G01 X-8.4372 Y-17.7372
G01 X-8.3650 Y-17.7965
G01 X-8.2825 Y-17.8406
G01 X-8.1930 Y-17.8678
G01 X-8.1056 Y-17.8769
G01 X-5.6891 Y-17.8769
G01 X-5.6273 Y-17.9796
G01 X-5.5137 Y-18.1180
G01 X-5.4314 Y-18.1937
G01 X-5.3411 Y-18.2597
G01 X-5.1831 Y-18.3441
G01 X-5.0781 Y-18.3826
G01 X-4.8917 Y-18.4205
G01 X-4.7800 Y-18.4268
G01 X-4.6683 Y-18.4205
G01 X-4.4819 Y-18.3826
G01 X-4.3769 Y-18.3441
G01 X-4.2095 Y-18.2538
G01 X-4.1202 Y-18.1865
G01 X-3.9863 Y-18.0514
G01 X-3.9203 Y-17.9611
G01 X-3.8314 Y-17.7929
G01 X-3.7974 Y-17.6981
G01 X-3.7710 Y-17.5894
G01 X-3.7573 Y-17.4895
G01 X-3.7573 Y-17.3105
G01 X-3.7729 Y-17.1997
G01 X-3.7974 Y-17.1019
G01 X-3.8744 Y-16.9160
G01 X-3.9863 Y-16.7486
G01 X-4.0539 Y-16.6739
G01 X-4.1374 Y-16.5994
G01 X-4.2863 Y-16.4999
G01 X-4.3769 Y-16.4559
G01 X-4.4819 Y-16.4174
G01 X-4.5797 Y-16.3929
G01 X-4.7689 Y-16.3735
G01 X-4.8917 Y-16.3795
G01 X-5.0781 Y-16.4174
G01 X-5.2541 Y-16.4894
G01 X-5.3596 Y-16.5527
G01 X-5.5061 Y-16.6739
G01 X-5.6273 Y-16.8204
G01 X-5.6891 Y-16.9231
G01 X-7.9025 Y-16.9231
G01 X-8.8231 Y-16.0025
G01 X-8.8231 Y-14.8944
G01 X-8.8303 Y-14.8179
G01 X-8.8471 Y-14.7510
G01 X-8.8975 Y-14.6444
G01 X-8.9589 Y-14.5667
G01 X-9.3658 Y-14.1601
G01 X-9.4300 Y-14.1085
G01 X-9.5125 Y-14.0644
G01 X-9.6020 Y-14.0372
G01 X-9.6839 Y-14.0283
G01 X-10.3629 Y-14.0281
G01 X-10.4513 Y-13.9915
G01 X-10.5444 Y-13.9783
G01 X-11.9258 Y-13.9792
G01 X-12.0338 Y-14.0029
G01 X-12.1184 Y-14.0481
G01 X-12.1913 Y-14.1160
G01 X-12.2481 Y-14.2108
G01 X-12.2696 Y-14.2815
G01 X-12.2767 Y-14.3494
G01 X-12.2767 Y-14.6606
G01 X-12.2635 Y-14.7537
G01 X-12.2323 Y-14.8326
G01 X-12.1840 Y-14.9025
G01 X-12.1184 Y-14.9619
G01 X-12.0442 Y-15.0031
G01 X-11.9735 Y-15.0246
G01 X-11.9000 Y-15.0318
G01 X-10.5444 Y-15.0317
G01 X-10.4765 Y-15.0246
G01 X-10.4058 Y-15.0031
G00 X-10.4058 Y-15.0031
G01 F60.00
G01 Z-0.0750
G01 F120.00
G01 X-10.3629 Y-14.9819
G01 X-9.8925 Y-14.9819
G01 X-9.7769 Y-15.0975
G01 X-9.7767 Y-16.2111
G01 X-9.7594 Y-16.3277
G01 X-9.7206 Y-16.4248
G01 X-9.6372 Y-16.5372
G01 X-8.4372 Y-17.7372
G01 X-8.3650 Y-17.7965
G01 X-8.2825 Y-17.8406
G01 X-8.1930 Y-17.8678
G01 X-8.1056 Y-17.8769
G01 X-5.6891 Y-17.8769
G01 X-5.6273 Y-17.9796
G01 X-5.5137 Y-18.1180
G01 X-5.4314 Y-18.1937
G01 X-5.3411 Y-18.2597
G01 X-5.1831 Y-18.3441
G01 X-5.0781 Y-18.3826
G01 X-4.8917 Y-18.4205
G01 X-4.7800 Y-18.4268
G01 X-4.6683 Y-18.4205
G01 X-4.4819 Y-18.3826
G01 X-4.3769 Y-18.3441
G01 X-4.2095 Y-18.2538
G01 X-4.1202 Y-18.1865
G01 X-3.9863 Y-18.0514
G01 X-3.9203 Y-17.9611
G01 X-3.8314 Y-17.7929
G01 X-3.7974 Y-17.6981
G01 X-3.7710 Y-17.5894
G01 X-3.7573 Y-17.4895
G01 X-3.7573 Y-17.3105
G01 X-3.7729 Y-17.1997
G01 X-3.7974 Y-17.1019
G01 X-3.8744 Y-16.9160
G01 X-3.9863 Y-16.7486
G01 X-4.0539 Y-16.6739
G01 X-4.1374 Y-16.5994
G01 X-4.2863 Y-16.4999
G01 X-4.3769 Y-16.4559
G01 X-4.4819 Y-16.4174
G01 X-4.5797 Y-16.3929
G01 X-4.7689 Y-16.3735
G01 X-4.8917 Y-16.3795
G01 X-5.0781 Y-16.4174
G01 X-5.2541 Y-16.4894
G01 X-5.3596 Y-16.5527
G01 X-5.5061 Y-16.6739
G01 X-5.6273 Y-16.8204
G01 X-5.6891 Y-16.9231
G01 X-7.9025 Y-16.9231
G01 X-8.8231 Y-16.0025
G01 X-8.8231 Y-14.8944
G01 X-8.8303 Y-14.8179
G01 X-8.8471 Y-14.7510
G01 X-8.8975 Y-14.6444
G01 X-8.9589 Y-14.5667
G01 X-9.3658 Y-14.1601
G01 X-9.4300 Y-14.1085
G01 X-9.5125 Y-14.0644
G01 X-9.6020 Y-14.0372
G01 X-9.6839 Y-14.0283
G01 X-10.3629 Y-14.0281
G01 X-10.4513 Y-13.9915
G01 X-10.5444 Y-13.9783
G01 X-11.9258 Y-13.9792
G01 X-12.0338 Y-14.0029
G01 X-12.1184 Y-14.0481
G01 X-12.1913 Y-14.1160
G01 X-12.2481 Y-14.2108
G01 X-12.2696 Y-14.2815
G01 X-12.2767 Y-14.3494
G01 X-12.2767 Y-14.6606
G01 X-12.2635 Y-14.7537
G01 X-12.2323 Y-14.8326
G01 X-12.1840 Y-14.9025
G01 X-12.1184 Y-14.9619
G01 X-12.0442 Y-15.0031
G01 X-11.9735 Y-15.0246
G01 X-11.9000 Y-15.0318
G01 X-10.5444 Y-15.0317
G01 X-10.4765 Y-15.0246
G01 X-10.4058 Y-15.0031
G00 X-10.4058 Y-15.0031
G01 F60.00
G01 Z-0.1000
G01 F120.00
G01 X-10.3629 Y-14.9819
G01 X-9.8925 Y-14.9819
G01 X-9.7769 Y-15.0975
G01 X-9.7767 Y-16.2111
G01 X-9.7594 Y-16.3277
G01 X-9.7206 Y-16.4248
G01 X-9.6372 Y-16.5372
G01 X-8.4372 Y-17.7372
G01 X-8.3650 Y-17.7965
G01 X-8.2825 Y-17.8406
G01 X-8.1930 Y-17.8678
G01 X-8.1056 Y-17.8769
G01 X-5.6891 Y-17.8769
G01 X-5.6273 Y-17.9796
G01 X-5.5137 Y-18.1180
G01 X-5.4314 Y-18.1937
G01 X-5.3411 Y-18.2597
G01 X-5.1831 Y-18.3441
G01 X-5.0781 Y-18.3826
G01 X-4.8917 Y-18.4205
G01 X-4.7800 Y-18.4268
G01 X-4.6683 Y-18.4205
G01 X-4.4819 Y-18.3826
G01 X-4.3769 Y-18.3441
G01 X-4.2095 Y-18.2538
G01 X-4.1202 Y-18.1865
G01 X-3.9863 Y-18.0514
G01 X-3.9203 Y-17.9611
G01 X-3.8314 Y-17.7929
G01 X-3.7974 Y-17.6981
G01 X-3.7710 Y-17.5894
G01 X-3.7573 Y-17.4895
G01 X-3.7573 Y-17.3105
G01 X-3.7729 Y-17.1997
G01 X-3.7974 Y-17.1019
G01 X-3.8744 Y-16.9160
G01 X-3.9863 Y-16.7486
G01 X-4.0539 Y-16.6739
G01 X-4.1374 Y-16.5994
G01 X-4.2863 Y-16.4999
G01 X-4.3769 Y-16.4559
G01 X-4.4819 Y-16.4174
G01 X-4.5797 Y-16.3929
G01 X-4.7689 Y-16.3735
G01 X-4.8917 Y-16.3795
G01 X-5.0781 Y-16.4174
G01 X-5.2541 Y-16.4894
G01 X-5.3596 Y-16.5527
G01 X-5.5061 Y-16.6739
G01 X-5.6273 Y-16.8204
G01 X-5.6891 Y-16.9231
G01 X-7.9025 Y-16.9231
G01 X-8.8231 Y-16.0025
G01 X-8.8231 Y-14.8944
G01 X-8.8303 Y-14.8179
G01 X-8.8471 Y-14.7510
G01 X-8.8975 Y-14.6444
G01 X-8.9589 Y-14.5667
G01 X-9.3658 Y-14.1601
G01 X-9.4300 Y-14.1085
G01 X-9.5125 Y-14.0644
G01 X-9.6020 Y-14.0372
G01 X-9.6839 Y-14.0283
G01 X-10.3629 Y-14.0281
G01 X-10.4513 Y-13.9915
G01 X-10.5444 Y-13.9783
G01 X-11.9258 Y-13.9792
G01 X-12.0338 Y-14.0029
G01 X-12.1184 Y-14.0481
G01 X-12.1913 Y-14.1160
G01 X-12.2481 Y-14.2108
G01 X-12.2696 Y-14.2815
G01 X-12.2767 Y-14.3494
G01 X-12.2767 Y-14.6606
G01 X-12.2635 Y-14.7537
G01 X-12.2323 Y-14.8326
G01 X-12.1840 Y-14.9025
G01 X-12.1184 Y-14.9619
G01 X-12.0442 Y-15.0031
G01 X-11.9735 Y-15.0246
G01 X-11.9000 Y-15.0318
G01 X-10.5444 Y-15.0317
G01 X-10.4765 Y-15.0246
G01 X-10.4058 Y-15.0031
G00 Z2.0000
G00 X-13.4265 Y-16.5889
G01 F60.00
G01 Z-0.0250
G01 F120.00
G01 X-13.4268 Y-16.9231
G01 X-14.5962 Y-16.9231
G01 X-14.6704 Y-16.8579
G01 X-14.7496 Y-16.8131
G01 X-14.8469 Y-16.7821
G01 X-14.9264 Y-16.7735
G01 X-15.4830 Y-16.7754
G01 X-15.5723 Y-16.7932
G01 X-15.6564 Y-16.8280
G01 X-15.7405 Y-16.8859
G01 X-15.8171 Y-16.9704
G01 X-15.8665 Y-17.0598
G01 X-15.8948 Y-17.1579
G01 X-15.9018 Y-17.2375
G01 X-15.9004 Y-17.7469
G01 X-15.8818 Y-17.8473
G01 X-15.8470 Y-17.9314
G01 X-15.7964 Y-18.0070
G01 X-15.7320 Y-18.0714
G01 X-15.6564 Y-18.1220
G01 X-15.5616 Y-18.1598
G01 X-15.4431 Y-18.1767
G01 X-14.9319 Y-18.1767
G01 X-14.8027 Y-18.1568
G01 X-14.6795 Y-18.0986
G01 X-14.5786 Y-18.0070
G01 X-14.5335 Y-17.9411
G01 X-14.5035 Y-17.8769
G01 X-13.4268 Y-17.8769
G01 X-13.4265 Y-18.2111
G01 X-13.4135 Y-18.2764
G01 X-13.3822 Y-18.3351
G01 X-13.3523 Y-18.3680
G01 X-13.3166 Y-18.3945
G01 X-13.2551 Y-18.4200
G01 X-13.2000 Y-18.4268
G01 X-11.5889 Y-18.4265
G01 X-11.5030 Y-18.4050
G01 X-11.4320 Y-18.3523
G01 X-11.3865 Y-18.2764
G01 X-11.3735 Y-18.2111
G01 X-11.3732 Y-16.6000
G01 X-11.3800 Y-16.5449
G01 X-11.3950 Y-16.5030
G01 X-11.4477 Y-16.4320
G01 X-11.5236 Y-16.3865
G01 X-11.5889 Y-16.3735
G01 X-13.2111 Y-16.3735
G01 X-13.2764 Y-16.3865
G01 X-13.3523 Y-16.4320
G01 X-13.4050 Y-16.5030
G01 X-13.4265 Y-16.5889
G00 X-13.4265 Y-16.5889
G01 F60.00
G01 Z-0.0500
G01 F120.00
G01 X-13.4268 Y-16.9231
G01 X-14.5962 Y-16.9231
G01 X-14.6704 Y-16.8579
G01 X-14.7496 Y-16.8131
G01 X-14.8469 Y-16.7821
G01 X-14.9264 Y-16.7735
G01 X-15.4830 Y-16.7754
G01 X-15.5723 Y-16.7932
G01 X-15.6564 Y-16.8280
G01 X-15.7405 Y-16.8859
G01 X-15.8171 Y-16.9704
G01 X-15.8665 Y-17.0598
G01 X-15.8948 Y-17.1579
G01 X-15.9018 Y-17.2375
G01 X-15.9004 Y-17.7469
G01 X-15.8818 Y-17.8473
G01 X-15.8470 Y-17.9314
G01 X-15.7964 Y-18.0070
G01 X-15.7320 Y-18.0714
G01 X-15.6564 Y-18.1220
G01 X-15.5616 Y-18.1598
G01 X-15.4431 Y-18.1767
G01 X-14.9319 Y-18.1767
G01 X-14.8027 Y-18.1568
G01 X-14.6795 Y-18.0986
G01 X-14.5786 Y-18.0070
G01 X-14.5335 Y-17.9411
G01 X-14.5035 Y-17.8769
G01 X-13.4268 Y-17.8769
G01 X-13.4265 Y-18.2111
G01 X-13.4135 Y-18.2764
G01 X-13.3822 Y-18.3351
G01 X-13.3523 Y-18.3680
G01 X-13.3166 Y-18.3945
G01 X-13.2551 Y-18.4200
G01 X-13.2000 Y-18.4268
G01 X-11.5889 Y-18.4265
G01 X-11.5030 Y-18.4050
G01 X-11.4320 Y-18.3523
G01 X-11.3865 Y-18.2764
G01 X-11.3735 Y-18.2111
G01 X-11.3732 Y-16.6000
G01 X-11.3800 Y-16.5449
G01 X-11.3950 Y-16.5030
G01 X-11.4477 Y-16.4320
G01 X-11.5236 Y-16.3865
G01 X-11.5889 Y-16.3735
G01 X-13.2111 Y-16.3735
G01 X-13.2764 Y-16.3865
G01 X-13.3523 Y-16.4320
G01 X-13.4050 Y-16.5030
G01 X-13.4265 Y-16.5889
G00 X-13.4265 Y-16.5889
G01 F60.00
G01 Z-0.0750
G01 F120.00
G01 X-13.4268 Y-16.9231
G01 X-14.5962 Y-16.9231
G01 X-14.6704 Y-16.8579
G01 X-14.7496 Y-16.8131
G01 X-14.8469 Y-16.7821
G01 X-14.9264 Y-16.7735
G01 X-15.4830 Y-16.7754
G01 X-15.5723 Y-16.7932
G01 X-15.6564 Y-16.8280
G01 X-15.7405 Y-16.8859
G01 X-15.8171 Y-16.9704
G01 X-15.8665 Y-17.0598
G01 X-15.8948 Y-17.1579
G01 X-15.9018 Y-17.2375
G01 X-15.9004 Y-17.7469
G01 X-15.8818 Y-17.8473
G01 X-15.8470 Y-17.9314
G01 X-15.7964 Y-18.0070
G01 X-15.7320 Y-18.0714
G01 X-15.6564 Y-18.1220
G01 X-15.5616 Y-18.1598
G01 X-15.4431 Y-18.1767
G01 X-14.9319 Y-18.1767
G01 X-14.8027 Y-18.1568
G01 X-14.6795 Y-18.0986
G01 X-14.5786 Y-18.0070
G01 X-14.5335 Y-17.9411
G01 X-14.5035 Y-17.8769
G01 X-13.4268 Y-17.8769
G01 X-13.4265 Y-18.2111
G01 X-13.4135 Y-18.2764
G01 X-13.3822 Y-18.3351
G01 X-13.3523 Y-18.3680
G01 X-13.3166 Y-18.3945
G01 X-13.2551 Y-18.4200
G01 X-13.2000 Y-18.4268
G01 X-11.5889 Y-18.4265
G01 X-11.5030 Y-18.4050
G01 X-11.4320 Y-18.3523
G01 X-11.3865 Y-18.2764
G01 X-11.3735 Y-18.2111
G01 X-11.3732 Y-16.6000
G01 X-11.3800 Y-16.5449
G01 X-11.3950 Y-16.5030
G01 X-11.4477 Y-16.4320
G01 X-11.5236 Y-16.3865
G01 X-11.5889 Y-16.3735
G01 X-13.2111 Y-16.3735
G01 X-13.2764 Y-16.3865
G01 X-13.3523 Y-16.4320
G01 X-13.4050 Y-16.5030
G01 X-13.4265 Y-16.5889
G00 X-13.4265 Y-16.5889
G01 F60.00
G01 Z-0.1000
G01 F120.00
G01 X-13.4268 Y-16.9231
G01 X-14.5962 Y-16.9231
G01 X-14.6704 Y-16.8579
G01 X-14.7496 Y-16.8131
G01 X-14.8469 Y-16.7821
G01 X-14.9264 Y-16.7735
G01 X-15.4830 Y-16.7754
G01 X-15.5723 Y-16.7932
G01 X-15.6564 Y-16.8280
G01 X-15.7405 Y-16.8859
G01 X-15.8171 Y-16.9704
G01 X-15.8665 Y-17.0598
G01 X-15.8948 Y-17.1579
G01 X-15.9018 Y-17.2375
G01 X-15.9004 Y-17.7469
G01 X-15.8818 Y-17.8473
G01 X-15.8470 Y-17.9314
G01 X-15.7964 Y-18.0070
G01 X-15.7320 Y-18.0714
G01 X-15.6564 Y-18.1220
G01 X-15.5616 Y-18.1598
G01 X-15.4431 Y-18.1767
G01 X-14.9319 Y-18.1767
G01 X-14.8027 Y-18.1568
G01 X-14.6795 Y-18.0986
G01 X-14.5786 Y-18.0070
G01 X-14.5335 Y-17.9411
G01 X-14.5035 Y-17.8769
G01 X-13.4268 Y-17.8769
G01 X-13.4265 Y-18.2111
G01 X-13.4135 Y-18.2764
G01 X-13.3822 Y-18.3351
G01 X-13.3523 Y-18.3680
G01 X-13.3166 Y-18.3945
G01 X-13.2551 Y-18.4200
G01 X-13.2000 Y-18.4268
G01 X-11.5889 Y-18.4265
G01 X-11.5030 Y-18.4050
G01 X-11.4320 Y-18.3523
G01 X-11.3865 Y-18.2764
G01 X-11.3735 Y-18.2111
G01 X-11.3732 Y-16.6000
G01 X-11.3800 Y-16.5449
G01 X-11.3950 Y-16.5030
G01 X-11.4477 Y-16.4320
G01 X-11.5236 Y-16.3865
G01 X-11.5889 Y-16.3735
G01 X-13.2111 Y-16.3735
G01 X-13.2764 Y-16.3865
G01 X-13.3523 Y-16.4320
G01 X-13.4050 Y-16.5030
G01 X-13.4265 Y-16.5889
G00 Z2.0000
G00 X-13.6808 Y-13.2220
G01 F60.00
G01 Z-0.0250
G01 F120.00
G01 X-13.6808 Y-13.1577
G01 X-13.7405 Y-13.1141
G01 X-13.7964 Y-13.0570
G01 X-13.8651 Y-12.9433
G01 X-13.9240 Y-12.9433
G01 X-13.9108 Y-12.9832
G01 X-13.8473 Y-13.0862
G01 X-13.7619 Y-13.1718
G01 X-13.6808 Y-13.2220
G00 X-13.6808 Y-13.2220
G01 F60.00
G01 Z-0.0500
G01 F120.00
G01 X-13.6808 Y-13.1577
G01 X-13.7405 Y-13.1141
G01 X-13.7964 Y-13.0570
G01 X-13.8651 Y-12.9433
G01 X-13.9240 Y-12.9433
G01 X-13.9108 Y-12.9832
G01 X-13.8473 Y-13.0862
G01 X-13.7619 Y-13.1718
G01 X-13.6808 Y-13.2220
G00 X-13.6808 Y-13.2220
G01 F60.00
G01 Z-0.0750
G01 F120.00
G01 X-13.6808 Y-13.1577
G01 X-13.7405 Y-13.1141
G01 X-13.7964 Y-13.0570
G01 X-13.8651 Y-12.9433
G01 X-13.9240 Y-12.9433
G01 X-13.9108 Y-12.9832
G01 X-13.8473 Y-13.0862
G01 X-13.7619 Y-13.1718
G01 X-13.6808 Y-13.2220
G00 X-13.6808 Y-13.2220
G01 F60.00
G01 Z-0.1000
G01 F120.00
G01 X-13.6808 Y-13.1577
G01 X-13.7405 Y-13.1141
G01 X-13.7964 Y-13.0570
G01 X-13.8651 Y-12.9433
G01 X-13.9240 Y-12.9433
G01 X-13.9108 Y-12.9832
G01 X-13.8473 Y-13.0862
G01 X-13.7619 Y-13.1718
G01 X-13.6808 Y-13.2220
G00 Z2.0000
G00 X-16.4312 Y-13.7064
G01 F60.00
G01 Z-0.0250
G01 F120.00
G01 X-16.4735 Y-13.5484
G01 X-16.5185 Y-13.5934
G01 X-16.4910 Y-13.7055
G01 X-16.4732 Y-13.8949
G01 X-16.4910 Y-14.0842
G01 X-16.5185 Y-14.1964
G01 X-16.4735 Y-14.2414
G01 X-16.4312 Y-14.0834
G01 X-16.4147 Y-13.8949
G01 X-16.4312 Y-13.7064
G00 X-16.4312 Y-13.7064
G01 F60.00
G01 Z-0.0500
G01 F120.00
G01 X-16.4735 Y-13.5484
G01 X-16.5185 Y-13.5934
G01 X-16.4910 Y-13.7055
G01 X-16.4732 Y-13.8949
G01 X-16.4910 Y-14.0842
G01 X-16.5185 Y-14.1964
G01 X-16.4735 Y-14.2414
G01 X-16.4312 Y-14.0834
G01 X-16.4147 Y-13.8949
G01 X-16.4312 Y-13.7064
G00 X-16.4312 Y-13.7064
G01 F60.00
G01 Z-0.0750
G01 F120.00
G01 X-16.4735 Y-13.5484
G01 X-16.5185 Y-13.5934
G01 X-16.4910 Y-13.7055
G01 X-16.4732 Y-13.8949
G01 X-16.4910 Y-14.0842
G01 X-16.5185 Y-14.1964
G01 X-16.4735 Y-14.2414
G01 X-16.4312 Y-14.0834
G01 X-16.4147 Y-13.8949
G01 X-16.4312 Y-13.7064
G00 X-16.4312 Y-13.7064
G01 F60.00
G01 Z-0.1000
G01 F120.00
G01 X-16.4735 Y-13.5484
G01 X-16.5185 Y-13.5934
G01 X-16.4910 Y-13.7055
G01 X-16.4732 Y-13.8949
G01 X-16.4910 Y-14.0842
G01 X-16.5185 Y-14.1964
G01 X-16.4735 Y-14.2414
G01 X-16.4312 Y-14.0834
G01 X-16.4147 Y-13.8949
G01 X-16.4312 Y-13.7064
G00 Z2.0000
G00 X-17.1535 Y-14.9214
G01 F60.00
G01 Z-0.0250
G01 F120.00
G01 X-17.1985 Y-14.8763
G01 X-17.3106 Y-14.9039
G01 X-17.5000 Y-14.9217
G01 X-17.6894 Y-14.9039
G01 X-17.8015 Y-14.8763
G01 X-17.8465 Y-14.9214
G01 X-17.6885 Y-14.9637
G01 X-17.5000 Y-14.9802
G01 X-17.3115 Y-14.9637
G01 X-17.1535 Y-14.9214
G00 X-17.1535 Y-14.9214
G01 F60.00
G01 Z-0.0500
G01 F120.00
G01 X-17.1985 Y-14.8763
G01 X-17.3106 Y-14.9039
G01 X-17.5000 Y-14.9217
G01 X-17.6894 Y-14.9039
G01 X-17.8015 Y-14.8763
G01 X-17.8465 Y-14.9214
G01 X-17.6885 Y-14.9637
G01 X-17.5000 Y-14.9802
G01 X-17.3115 Y-14.9637
G01 X-17.1535 Y-14.9214
G00 X-17.1535 Y-14.9214
G01 F60.00
G01 Z-0.0750
G01 F120.00
G01 X-17.1985 Y-14.8763
G01 X-17.3106 Y-14.9039
G01 X-17.5000 Y-14.9217
G01 X-17.6894 Y-14.9039
G01 X-17.8015 Y-14.8763
G01 X-17.8465 Y-14.9214
G01 X-17.6885 Y-14.9637
G01 X-17.5000 Y-14.9802
G01 X-17.3115 Y-14.9637
G01 X-17.1535 Y-14.9214
G00 X-17.1535 Y-14.9214
G01 F60.00
G01 Z-0.1000
G01 F120.00
G01 X-17.1985 Y-14.8763
G01 X-17.3106 Y-14.9039
G01 X-17.5000 Y-14.9217
G01 X-17.6894 Y-14.9039
G01 X-17.8015 Y-14.8763
G01 X-17.8465 Y-14.9214
G01 X-17.6885 Y-14.9637
G01 X-17.5000 Y-14.9802
G01 X-17.3115 Y-14.9637
G01 X-17.1535 Y-14.9214
G00 Z2.0000
G00 X-18.5046 Y-14.1061
G01 F60.00
G01 Z-0.0250
G01 F120.00
G01 X-18.5219 Y-13.9955
G01 X-18.5265 Y-13.8838
G01 X-18.5090 Y-13.7055
G01 X-18.4815 Y-13.5934
G01 X-18.5265 Y-13.5484
G01 X-18.5688 Y-13.7064
G01 X-18.5853 Y-13.8949
G01 X-18.5688 Y-14.0834
G01 X-18.5265 Y-14.2414
G01 X-18.4815 Y-14.1964
G01 X-18.5046 Y-14.1061
G00 X-18.5046 Y-14.1061
G01 F60.00
G01 Z-0.0500
G01 F120.00
G01 X-18.5219 Y-13.9955
G01 X-18.5265 Y-13.8838
G01 X-18.5090 Y-13.7055
G01 X-18.4815 Y-13.5934
G01 X-18.5265 Y-13.5484
G01 X-18.5688 Y-13.7064
G01 X-18.5853 Y-13.8949
G01 X-18.5688 Y-14.0834
G01 X-18.5265 Y-14.2414
G01 X-18.4815 Y-14.1964
G01 X-18.5046 Y-14.1061
G00 X-18.5046 Y-14.1061
G01 F60.00
G01 Z-0.0750
G01 F120.00
G01 X-18.5219 Y-13.9955
G01 X-18.5265 Y-13.8838
G01 X-18.5090 Y-13.7055
G01 X-18.4815 Y-13.5934
G01 X-18.5265 Y-13.5484
G01 X-18.5688 Y-13.7064
G01 X-18.5853 Y-13.8949
G01 X-18.5688 Y-14.0834
G01 X-18.5265 Y-14.2414
G01 X-18.4815 Y-14.1964
G01 X-18.5046 Y-14.1061
G00 X-18.5046 Y-14.1061
G01 F60.00
G01 Z-0.1000
G01 F120.00
G01 X-18.5219 Y-13.9955
G01 X-18.5265 Y-13.8838
G01 X-18.5090 Y-13.7055
G01 X-18.4815 Y-13.5934
G01 X-18.5265 Y-13.5484
G01 X-18.5688 Y-13.7064
G01 X-18.5853 Y-13.8949
G01 X-18.5688 Y-14.0834
G01 X-18.5265 Y-14.2414
G01 X-18.4815 Y-14.1964
G01 X-18.5046 Y-14.1061
G00 Z2.0000
G00 X-18.5243 Y-10.5616
G01 F60.00
G01 Z-0.0250
G01 F120.00
G01 X-18.5135 Y-10.5185
G01 X-18.4822 Y-10.4598
G01 X-18.4351 Y-10.4127
G01 X-18.3970 Y-10.3899
G01 X-18.3111 Y-10.3684
G01 X-17.9808 Y-10.3681
G01 X-17.9808 Y-10.3137
G01 X-18.3573 Y-10.3160
G01 X-18.4364 Y-10.3457
G01 X-18.5009 Y-10.3940
G01 X-18.5492 Y-10.4585
G01 X-18.5789 Y-10.5376
G01 X-18.5812 Y-10.9141
G01 X-18.5268 Y-10.9141
G01 X-18.5243 Y-10.5616
G00 X-18.5243 Y-10.5616
G01 F60.00
G01 Z-0.0500
G01 F120.00
G01 X-18.5135 Y-10.5185
G01 X-18.4822 Y-10.4598
G01 X-18.4351 Y-10.4127
G01 X-18.3970 Y-10.3899
G01 X-18.3111 Y-10.3684
G01 X-17.9808 Y-10.3681
G01 X-17.9808 Y-10.3137
G01 X-18.3573 Y-10.3160
G01 X-18.4364 Y-10.3457
G01 X-18.5009 Y-10.3940
G01 X-18.5492 Y-10.4585
G01 X-18.5789 Y-10.5376
G01 X-18.5812 Y-10.9141
G01 X-18.5268 Y-10.9141
G01 X-18.5243 Y-10.5616
G00 X-18.5243 Y-10.5616
G01 F60.00
G01 Z-0.0750
G01 F120.00
G01 X-18.5135 Y-10.5185
G01 X-18.4822 Y-10.4598
G01 X-18.4351 Y-10.4127
G01 X-18.3970 Y-10.3899
G01 X-18.3111 Y-10.3684
G01 X-17.9808 Y-10.3681
G01 X-17.9808 Y-10.3137
G01 X-18.3573 Y-10.3160
G01 X-18.4364 Y-10.3457
G01 X-18.5009 Y-10.3940
G01 X-18.5492 Y-10.4585
G01 X-18.5789 Y-10.5376
G01 X-18.5812 Y-10.9141
G01 X-18.5268 Y-10.9141
G01 X-18.5243 Y-10.5616
G00 X-18.5243 Y-10.5616
G01 F60.00
G01 Z-0.1000
G01 F120.00
G01 X-18.5135 Y-10.5185
G01 X-18.4822 Y-10.4598
G01 X-18.4351 Y-10.4127
G01 X-18.3970 Y-10.3899
G01 X-18.3111 Y-10.3684
G01 X-17.9808 Y-10.3681
G01 X-17.9808 Y-10.3137
G01 X-18.3573 Y-10.3160
G01 X-18.4364 Y-10.3457
G01 X-18.5009 Y-10.3940
G01 X-18.5492 Y-10.4585
G01 X-18.5789 Y-10.5376
G01 X-18.5812 Y-10.9141
G01 X-18.5268 Y-10.9141
G01 X-18.5243 Y-10.5616
G00 Z2.0000
G00 X-18.7509 Y-9.4509
G01 F60.00
G01 Z-0.0250
G01 F120.00
G01 X-18.6864 Y-9.4992
G01 X-18.6073 Y-9.5289
G01 X-18.0308 Y-9.5312
G01 X-18.0308 Y-9.4768
G01 X-18.5611 Y-9.4765
G01 X-18.6264 Y-9.4635
G01 X-18.6851 Y-9.4322
G01 X-18.7445 Y-9.3666
G01 X-18.7700 Y-9.3051
G01 X-18.7768 Y-9.2500
G01 X-18.7768 Y-8.9808
G01 X-18.8312 Y-8.9808
G01 X-18.8289 Y-9.3073
G01 X-18.7992 Y-9.3864
G01 X-18.7509 Y-9.4509
G00 X-18.7509 Y-9.4509
G01 F60.00
G01 Z-0.0500
G01 F120.00
G01 X-18.6864 Y-9.4992
G01 X-18.6073 Y-9.5289
G01 X-18.0308 Y-9.5312
G01 X-18.0308 Y-9.4768
G01 X-18.5611 Y-9.4765
G01 X-18.6264 Y-9.4635
G01 X-18.6851 Y-9.4322
G01 X-18.7445 Y-9.3666
G01 X-18.7700 Y-9.3051
G01 X-18.7768 Y-9.2500
G01 X-18.7768 Y-8.9808
G01 X-18.8312 Y-8.9808
G01 X-18.8289 Y-9.3073
G01 X-18.7992 Y-9.3864
G01 X-18.7509 Y-9.4509
G00 X-18.7509 Y-9.4509
G01 F60.00
G01 Z-0.0750
G01 F120.00
G01 X-18.6864 Y-9.4992
G01 X-18.6073 Y-9.5289
G01 X-18.0308 Y-9.5312
G01 X-18.0308 Y-9.4768
G01 X-18.5611 Y-9.4765
G01 X-18.6264 Y-9.4635
G01 X-18.6851 Y-9.4322
G01 X-18.7445 Y-9.3666
G01 X-18.7700 Y-9.3051
G01 X-18.7768 Y-9.2500
G01 X-18.7768 Y-8.9808
G01 X-18.8312 Y-8.9808
G01 X-18.8289 Y-9.3073
G01 X-18.7992 Y-9.3864
G01 X-18.7509 Y-9.4509
G00 X-18.7509 Y-9.4509
G01 F60.00
G01 Z-0.1000
G01 F120.00
G01 X-18.6864 Y-9.4992
G01 X-18.6073 Y-9.5289
G01 X-18.0308 Y-9.5312
G01 X-18.0308 Y-9.4768
G01 X-18.5611 Y-9.4765
G01 X-18.6264 Y-9.4635
G01 X-18.6851 Y-9.4322
G01 X-18.7445 Y-9.3666
G01 X-18.7700 Y-9.3051
G01 X-18.7768 Y-9.2500
G01 X-18.7768 Y-8.9808
G01 X-18.8312 Y-8.9808
G01 X-18.8289 Y-9.3073
G01 X-18.7992 Y-9.3864
G01 X-18.7509 Y-9.4509
G00 Z2.0000
G00 X-20.0685 Y-10.0197
G01 F60.00
G01 Z-0.0250
G01 F120.00
G01 X-19.9809 Y-9.9322
G01 X-19.9157 Y-9.8269
G01 X-19.8760 Y-9.7079
G01 X-19.8688 Y-9.6386
G01 X-19.8688 Y-9.2808
G01 X-19.9232 Y-9.2808
G01 X-19.9235 Y-9.6111
G01 X-19.9437 Y-9.7384
G01 X-19.9850 Y-9.8344
G01 X-20.0629 Y-9.9371
G01 X-20.1656 Y-10.0150
G01 X-20.2616 Y-10.0563
G01 X-20.3889 Y-10.0765
G01 X-20.7192 Y-10.0768
G01 X-20.7192 Y-10.1312
G01 X-20.3612 Y-10.1312
G01 X-20.2931 Y-10.1242
G01 X-20.1740 Y-10.0847
G01 X-20.0685 Y-10.0197
G00 X-20.0685 Y-10.0197
G01 F60.00
G01 Z-0.0500
G01 F120.00
G01 X-19.9809 Y-9.9322
G01 X-19.9157 Y-9.8269
G01 X-19.8760 Y-9.7079
G01 X-19.8688 Y-9.6386
G01 X-19.8688 Y-9.2808
G01 X-19.9232 Y-9.2808
G01 X-19.9235 Y-9.6111
G01 X-19.9437 Y-9.7384
G01 X-19.9850 Y-9.8344
G01 X-20.0629 Y-9.9371
G01 X-20.1656 Y-10.0150
G01 X-20.2616 Y-10.0563
G01 X-20.3889 Y-10.0765
G01 X-20.7192 Y-10.0768
G01 X-20.7192 Y-10.1312
G01 X-20.3612 Y-10.1312
G01 X-20.2931 Y-10.1242
G01 X-20.1740 Y-10.0847
G01 X-20.0685 Y-10.0197
G00 X-20.0685 Y-10.0197
G01 F60.00
G01 Z-0.0750
G01 F120.00
G01 X-19.9809 Y-9.9322
G01 X-19.9157 Y-9.8269
G01 X-19.8760 Y-9.7079
G01 X-19.8688 Y-9.6386
G01 X-19.8688 Y-9.2808
G01 X-19.9232 Y-9.2808
G01 X-19.9235 Y-9.6111
G01 X-19.9437 Y-9.7384
G01 X-19.9850 Y-9.8344
G01 X-20.0629 Y-9.9371
G01 X-20.1656 Y-10.0150
G01 X-20.2616 Y-10.0563
G01 X-20.3889 Y-10.0765
G01 X-20.7192 Y-10.0768
G01 X-20.7192 Y-10.1312
G01 X-20.3612 Y-10.1312
G01 X-20.2931 Y-10.1242
G01 X-20.1740 Y-10.0847
G01 X-20.0685 Y-10.0197
G00 X-20.0685 Y-10.0197
G01 F60.00
G01 Z-0.1000
G01 F120.00
G01 X-19.9809 Y-9.9322
G01 X-19.9157 Y-9.8269
G01 X-19.8760 Y-9.7079
G01 X-19.8688 Y-9.6386
G01 X-19.8688 Y-9.2808
G01 X-19.9232 Y-9.2808
G01 X-19.9235 Y-9.6111
G01 X-19.9437 Y-9.7384
G01 X-19.9850 Y-9.8344
G01 X-20.0629 Y-9.9371
G01 X-20.1656 Y-10.0150
G01 X-20.2616 Y-10.0563
G01 X-20.3889 Y-10.0765
G01 X-20.7192 Y-10.0768
G01 X-20.7192 Y-10.1312
G01 X-20.3612 Y-10.1312
G01 X-20.2931 Y-10.1242
G01 X-20.1740 Y-10.0847
G01 X-20.0685 Y-10.0197
G00 Z2.0000
G00 X-22.0111 Y-10.0765
G01 F60.00
G01 Z-0.0250
G01 F120.00
G01 X-21.6808 Y-10.0768
G01 X-21.6790 Y-10.4615
G01 X-21.6499 Y-10.5367
G01 X-21.5972 Y-10.6173
G01 X-21.5625 Y-10.6530
G01 X-19.0896 Y-12.2762
G01 X-18.9805 Y-12.3094
G01 X-18.9160 Y-12.3131
G01 X-18.7950 Y-12.2829
G01 X-18.7373 Y-12.2539
G01 X-18.6463 Y-12.1606
G01 X-18.6085 Y-12.0969
G01 X-18.5826 Y-11.9860
G01 X-18.5812 Y-11.8757
G01 X-18.5268 Y-11.8757
G01 X-18.5265 Y-12.2060
G01 X-18.5135 Y-12.2713
G01 X-18.4822 Y-12.3300
G01 X-18.4523 Y-12.3629
G01 X-18.4166 Y-12.3894
G01 X-18.3551 Y-12.4149
G01 X-18.3000 Y-12.4217
G01 X-16.7000 Y-12.4217
G01 X-16.6449 Y-12.4149
G01 X-16.6030 Y-12.3999
G01 X-16.5477 Y-12.3629
G01 X-16.5055 Y-12.3115
G01 X-16.4800 Y-12.2500
G01 X-16.4735 Y-12.2060
G01 X-16.4732 Y-10.5949
G01 X-16.4800 Y-10.5398
G01 X-16.5178 Y-10.4598
G01 X-16.5649 Y-10.4127
G01 X-16.6030 Y-10.3899
G01 X-16.6889 Y-10.3684
G01 X-17.0192 Y-10.3681
G01 X-17.0192 Y-10.3137
G01 X-16.6427 Y-10.3160
G01 X-16.5636 Y-10.3457
G01 X-16.4014 Y-10.4730
G01 X-16.3389 Y-10.5043
G01 X-16.1936 Y-10.5200
G01 X-16.1403 Y-10.5123
G01 X-16.0999 Y-10.4972
G01 X-16.0096 Y-10.4469
G01 X-15.9689 Y-10.4116
G01 X-15.9404 Y-10.3725
G01 X-15.8864 Y-10.2645
G01 X-15.8733 Y-10.1762
G01 X-15.8755 Y-9.7672
G01 X-15.9094 Y-9.6471
G01 X-15.9417 Y-9.5912
G01 X-16.0421 Y-9.5002
G01 X-16.1202 Y-9.4645
G01 X-16.2237 Y-9.4489
G01 X-16.2842 Y-9.4516
G01 X-16.5142 Y-9.5312
G01 X-17.0692 Y-9.5312
G01 X-17.0692 Y-9.4768
G01 X-16.5500 Y-9.4768
G01 X-16.4949 Y-9.4700
G01 X-16.4334 Y-9.4445
G01 X-16.3977 Y-9.4180
G01 X-16.3678 Y-9.3851
G01 X-16.3365 Y-9.3264
G01 X-16.3232 Y-9.2500
G01 X-16.3232 Y-7.7500
G01 X-16.3300 Y-7.6949
G01 X-16.3450 Y-7.6530
G01 X-16.3820 Y-7.5977
G01 X-16.4149 Y-7.5678
G01 X-16.4736 Y-7.5365
G01 X-16.5389 Y-7.5235
G01 X-18.5833 Y-7.5257
G01 X-18.6470 Y-7.5450
G01 X-18.6851 Y-7.5678
G01 X-18.7180 Y-7.5977
G01 X-18.7550 Y-7.6530
G01 X-18.7765 Y-7.7389
G01 X-18.7768 Y-8.0192
G01 X-18.8312 Y-8.0192
G01 X-18.8289 Y-7.6927
G01 X-18.7992 Y-7.6136
G01 X-18.7471 Y-7.5287
G01 X-18.7157 Y-7.4416
G01 X-18.7080 Y-7.3776
G01 X-18.7293 Y-7.2601
G01 X-18.7457 Y-7.2145
G01 X-18.7748 Y-7.1691
G01 X-18.8395 Y-7.1029
G01 X-18.9162 Y-7.0524
G01 X-19.0466 Y-7.0215
G01 X-19.8132 Y-7.0372
G01 X-19.9320 Y-7.0755
G01 X-20.0048 Y-7.1304
G01 X-20.0606 Y-7.1973
G01 X-20.0879 Y-7.2438
G01 X-20.1035 Y-7.2953
G01 X-20.1152 Y-7.3877
G01 X-20.1125 Y-7.4440
G01 X-20.0936 Y-7.5031
G01 X-20.0441 Y-7.5977
G01 X-19.9803 Y-7.6685
G01 X-19.9153 Y-7.7740
G01 X-19.8758 Y-7.8931
G01 X-19.8688 Y-7.9612
G01 X-19.8688 Y-8.3192
G01 X-19.9232 Y-8.3192
G01 X-19.9247 Y-7.9644
G01 X-19.9348 Y-7.8961
G01 X-19.9595 Y-7.8175
G01 X-20.0036 Y-7.7351
G01 X-20.0709 Y-7.6552
G01 X-20.1656 Y-7.5850
G01 X-20.2510 Y-7.5472
G01 X-20.3179 Y-7.5305
G01 X-20.3944 Y-7.5233
G01 X-22.0000 Y-7.5232
G01 X-22.0930 Y-7.5324
G01 X-22.1825 Y-7.5595
G01 X-22.2937 Y-7.6246
G01 X-22.3754 Y-7.7063
G01 X-22.4405 Y-7.8175
G01 X-22.4731 Y-7.9422
G01 X-22.4753 Y-9.6356
G01 X-22.4592 Y-9.7277
G01 X-22.4360 Y-9.7926
G01 X-22.3964 Y-9.8649
G01 X-22.3291 Y-9.9448
G01 X-22.2649 Y-9.9964
G01 X-22.1825 Y-10.0405
G01 X-22.0930 Y-10.0676
G01 X-22.0111 Y-10.0765
G00 X-22.0111 Y-10.0765
G01 F60.00
G01 Z-0.0500
G01 F120.00
G01 X-21.6808 Y-10.0768
G01 X-21.6790 Y-10.4615
G01 X-21.6499 Y-10.5367
G01 X-21.5972 Y-10.6173
G01 X-21.5625 Y-10.6530
G01 X-19.0896 Y-12.2762
G01 X-18.9805 Y-12.3094
G01 X-18.9160 Y-12.3131
G01 X-18.7950 Y-12.2829
G01 X-18.7373 Y-12.2539
G01 X-18.6463 Y-12.1606
G01 X-18.6085 Y-12.0969
G01 X-18.5826 Y-11.9860
G01 X-18.5812 Y-11.8757
G01 X-18.5268 Y-11.8757
G01 X-18.5265 Y-12.2060
G01 X-18.5135 Y-12.2713
G01 X-18.4822 Y-12.3300
G01 X-18.4523 Y-12.3629
G01 X-18.4166 Y-12.3894
G01 X-18.3551 Y-12.4149
G01 X-18.3000 Y-12.4217
G01 X-16.7000 Y-12.4217
G01 X-16.6449 Y-12.4149
G01 X-16.6030 Y-12.3999
G01 X-16.5477 Y-12.3629
G01 X-16.5055 Y-12.3115
G01 X-16.4800 Y-12.2500
G01 X-16.4735 Y-12.2060
G01 X-16.4732 Y-10.5949
G01 X-16.4800 Y-10.5398
G01 X-16.5178 Y-10.4598
G01 X-16.5649 Y-10.4127
G01 X-16.6030 Y-10.3899
G01 X-16.6889 Y-10.3684
G01 X-17.0192 Y-10.3681
G01 X-17.0192 Y-10.3137
G01 X-16.6427 Y-10.3160
G01 X-16.5636 Y-10.3457
G01 X-16.4014 Y-10.4730
G01 X-16.3389 Y-10.5043
G01 X-16.1936 Y-10.5200
G01 X-16.1403 Y-10.5123
G01 X-16.0999 Y-10.4972
G01 X-16.0096 Y-10.4469
G01 X-15.9689 Y-10.4116
G01 X-15.9404 Y-10.3725
G01 X-15.8864 Y-10.2645
G01 X-15.8733 Y-10.1762
G01 X-15.8755 Y-9.7672
G01 X-15.9094 Y-9.6471
G01 X-15.9417 Y-9.5912
G01 X-16.0421 Y-9.5002
G01 X-16.1202 Y-9.4645
G01 X-16.2237 Y-9.4489
G01 X-16.2842 Y-9.4516
G01 X-16.5142 Y-9.5312
G01 X-17.0692 Y-9.5312
G01 X-17.0692 Y-9.4768
G01 X-16.5500 Y-9.4768
G01 X-16.4949 Y-9.4700
G01 X-16.4334 Y-9.4445
G01 X-16.3977 Y-9.4180
G01 X-16.3678 Y-9.3851
G01 X-16.3365 Y-9.3264
G01 X-16.3232 Y-9.2500
G01 X-16.3232 Y-7.7500
G01 X-16.3300 Y-7.6949
G01 X-16.3450 Y-7.6530
G01 X-16.3820 Y-7.5977
G01 X-16.4149 Y-7.5678
G01 X-16.4736 Y-7.5365
G01 X-16.5389 Y-7.5235
G01 X-18.5833 Y-7.5257
G01 X-18.6470 Y-7.5450
G01 X-18.6851 Y-7.5678
G01 X-18.7180 Y-7.5977
G01 X-18.7550 Y-7.6530
G01 X-18.7765 Y-7.7389
G01 X-18.7768 Y-8.0192
G01 X-18.8312 Y-8.0192
G01 X-18.8289 Y-7.6927
G01 X-18.7992 Y-7.6136
G01 X-18.7471 Y-7.5287
G01 X-18.7157 Y-7.4416
G01 X-18.7080 Y-7.3776
G01 X-18.7293 Y-7.2601
G01 X-18.7457 Y-7.2145
G01 X-18.7748 Y-7.1691
G01 X-18.8395 Y-7.1029
G01 X-18.9162 Y-7.0524
G01 X-19.0466 Y-7.0215
G01 X-19.8132 Y-7.0372
G01 X-19.9320 Y-7.0755
G01 X-20.0048 Y-7.1304
G01 X-20.0606 Y-7.1973
G01 X-20.0879 Y-7.2438
G01 X-20.1035 Y-7.2953
G01 X-20.1152 Y-7.3877
G01 X-20.1125 Y-7.4440
G01 X-20.0936 Y-7.5031
G01 X-20.0441 Y-7.5977
G01 X-19.9803 Y-7.6685
G01 X-19.9153 Y-7.7740
G01 X-19.8758 Y-7.8931
G01 X-19.8688 Y-7.9612
G01 X-19.8688 Y-8.3192
G01 X-19.9232 Y-8.3192
G01 X-19.9247 Y-7.9644
G01 X-19.9348 Y-7.8961
G01 X-19.9595 Y-7.8175
G01 X-20.0036 Y-7.7351
G01 X-20.0709 Y-7.6552
G01 X-20.1656 Y-7.5850
G01 X-20.2510 Y-7.5472
G01 X-20.3179 Y-7.5305
G01 X-20.3944 Y-7.5233
G01 X-22.0000 Y-7.5232
G01 X-22.0930 Y-7.5324
G01 X-22.1825 Y-7.5595
G01 X-22.2937 Y-7.6246
G01 X-22.3754 Y-7.7063
G01 X-22.4405 Y-7.8175
G01 X-22.4731 Y-7.9422
G01 X-22.4753 Y-9.6356
G01 X-22.4592 Y-9.7277
G01 X-22.4360 Y-9.7926
G01 X-22.3964 Y-9.8649
G01 X-22.3291 Y-9.9448
G01 X-22.2649 Y-9.9964
G01 X-22.1825 Y-10.0405
G01 X-22.0930 Y-10.0676
G01 X-22.0111 Y-10.0765
G00 X-22.0111 Y-10.0765
G01 F60.00
G01 Z-0.0750
G01 F120.00
G01 X-21.6808 Y-10.0768
G01 X-21.6790 Y-10.4615
G01 X-21.6499 Y-10.5367
G01 X-21.5972 Y-10.6173
G01 X-21.5625 Y-10.6530
G01 X-19.0896 Y-12.2762
G01 X-18.9805 Y-12.3094
G01 X-18.9160 Y-12.3131
G01 X-18.7950 Y-12.2829
G01 X-18.7373 Y-12.2539
G01 X-18.6463 Y-12.1606
G01 X-18.6085 Y-12.0969
G01 X-18.5826 Y-11.9860
G01 X-18.5812 Y-11.8757
G01 X-18.5268 Y-11.8757
G01 X-18.5265 Y-12.2060
G01 X-18.5135 Y-12.2713
G01 X-18.4822 Y-12.3300
G01 X-18.4523 Y-12.3629
G01 X-18.4166 Y-12.3894
G01 X-18.3551 Y-12.4149
G01 X-18.3000 Y-12.4217
G01 X-16.7000 Y-12.4217
G01 X-16.6449 Y-12.4149
G01 X-16.6030 Y-12.3999
G01 X-16.5477 Y-12.3629
G01 X-16.5055 Y-12.3115
G01 X-16.4800 Y-12.2500
G01 X-16.4735 Y-12.2060
G01 X-16.4732 Y-10.5949
G01 X-16.4800 Y-10.5398
G01 X-16.5178 Y-10.4598
G01 X-16.5649 Y-10.4127
G01 X-16.6030 Y-10.3899
G01 X-16.6889 Y-10.3684
G01 X-17.0192 Y-10.3681
G01 X-17.0192 Y-10.3137
G01 X-16.6427 Y-10.3160
G01 X-16.5636 Y-10.3457
G01 X-16.4014 Y-10.4730
G01 X-16.3389 Y-10.5043
G01 X-16.1936 Y-10.5200
G01 X-16.1403 Y-10.5123
G01 X-16.0999 Y-10.4972
G01 X-16.0096 Y-10.4469
G01 X-15.9689 Y-10.4116
G01 X-15.9404 Y-10.3725
G01 X-15.8864 Y-10.2645
G01 X-15.8733 Y-10.1762
G01 X-15.8755 Y-9.7672
G01 X-15.9094 Y-9.6471
G01 X-15.9417 Y-9.5912
G01 X-16.0421 Y-9.5002
G01 X-16.1202 Y-9.4645
G01 X-16.2237 Y-9.4489
G01 X-16.2842 Y-9.4516
G01 X-16.5142 Y-9.5312
G01 X-17.0692 Y-9.5312
G01 X-17.0692 Y-9.4768
G01 X-16.5500 Y-9.4768
G01 X-16.4949 Y-9.4700
G01 X-16.4334 Y-9.4445
G01 X-16.3977 Y-9.4180
G01 X-16.3678 Y-9.3851
G01 X-16.3365 Y-9.3264
G01 X-16.3232 Y-9.2500
G01 X-16.3232 Y-7.7500
G01 X-16.3300 Y-7.6949
G01 X-16.3450 Y-7.6530
G01 X-16.3820 Y-7.5977
G01 X-16.4149 Y-7.5678
G01 X-16.4736 Y-7.5365
G01 X-16.5389 Y-7.5235
G01 X-18.5833 Y-7.5257
G01 X-18.6470 Y-7.5450
G01 X-18.6851 Y-7.5678
G01 X-18.7180 Y-7.5977
G01 X-18.7550 Y-7.6530
G01 X-18.7765 Y-7.7389
G01 X-18.7768 Y-8.0192
G01 X-18.8312 Y-8.0192
G01 X-18.8289 Y-7.6927
G01 X-18.7992 Y-7.6136
G01 X-18.7471 Y-7.5287
G01 X-18.7157 Y-7.4416
G01 X-18.7080 Y-7.3776
G01 X-18.7293 Y-7.2601
G01 X-18.7457 Y-7.2145
G01 X-18.7748 Y-7.1691
G01 X-18.8395 Y-7.1029
G01 X-18.9162 Y-7.0524
G01 X-19.0466 Y-7.0215
G01 X-19.8132 Y-7.0372
G01 X-19.9320 Y-7.0755
G01 X-20.0048 Y-7.1304
G01 X-20.0606 Y-7.1973
G01 X-20.0879 Y-7.2438
G01 X-20.1035 Y-7.2953
G01 X-20.1152 Y-7.3877
G01 X-20.1125 Y-7.4440
G01 X-20.0936 Y-7.5031
G01 X-20.0441 Y-7.5977
G01 X-19.9803 Y-7.6685
G01 X-19.9153 Y-7.7740
G01 X-19.8758 Y-7.8931
G01 X-19.8688 Y-7.9612
G01 X-19.8688 Y-8.3192
G01 X-19.9232 Y-8.3192
G01 X-19.9247 Y-7.9644
G01 X-19.9348 Y-7.8961
G01 X-19.9595 Y-7.8175
G01 X-20.0036 Y-7.7351
G01 X-20.0709 Y-7.6552
G01 X-20.1656 Y-7.5850
G01 X-20.2510 Y-7.5472
G01 X-20.3179 Y-7.5305
G01 X-20.3944 Y-7.5233
G01 X-22.0000 Y-7.5232
G01 X-22.0930 Y-7.5324
G01 X-22.1825 Y-7.5595
G01 X-22.2937 Y-7.6246
G01 X-22.3754 Y-7.7063
G01 X-22.4405 Y-7.8175
G01 X-22.4731 Y-7.9422
G01 X-22.4753 Y-9.6356
G01 X-22.4592 Y-9.7277
G01 X-22.4360 Y-9.7926
G01 X-22.3964 Y-9.8649
G01 X-22.3291 Y-9.9448
G01 X-22.2649 Y-9.9964
G01 X-22.1825 Y-10.0405
G01 X-22.0930 Y-10.0676
G01 X-22.0111 Y-10.0765
G00 X-22.0111 Y-10.0765
G01 F60.00
G01 Z-0.1000
G01 F120.00
G01 X-21.6808 Y-10.0768
G01 X-21.6790 Y-10.4615
G01 X-21.6499 Y-10.5367
G01 X-21.5972 Y-10.6173
G01 X-21.5625 Y-10.6530
G01 X-19.0896 Y-12.2762
G01 X-18.9805 Y-12.3094
G01 X-18.9160 Y-12.3131
G01 X-18.7950 Y-12.2829
G01 X-18.7373 Y-12.2539
G01 X-18.6463 Y-12.1606
G01 X-18.6085 Y-12.0969
G01 X-18.5826 Y-11.9860
G01 X-18.5812 Y-11.8757
G01 X-18.5268 Y-11.8757
G01 X-18.5265 Y-12.2060
G01 X-18.5135 Y-12.2713
G01 X-18.4822 Y-12.3300
G01 X-18.4523 Y-12.3629
G01 X-18.4166 Y-12.3894
G01 X-18.3551 Y-12.4149
G01 X-18.3000 Y-12.4217
G01 X-16.7000 Y-12.4217
G01 X-16.6449 Y-12.4149
G01 X-16.6030 Y-12.3999
G01 X-16.5477 Y-12.3629
G01 X-16.5055 Y-12.3115
G01 X-16.4800 Y-12.2500
G01 X-16.4735 Y-12.2060
G01 X-16.4732 Y-10.5949
G01 X-16.4800 Y-10.5398
G01 X-16.5178 Y-10.4598
G01 X-16.5649 Y-10.4127
G01 X-16.6030 Y-10.3899
G01 X-16.6889 Y-10.3684
G01 X-17.0192 Y-10.3681
G01 X-17.0192 Y-10.3137
G01 X-16.6427 Y-10.3160
G01 X-16.5636 Y-10.3457
G01 X-16.4014 Y-10.4730
G01 X-16.3389 Y-10.5043
G01 X-16.1936 Y-10.5200
G01 X-16.1403 Y-10.5123
G01 X-16.0999 Y-10.4972
G01 X-16.0096 Y-10.4469
G01 X-15.9689 Y-10.4116
G01 X-15.9404 Y-10.3725
G01 X-15.8864 Y-10.2645
G01 X-15.8733 Y-10.1762
G01 X-15.8755 Y-9.7672
G01 X-15.9094 Y-9.6471
G01 X-15.9417 Y-9.5912
G01 X-16.0421 Y-9.5002
G01 X-16.1202 Y-9.4645
G01 X-16.2237 Y-9.4489
G01 X-16.2842 Y-9.4516
G01 X-16.5142 Y-9.5312
G01 X-17.0692 Y-9.5312
G01 X-17.0692 Y-9.4768
G01 X-16.5500 Y-9.4768
G01 X-16.4949 Y-9.4700
G01 X-16.4334 Y-9.4445
G01 X-16.3977 Y-9.4180
G01 X-16.3678 Y-9.3851
G01 X-16.3365 Y-9.3264
G01 X-16.3232 Y-9.2500
G01 X-16.3232 Y-7.7500
G01 X-16.3300 Y-7.6949
G01 X-16.3450 Y-7.6530
G01 X-16.3820 Y-7.5977
G01 X-16.4149 Y-7.5678
G01 X-16.4736 Y-7.5365
G01 X-16.5389 Y-7.5235
G01 X-18.5833 Y-7.5257
G01 X-18.6470 Y-7.5450
G01 X-18.6851 Y-7.5678
G01 X-18.7180 Y-7.5977
G01 X-18.7550 Y-7.6530
G01 X-18.7765 Y-7.7389
G01 X-18.7768 Y-8.0192
G01 X-18.8312 Y-8.0192
G01 X-18.8289 Y-7.6927
G01 X-18.7992 Y-7.6136
G01 X-18.7471 Y-7.5287
G01 X-18.7157 Y-7.4416
G01 X-18.7080 Y-7.3776
G01 X-18.7293 Y-7.2601
G01 X-18.7457 Y-7.2145
G01 X-18.7748 Y-7.1691
G01 X-18.8395 Y-7.1029
G01 X-18.9162 Y-7.0524
G01 X-19.0466 Y-7.0215
G01 X-19.8132 Y-7.0372
G01 X-19.9320 Y-7.0755
G01 X-20.0048 Y-7.1304
G01 X-20.0606 Y-7.1973
G01 X-20.0879 Y-7.2438
G01 X-20.1035 Y-7.2953
G01 X-20.1152 Y-7.3877
G01 X-20.1125 Y-7.4440
G01 X-20.0936 Y-7.5031
G01 X-20.0441 Y-7.5977
G01 X-19.9803 Y-7.6685
G01 X-19.9153 Y-7.7740
G01 X-19.8758 Y-7.8931
G01 X-19.8688 Y-7.9612
G01 X-19.8688 Y-8.3192
G01 X-19.9232 Y-8.3192
G01 X-19.9247 Y-7.9644
G01 X-19.9348 Y-7.8961
G01 X-19.9595 Y-7.8175
G01 X-20.0036 Y-7.7351
G01 X-20.0709 Y-7.6552
G01 X-20.1656 Y-7.5850
G01 X-20.2510 Y-7.5472
G01 X-20.3179 Y-7.5305
G01 X-20.3944 Y-7.5233
G01 X-22.0000 Y-7.5232
G01 X-22.0930 Y-7.5324
G01 X-22.1825 Y-7.5595
G01 X-22.2937 Y-7.6246
G01 X-22.3754 Y-7.7063
G01 X-22.4405 Y-7.8175
G01 X-22.4731 Y-7.9422
G01 X-22.4753 Y-9.6356
G01 X-22.4592 Y-9.7277
G01 X-22.4360 Y-9.7926
G01 X-22.3964 Y-9.8649
G01 X-22.3291 Y-9.9448
G01 X-22.2649 Y-9.9964
G01 X-22.1825 Y-10.0405
G01 X-22.0930 Y-10.0676
G01 X-22.0111 Y-10.0765
G00 Z2.0000
G00 X-22.5247 Y-9.7070
G01 F60.00
G01 Z-0.0250
G01 F120.00
G01 X-22.4852 Y-9.8262
G01 X-22.4201 Y-9.9318
G01 X-22.3325 Y-10.0195
G01 X-22.2271 Y-10.0848
G01 X-22.1080 Y-10.1245
G01 X-22.0087 Y-10.1378
G01 X-21.9580 Y-10.1542
G01 X-21.8657 Y-10.2109
G01 X-21.8287 Y-10.2422
G01 X-21.7964 Y-10.2854
G01 X-21.7528 Y-10.3790
G01 X-21.7291 Y-10.4987
G01 X-21.6887 Y-10.5873
G01 X-21.5879 Y-10.7093
G01 X-19.1742 Y-12.2972
G01 X-19.0712 Y-12.3455
G01 X-18.9382 Y-12.3715
G01 X-18.7601 Y-12.3391
G01 X-18.6959 Y-12.3335
G01 X-18.6443 Y-12.3390
G01 X-18.5280 Y-12.3812
G01 X-18.4367 Y-12.4445
G01 X-18.3574 Y-12.4742
G01 X-18.2940 Y-12.4822
G01 X-18.1958 Y-12.5125
G01 X-18.1470 Y-12.5428
G01 X-18.0797 Y-12.6085
G01 X-18.0290 Y-12.6859
G01 X-17.8015 Y-12.9134
G01 X-17.6894 Y-12.8859
G01 X-17.5000 Y-12.8681
G01 X-17.3106 Y-12.8859
G01 X-17.1985 Y-12.9134
G01 X-16.9705 Y-12.6854
G01 X-16.9360 Y-12.6294
G01 X-16.8635 Y-12.5497
G01 X-16.8177 Y-12.5214
G01 X-16.7308 Y-12.4895
G01 X-16.6426 Y-12.4742
G01 X-16.5633 Y-12.4445
G01 X-16.4987 Y-12.3961
G01 X-16.4504 Y-12.3316
G01 X-16.4183 Y-12.2307
G01 X-16.4183 Y-10.9173
G01 X-16.4051 Y-10.8229
G01 X-16.3425 Y-10.7012
G01 X-16.2907 Y-10.6468
G01 X-16.1923 Y-10.5907
G01 X-16.0474 Y-10.5370
G01 X-15.9357 Y-10.4601
G01 X-15.8589 Y-10.3483
G01 X-15.8214 Y-10.2475
G01 X-15.8133 Y-10.1641
G01 X-15.8133 Y-9.8157
G01 X-15.8403 Y-9.6662
G01 X-15.8808 Y-9.5777
G01 X-15.9445 Y-9.5041
G01 X-16.1073 Y-9.3946
G01 X-16.1998 Y-9.3095
G01 X-16.2321 Y-9.2536
G01 X-16.2642 Y-9.1441
G01 X-16.2682 Y-8.0334
G01 X-16.2505 Y-7.9334
G01 X-16.2329 Y-7.8856
G01 X-16.1550 Y-7.7850
G01 X-16.1062 Y-7.7427
G01 X-16.0527 Y-7.7175
G01 X-15.9371 Y-7.6877
G01 X-14.7334 Y-7.6868
G01 X-14.6334 Y-7.7045
G01 X-14.5856 Y-7.7221
G01 X-14.4850 Y-7.8000
G01 X-14.4427 Y-7.8488
G01 X-14.4175 Y-7.9023
G01 X-14.3877 Y-8.0179
G01 X-14.3867 Y-9.7291
G01 X-14.3705 Y-9.8416
G01 X-14.3192 Y-9.9672
G01 X-14.2263 Y-10.0660
G01 X-14.0810 Y-10.1655
G01 X-14.0210 Y-10.2292
G01 X-13.9894 Y-10.2891
G01 X-13.9570 Y-10.4211
G01 X-13.9567 Y-11.0755
G01 X-13.9499 Y-11.1420
G01 X-13.9113 Y-11.2584
G01 X-13.7930 Y-11.4436
G01 X-13.7663 Y-11.5179
G01 X-13.7580 Y-11.6327
G01 X-13.7688 Y-11.6964
G01 X-13.8195 Y-11.7986
G01 X-13.9104 Y-11.9410
G01 X-13.9240 Y-11.9817
G01 X-13.8651 Y-11.9817
G01 X-13.8295 Y-11.9140
G01 X-13.7891 Y-11.8595
G01 X-13.7320 Y-11.8036
G01 X-13.6661 Y-11.7585
G01 X-13.5616 Y-11.7152
G01 X-13.4431 Y-11.6983
G01 X-12.9569 Y-11.6983
G01 X-12.8384 Y-11.7152
G01 X-12.7436 Y-11.7530
G01 X-12.6680 Y-11.8036
G01 X-12.6036 Y-11.8680
G01 X-12.5585 Y-11.9339
G01 X-12.5182 Y-12.0277
G01 X-12.4996 Y-12.1281
G01 X-12.5018 Y-12.8191
G01 X-12.5295 Y-12.9298
G01 X-12.5764 Y-13.0205
G01 X-12.6342 Y-13.0908
G01 X-12.7192 Y-13.1577
G01 X-12.7192 Y-13.2349
G01 X-12.6382 Y-13.2290
G01 X-12.5801 Y-13.2375
G01 X-12.4729 Y-13.2842
G01 X-12.4204 Y-13.3218
G01 X-12.3373 Y-13.4419
G01 X-12.2993 Y-13.5578
G01 X-12.2141 Y-13.6980
G01 X-12.1931 Y-13.7465
G01 X-12.1709 Y-13.8581
G01 X-12.1757 Y-13.9331
G01 X-12.2203 Y-14.0496
G01 X-12.2993 Y-14.1822
G01 X-12.3317 Y-14.2974
G01 X-12.3313 Y-14.7179
G01 X-12.2993 Y-14.8278
G01 X-12.2438 Y-14.9217
G01 X-12.1667 Y-14.9988
G01 X-12.0728 Y-15.0543
G01 X-11.9576 Y-15.0867
G01 X-10.4924 Y-15.0867
G01 X-10.3413 Y-15.0452
G01 X-10.1845 Y-15.0367
G01 X-10.0621 Y-15.0592
G01 X-9.9924 Y-15.0963
G01 X-9.9220 Y-15.1572
G01 X-9.8877 Y-15.1988
G01 X-9.8642 Y-15.2472
G01 X-9.8358 Y-15.3466
G01 X-9.8334 Y-16.2537
G01 X-9.8057 Y-16.3781
G01 X-9.7529 Y-16.4868
G01 X-9.6649 Y-16.5917
G01 X-8.4392 Y-17.8151
G01 X-8.3316 Y-17.8835
G01 X-8.2142 Y-17.9238
G01 X-8.0811 Y-17.9350
G01 X-5.9009 Y-17.9320
G01 X-5.7992 Y-17.9506
G01 X-5.7312 Y-17.9842
G01 X-5.6508 Y-18.0493
G01 X-5.6118 Y-18.0980
G01 X-5.4780 Y-18.2318
G01 X-5.3229 Y-18.3404
G01 X-5.2649 Y-18.3717
G01 X-5.1808 Y-18.4446
G01 X-5.1310 Y-18.5256
G01 X-5.1042 Y-18.6141
G01 X-5.0974 Y-18.6675
G01 X-5.1034 Y-18.7210
G01 X-5.1288 Y-18.8100
G01 X-5.1711 Y-18.8847
G01 X-5.2639 Y-18.9682
G01 X-5.3227 Y-19.0001
G01 X-5.4776 Y-19.1086
G01 X-5.6114 Y-19.2424
G01 X-5.7199 Y-19.3973
G01 X-5.7488 Y-19.4592
G01 X-5.6872 Y-19.4592
G01 X-5.6273 Y-19.3604
G01 X-5.5061 Y-19.2139
G01 X-5.4226 Y-19.1394
G01 X-5.2640 Y-19.0344
G01 X-5.1626 Y-18.9874
G01 X-4.9912 Y-18.9354
G01 X-4.8806 Y-18.9181
G01 X-4.7800 Y-18.9132
G01 X-4.6794 Y-18.9181
G01 X-4.5688 Y-18.9354
G01 X-4.3974 Y-18.9874
G01 X-4.2960 Y-19.0344
G01 X-4.1374 Y-19.1394
G01 X-4.0539 Y-19.2139
G01 X-3.9327 Y-19.3604
G01 X-3.8728 Y-19.4592
G01 X-3.8112 Y-19.4592
G01 X-3.8401 Y-19.3973
G01 X-3.9486 Y-19.2424
G01 X-4.0824 Y-19.1086
G01 X-4.2373 Y-19.0001
G01 X-4.2951 Y-18.9689
G01 X-4.3864 Y-18.8881
G01 X-4.4252 Y-18.8249
G01 X-4.4614 Y-18.6946
G01 X-4.4588 Y-18.6301
G01 X-4.4329 Y-18.5357
G01 X-4.3889 Y-18.4558
G01 X-4.2961 Y-18.3724
G01 X-4.2371 Y-18.3404
G01 X-4.0820 Y-18.2318
G01 X-3.9482 Y-18.0980
G01 X-3.8396 Y-17.9429
G01 X-3.7597 Y-17.7714
G01 X-3.7107 Y-17.5886
G01 X-3.6942 Y-17.4000
G01 X-3.7107 Y-17.2114
G01 X-3.7597 Y-17.0286
G01 X-3.8396 Y-16.8571
G01 X-3.9482 Y-16.7020
G01 X-4.0820 Y-16.5682
G01 X-4.2371 Y-16.4596
G01 X-4.4086 Y-16.3797
G01 X-4.5914 Y-16.3307
G01 X-4.7800 Y-16.3142
G01 X-4.9686 Y-16.3307
G01 X-5.1514 Y-16.3797
G01 X-5.3229 Y-16.4596
G01 X-5.4780 Y-16.5682
G01 X-5.7117 Y-16.8059
G01 X-5.7695 Y-16.8358
G01 X-5.8689 Y-16.8642
G01 X-7.7336 Y-16.8683
G01 X-7.8066 Y-16.8607
G01 X-7.8592 Y-16.8428
G01 X-7.9792 Y-16.7687
G01 X-8.6692 Y-16.0787
G01 X-8.7274 Y-15.9969
G01 X-8.7606 Y-15.8923
G01 X-8.7682 Y-15.8390
G01 X-8.7666 Y-14.8463
G01 X-8.7943 Y-14.7219
G01 X-8.8507 Y-14.6076
G01 X-8.9351 Y-14.5083
G01 X-9.3604 Y-14.0861
G01 X-9.4634 Y-14.0215
G01 X-9.5776 Y-13.9819
G01 X-9.7139 Y-13.9700
G01 X-9.8549 Y-13.9692
G01 X-9.9822 Y-13.9202
G01 X-10.0234 Y-13.8946
G01 X-10.0616 Y-13.8567
G01 X-10.1184 Y-13.7703
G01 X-10.1425 Y-13.7104
G01 X-10.1483 Y-13.5644
G01 X-10.1183 Y-13.4426
G01 X-10.1187 Y-13.0221
G01 X-10.1507 Y-12.9122
G01 X-10.2536 Y-12.7336
G01 X-10.2769 Y-12.6280
G01 X-10.2801 Y-12.5796
G01 X-10.2715 Y-12.5264
G01 X-10.2393 Y-12.4416
G01 X-10.1507 Y-12.2878
G01 X-10.1187 Y-12.1779
G01 X-10.1170 Y-11.7623
G01 X-10.0923 Y-11.6540
G01 X-10.0557 Y-11.5907
G01 X-9.9909 Y-11.5169
G01 X-9.9287 Y-11.4746
G01 X-9.8200 Y-11.4402
G01 X-9.7084 Y-11.4280
G01 X-9.6077 Y-11.3981
G01 X-9.5033 Y-11.3277
G01 X-5.7698 Y-7.9498
G01 X-5.7057 Y-7.8838
G01 X-5.5967 Y-7.8274
G01 X-5.5454 Y-7.8110
G01 X-5.4809 Y-7.8079
G01 X-5.3683 Y-7.8262
G01 X-5.3006 Y-7.8591
G01 X-5.2071 Y-7.9418
G01 X-5.1679 Y-8.0060
G01 X-5.1381 Y-8.1050
G01 X-5.1317 Y-8.1584
G01 X-5.1317 Y-9.2388
G01 X-5.1247 Y-9.3070
G01 X-5.0852 Y-9.4262
G01 X-4.9958 Y-9.5669
G01 X-4.9564 Y-9.6536
G01 X-4.9416 Y-9.7031
G01 X-4.9383 Y-9.7547
G01 X-4.9522 Y-9.8563
G01 X-4.9733 Y-9.9173
G01 X-5.0500 Y-10.0155
G01 X-5.0898 Y-10.0517
G01 X-5.1472 Y-10.0813
G01 X-5.2572 Y-10.1115
G01 X-5.4942 Y-10.1138
G01 X-5.4942 Y-10.1682
G01 X-5.2742 Y-10.1692
G01 X-5.1906 Y-10.1844
G01 X-5.0816 Y-10.2381
G01 X-5.0336 Y-10.2786
G01 X-4.9931 Y-10.3266
G01 X-4.9479 Y-10.4112
G01 X-4.9250 Y-10.5081
G01 X-4.9233 Y-10.8506
G01 X-4.9329 Y-10.9294
G01 X-4.9519 Y-10.9892
G01 X-4.9807 Y-11.0449
G01 X-5.0525 Y-11.1290
G01 X-5.1558 Y-11.1931
G01 X-5.2631 Y-11.2200
G01 X-6.6556 Y-11.2217
G01 X-6.7487 Y-11.2085
G01 X-6.8303 Y-11.1758
G01 X-6.9543 Y-11.1758
G01 X-6.9228 Y-11.3016
G01 X-6.9215 Y-11.3715
G01 X-6.9649 Y-11.4989
G01 X-7.0493 Y-11.6422
G01 X-7.0813 Y-11.7521
G01 X-7.0817 Y-12.1726
G01 X-7.0493 Y-12.2878
G01 X-6.9464 Y-12.4664
G01 X-6.9231 Y-12.5720
G01 X-6.9199 Y-12.6204
G01 X-6.9285 Y-12.6736
G01 X-6.9607 Y-12.7584
G01 X-7.0493 Y-12.9122
G01 X-7.0813 Y-13.0221
G01 X-7.0817 Y-13.4426
G01 X-7.0493 Y-13.5578
G01 X-6.9464 Y-13.7364
G01 X-6.9231 Y-13.8420
G01 X-6.9199 Y-13.8904
G01 X-6.9285 Y-13.9436
G01 X-6.9607 Y-14.0284
G01 X-7.0493 Y-14.1822
G01 X-7.0813 Y-14.2921
G01 X-7.0817 Y-14.7126
G01 X-7.0493 Y-14.8278
G01 X-6.9938 Y-14.9217
G01 X-6.9167 Y-14.9988
G01 X-6.8228 Y-15.0543
G01 X-6.7129 Y-15.0863
G01 X-5.2424 Y-15.0867
G01 X-5.1272 Y-15.0543
G01 X-5.0333 Y-14.9988
G01 X-4.9562 Y-14.9217
G01 X-4.9007 Y-14.8278
G01 X-4.8687 Y-14.7179
G01 X-4.8683 Y-14.2974
G01 X-4.8989 Y-14.1804
G01 X-4.9019 Y-14.1152
G01 X-4.8888 Y-14.0242
G01 X-4.8724 Y-13.9729
G01 X-4.8444 Y-13.9270
G01 X-4.7874 Y-13.8609
G01 X-4.7138 Y-13.8072
G01 X-4.5944 Y-13.7708
G01 X-4.1754 Y-13.7678
G01 X-4.0569 Y-13.7407
G01 X-3.9482 Y-13.6879
G01 X-3.8433 Y-13.5999
G01 X-3.3849 Y-13.1392
G01 X-3.3151 Y-13.0286
G01 X-3.2755 Y-12.9110
G01 X-3.2650 Y-12.7811
G01 X-3.2683 Y-10.0817
G01 X-3.2568 Y-9.9944
G01 X-3.2205 Y-9.9110
G01 X-3.1665 Y-9.8358
G01 X-3.1180 Y-9.7932
G01 X-2.9937 Y-9.7392
G01 X-2.8930 Y-9.7247
G01 X-2.7738 Y-9.6852
G01 X-2.6682 Y-9.6201
G01 X-2.5805 Y-9.5325
G01 X-2.5152 Y-9.4271
G01 X-2.4755 Y-9.3080
G01 X-2.4683 Y-9.2387
G01 X-2.4683 Y-7.5612
G01 X-2.4753 Y-7.4930
G01 X-2.5148 Y-7.3738
G01 X-2.5799 Y-7.2682
G01 X-2.6675 Y-7.1805
G01 X-2.7729 Y-7.1152
G01 X-2.8920 Y-7.0755
G01 X-2.9613 Y-7.0683
G01 X-4.6388 Y-7.0683
G01 X-4.7070 Y-7.0753
G01 X-4.8262 Y-7.1148
G01 X-4.9318 Y-7.1799
G01 X-5.0195 Y-7.2675
G01 X-5.1048 Y-7.4047
G01 X-5.1549 Y-7.4667
G01 X-5.1980 Y-7.5006
G01 X-5.2861 Y-7.5442
G01 X-5.3427 Y-7.5614
G01 X-5.4073 Y-7.5628
G01 X-5.5095 Y-7.5480
G01 X-5.5866 Y-7.5103
G01 X-5.6731 Y-7.4359
G01 X-5.7762 Y-7.3017
G01 X-5.8034 Y-7.2421
G01 X-5.8230 Y-7.1383
G01 X-5.8183 Y-5.3641
G01 X-5.8504 Y-5.2633
G01 X-5.8987 Y-5.1987
G01 X-5.9633 Y-5.1504
G01 X-6.0426 Y-5.1206
G01 X-6.1060 Y-5.1127
G01 X-6.1828 Y-5.0910
G01 X-6.2530 Y-5.0521
G01 X-6.3348 Y-4.9704
G01 X-6.3710 Y-4.9090
G01 X-6.5985 Y-4.6815
G01 X-6.7106 Y-4.7090
G01 X-6.8889 Y-4.7265
G01 X-7.0006 Y-4.7219
G01 X-7.1112 Y-4.7046
G01 X-7.2826 Y-4.6526
G01 X-7.3840 Y-4.6056
G01 X-7.4796 Y-4.5473
G01 X-7.6180 Y-4.4337
G01 X-7.6937 Y-4.3514
G01 X-7.7597 Y-4.2611
G01 X-7.8441 Y-4.1031
G01 X-7.8826 Y-3.9981
G01 X-7.9205 Y-3.8117
G01 X-7.9268 Y-3.7000
G01 X-7.9090 Y-3.5106
G01 X-7.8815 Y-3.3985
G01 X-7.9265 Y-3.3535
G01 X-7.9688 Y-3.5115
G01 X-7.9853 Y-3.7000
G01 X-7.9697 Y-3.9390
G01 X-8.0108 Y-4.0746
G01 X-8.0600 Y-4.1449
G01 X-8.1582 Y-4.2219
G01 X-8.2180 Y-4.2464
G01 X-8.3205 Y-4.2594
G01 X-8.3636 Y-4.2597
G01 X-8.4163 Y-4.2487
G01 X-8.5460 Y-4.1812
G01 X-9.5557 Y-3.2360
G01 X-9.6489 Y-3.1708
G01 X-9.7862 Y-3.1188
G01 X-9.8550 Y-3.1133
G01 X-13.9578 Y-3.1133
G01 X-14.0703 Y-3.1295
G01 X-14.1959 Y-3.1808
G01 X-14.2947 Y-3.2737
G01 X-14.3495 Y-3.3590
G01 X-14.3776 Y-3.4532
G01 X-14.3867 Y-3.5382
G01 X-14.3868 Y-4.3666
G01 X-14.4045 Y-4.4666
G01 X-14.4395 Y-4.5435
G01 X-14.5229 Y-4.6379
G01 X-14.5772 Y-4.6728
G01 X-14.6808 Y-4.7056
G01 X-14.7395 Y-4.7133
G01 X-15.9583 Y-4.7093
G01 X-16.0699 Y-4.6779
G01 X-16.1746 Y-4.5964
G01 X-16.2283 Y-4.5228
G01 X-16.2679 Y-4.3808
G01 X-16.3232 Y-4.3808
G01 X-16.3235 Y-4.6611
G01 X-16.3365 Y-4.7264
G01 X-16.3555 Y-4.7666
G01 X-16.3977 Y-4.8180
G01 X-16.4530 Y-4.8550
G01 X-16.4949 Y-4.8700
G01 X-16.5500 Y-4.8768
G01 X-18.5611 Y-4.8765
G01 X-18.6051 Y-4.8700
G01 X-18.6666 Y-4.8445
G01 X-18.7180 Y-4.8023
G01 X-18.7445 Y-4.7666
G01 X-18.7700 Y-4.7051
G01 X-18.7765 Y-4.6611
G01 X-18.7768 Y-4.3808
G01 X-18.8312 Y-4.3808
G01 X-18.8289 Y-4.7073
G01 X-18.7992 Y-4.7864
G01 X-18.7415 Y-4.8666
G01 X-18.7190 Y-4.9120
G01 X-18.6905 Y-5.0642
G01 X-18.6982 Y-5.1175
G01 X-18.7336 Y-5.2145
G01 X-18.7996 Y-5.3133
G01 X-18.8294 Y-5.3926
G01 X-18.8318 Y-6.6160
G01 X-18.8527 Y-6.7286
G01 X-18.8818 Y-6.7886
G01 X-18.9480 Y-6.8689
G01 X-18.9890 Y-6.9038
G01 X-19.0371 Y-6.9282
G01 X-19.1360 Y-6.9581
G01 X-19.7551 Y-6.9722
G01 X-19.9042 Y-7.0017
G01 X-19.9921 Y-7.0435
G01 X-20.0646 Y-7.1084
G01 X-20.1414 Y-7.2218
G01 X-20.1788 Y-7.3001
G01 X-20.2610 Y-7.3929
G01 X-20.3252 Y-7.4321
G01 X-20.4242 Y-7.4619
G01 X-20.4776 Y-7.4683
G01 X-22.0388 Y-7.4683
G01 X-22.1070 Y-7.4753
G01 X-22.2262 Y-7.5148
G01 X-22.3318 Y-7.5799
G01 X-22.4195 Y-7.6675
G01 X-22.4848 Y-7.7729
G01 X-22.5245 Y-7.8920
G01 X-22.5317 Y-7.9613
G01 X-22.5317 Y-9.6388
G01 X-22.5247 Y-9.7070
G00 X-22.5247 Y-9.7070
G01 F60.00
G01 Z-0.0500
G01 F120.00
G01 X-22.4852 Y-9.8262
G01 X-22.4201 Y-9.9318
G01 X-22.3325 Y-10.0195
G01 X-22.2271 Y-10.0848
G01 X-22.1080 Y-10.1245
G01 X-22.0087 Y-10.1378
G01 X-21.9580 Y-10.1542
G01 X-21.8657 Y-10.2109
G01 X-21.8287 Y-10.2422
G01 X-21.7964 Y-10.2854
G01 X-21.7528 Y-10.3790
G01 X-21.7291 Y-10.4987
G01 X-21.6887 Y-10.5873
G01 X-21.5879 Y-10.7093
G01 X-19.1742 Y-12.2972
G01 X-19.0712 Y-12.3455
G01 X-18.9382 Y-12.3715
G01 X-18.7601 Y-12.3391
G01 X-18.6959 Y-12.3335
G01 X-18.6443 Y-12.3390
G01 X-18.5280 Y-12.3812
G01 X-18.4367 Y-12.4445
G01 X-18.3574 Y-12.4742
G01 X-18.2940 Y-12.4822
G01 X-18.1958 Y-12.5125
G01 X-18.1470 Y-12.5428
G01 X-18.0797 Y-12.6085
G01 X-18.0290 Y-12.6859
G01 X-17.8015 Y-12.9134
G01 X-17.6894 Y-12.8859
G01 X-17.5000 Y-12.8681
G01 X-17.3106 Y-12.8859
G01 X-17.1985 Y-12.9134
G01 X-16.9705 Y-12.6854
G01 X-16.9360 Y-12.6294
G01 X-16.8635 Y-12.5497
G01 X-16.8177 Y-12.5214
G01 X-16.7308 Y-12.4895
G01 X-16.6426 Y-12.4742
G01 X-16.5633 Y-12.4445
G01 X-16.4987 Y-12.3961
G01 X-16.4504 Y-12.3316
G01 X-16.4183 Y-12.2307
G01 X-16.4183 Y-10.9173
G01 X-16.4051 Y-10.8229
G01 X-16.3425 Y-10.7012
G01 X-16.2907 Y-10.6468
G01 X-16.1923 Y-10.5907
G01 X-16.0474 Y-10.5370
G01 X-15.9357 Y-10.4601
G01 X-15.8589 Y-10.3483
G01 X-15.8214 Y-10.2475
G01 X-15.8133 Y-10.1641
G01 X-15.8133 Y-9.8157
G01 X-15.8403 Y-9.6662
G01 X-15.8808 Y-9.5777
G01 X-15.9445 Y-9.5041
G01 X-16.1073 Y-9.3946
G01 X-16.1998 Y-9.3095
G01 X-16.2321 Y-9.2536
G01 X-16.2642 Y-9.1441
G01 X-16.2682 Y-8.0334
G01 X-16.2505 Y-7.9334
G01 X-16.2329 Y-7.8856
G01 X-16.1550 Y-7.7850
G01 X-16.1062 Y-7.7427
G01 X-16.0527 Y-7.7175
G01 X-15.9371 Y-7.6877
G01 X-14.7334 Y-7.6868
G01 X-14.6334 Y-7.7045
G01 X-14.5856 Y-7.7221
G01 X-14.4850 Y-7.8000
G01 X-14.4427 Y-7.8488
G01 X-14.4175 Y-7.9023
G01 X-14.3877 Y-8.0179
G01 X-14.3867 Y-9.7291
G01 X-14.3705 Y-9.8416
G01 X-14.3192 Y-9.9672
G01 X-14.2263 Y-10.0660
G01 X-14.0810 Y-10.1655
G01 X-14.0210 Y-10.2292
G01 X-13.9894 Y-10.2891
G01 X-13.9570 Y-10.4211
G01 X-13.9567 Y-11.0755
G01 X-13.9499 Y-11.1420
G01 X-13.9113 Y-11.2584
G01 X-13.7930 Y-11.4436
G01 X-13.7663 Y-11.5179
G01 X-13.7580 Y-11.6327
G01 X-13.7688 Y-11.6964
G01 X-13.8195 Y-11.7986
G01 X-13.9104 Y-11.9410
G01 X-13.9240 Y-11.9817
G01 X-13.8651 Y-11.9817
G01 X-13.8295 Y-11.9140
G01 X-13.7891 Y-11.8595
G01 X-13.7320 Y-11.8036
G01 X-13.6661 Y-11.7585
G01 X-13.5616 Y-11.7152
G01 X-13.4431 Y-11.6983
G01 X-12.9569 Y-11.6983
G01 X-12.8384 Y-11.7152
G01 X-12.7436 Y-11.7530
G01 X-12.6680 Y-11.8036
G01 X-12.6036 Y-11.8680
G01 X-12.5585 Y-11.9339
G01 X-12.5182 Y-12.0277
G01 X-12.4996 Y-12.1281
G01 X-12.5018 Y-12.8191
G01 X-12.5295 Y-12.9298
G01 X-12.5764 Y-13.0205
G01 X-12.6342 Y-13.0908
G01 X-12.7192 Y-13.1577
G01 X-12.7192 Y-13.2349
G01 X-12.6382 Y-13.2290
G01 X-12.5801 Y-13.2375
G01 X-12.4729 Y-13.2842
G01 X-12.4204 Y-13.3218
G01 X-12.3373 Y-13.4419
G01 X-12.2993 Y-13.5578
G01 X-12.2141 Y-13.6980
G01 X-12.1931 Y-13.7465
G01 X-12.1709 Y-13.8581
G01 X-12.1757 Y-13.9331
G01 X-12.2203 Y-14.0496
G01 X-12.2993 Y-14.1822
G01 X-12.3317 Y-14.2974
G01 X-12.3313 Y-14.7179
G01 X-12.2993 Y-14.8278
G01 X-12.2438 Y-14.9217
G01 X-12.1667 Y-14.9988
G01 X-12.0728 Y-15.0543
G01 X-11.9576 Y-15.0867
G01 X-10.4924 Y-15.0867
G01 X-10.3413 Y-15.0452
G01 X-10.1845 Y-15.0367
G01 X-10.0621 Y-15.0592
G01 X-9.9924 Y-15.0963
G01 X-9.9220 Y-15.1572
G01 X-9.8877 Y-15.1988
G01 X-9.8642 Y-15.2472
G01 X-9.8358 Y-15.3466
G01 X-9.8334 Y-16.2537
G01 X-9.8057 Y-16.3781
G01 X-9.7529 Y-16.4868
G01 X-9.6649 Y-16.5917
G01 X-8.4392 Y-17.8151
G01 X-8.3316 Y-17.8835
G01 X-8.2142 Y-17.9238
G01 X-8.0811 Y-17.9350
G01 X-5.9009 Y-17.9320
G01 X-5.7992 Y-17.9506
G01 X-5.7312 Y-17.9842
G01 X-5.6508 Y-18.0493
G01 X-5.6118 Y-18.0980
G01 X-5.4780 Y-18.2318
G01 X-5.3229 Y-18.3404
G01 X-5.2649 Y-18.3717
G01 X-5.1808 Y-18.4446
G01 X-5.1310 Y-18.5256
G01 X-5.1042 Y-18.6141
G01 X-5.0974 Y-18.6675
G01 X-5.1034 Y-18.7210
G01 X-5.1288 Y-18.8100
G01 X-5.1711 Y-18.8847
G01 X-5.2639 Y-18.9682
G01 X-5.3227 Y-19.0001
G01 X-5.4776 Y-19.1086
G01 X-5.6114 Y-19.2424
G01 X-5.7199 Y-19.3973
G01 X-5.7488 Y-19.4592
G01 X-5.6872 Y-19.4592
G01 X-5.6273 Y-19.3604
G01 X-5.5061 Y-19.2139
G01 X-5.4226 Y-19.1394
G01 X-5.2640 Y-19.0344
G01 X-5.1626 Y-18.9874
G01 X-4.9912 Y-18.9354
G01 X-4.8806 Y-18.9181
G01 X-4.7800 Y-18.9132
G01 X-4.6794 Y-18.9181
G01 X-4.5688 Y-18.9354
G01 X-4.3974 Y-18.9874
G01 X-4.2960 Y-19.0344
G01 X-4.1374 Y-19.1394
G01 X-4.0539 Y-19.2139
G01 X-3.9327 Y-19.3604
G01 X-3.8728 Y-19.4592
G01 X-3.8112 Y-19.4592
G01 X-3.8401 Y-19.3973
G01 X-3.9486 Y-19.2424
G01 X-4.0824 Y-19.1086
G01 X-4.2373 Y-19.0001
G01 X-4.2951 Y-18.9689
G01 X-4.3864 Y-18.8881
G01 X-4.4252 Y-18.8249
G01 X-4.4614 Y-18.6946
G01 X-4.4588 Y-18.6301
G01 X-4.4329 Y-18.5357
G01 X-4.3889 Y-18.4558
G01 X-4.2961 Y-18.3724
G01 X-4.2371 Y-18.3404
G01 X-4.0820 Y-18.2318
G01 X-3.9482 Y-18.0980
G01 X-3.8396 Y-17.9429
G01 X-3.7597 Y-17.7714
G01 X-3.7107 Y-17.5886
G01 X-3.6942 Y-17.4000
G01 X-3.7107 Y-17.2114
G01 X-3.7597 Y-17.0286
G01 X-3.8396 Y-16.8571
G01 X-3.9482 Y-16.7020
G01 X-4.0820 Y-16.5682
G01 X-4.2371 Y-16.4596
G01 X-4.4086 Y-16.3797
G01 X-4.5914 Y-16.3307
G01 X-4.7800 Y-16.3142
G01 X-4.9686 Y-16.3307
G01 X-5.1514 Y-16.3797
G01 X-5.3229 Y-16.4596
G01 X-5.4780 Y-16.5682
G01 X-5.7117 Y-16.8059
G01 X-5.7695 Y-16.8358
G01 X-5.8689 Y-16.8642
G01 X-7.7336 Y-16.8683
G01 X-7.8066 Y-16.8607
G01 X-7.8592 Y-16.8428
G01 X-7.9792 Y-16.7687
G01 X-8.6692 Y-16.0787
G01 X-8.7274 Y-15.9969
G01 X-8.7606 Y-15.8923
G01 X-8.7682 Y-15.8390
G01 X-8.7666 Y-14.8463
G01 X-8.7943 Y-14.7219
G01 X-8.8507 Y-14.6076
G01 X-8.9351 Y-14.5083
G01 X-9.3604 Y-14.0861
G01 X-9.4634 Y-14.0215
G01 X-9.5776 Y-13.9819
G01 X-9.7139 Y-13.9700
G01 X-9.8549 Y-13.9692
G01 X-9.9822 Y-13.9202
G01 X-10.0234 Y-13.8946
G01 X-10.0616 Y-13.8567
G01 X-10.1184 Y-13.7703
G01 X-10.1425 Y-13.7104
G01 X-10.1483 Y-13.5644
G01 X-10.1183 Y-13.4426
G01 X-10.1187 Y-13.0221
G01 X-10.1507 Y-12.9122
G01 X-10.2536 Y-12.7336
G01 X-10.2769 Y-12.6280
G01 X-10.2801 Y-12.5796
G01 X-10.2715 Y-12.5264
G01 X-10.2393 Y-12.4416
G01 X-10.1507 Y-12.2878
G01 X-10.1187 Y-12.1779
G01 X-10.1170 Y-11.7623
G01 X-10.0923 Y-11.6540
G01 X-10.0557 Y-11.5907
G01 X-9.9909 Y-11.5169
G01 X-9.9287 Y-11.4746
G01 X-9.8200 Y-11.4402
G01 X-9.7084 Y-11.4280
G01 X-9.6077 Y-11.3981
G01 X-9.5033 Y-11.3277
G01 X-5.7698 Y-7.9498
G01 X-5.7057 Y-7.8838
G01 X-5.5967 Y-7.8274
G01 X-5.5454 Y-7.8110
G01 X-5.4809 Y-7.8079
G01 X-5.3683 Y-7.8262
G01 X-5.3006 Y-7.8591
G01 X-5.2071 Y-7.9418
G01 X-5.1679 Y-8.0060
G01 X-5.1381 Y-8.1050
G01 X-5.1317 Y-8.1584
G01 X-5.1317 Y-9.2388
G01 X-5.1247 Y-9.3070
G01 X-5.0852 Y-9.4262
G01 X-4.9958 Y-9.5669
G01 X-4.9564 Y-9.6536
G01 X-4.9416 Y-9.7031
G01 X-4.9383 Y-9.7547
G01 X-4.9522 Y-9.8563
G01 X-4.9733 Y-9.9173
G01 X-5.0500 Y-10.0155
G01 X-5.0898 Y-10.0517
G01 X-5.1472 Y-10.0813
G01 X-5.2572 Y-10.1115
G01 X-5.4942 Y-10.1138
G01 X-5.4942 Y-10.1682
G01 X-5.2742 Y-10.1692
G01 X-5.1906 Y-10.1844
G01 X-5.0816 Y-10.2381
G01 X-5.0336 Y-10.2786
G01 X-4.9931 Y-10.3266
G01 X-4.9479 Y-10.4112
G01 X-4.9250 Y-10.5081
G01 X-4.9233 Y-10.8506
G01 X-4.9329 Y-10.9294
G01 X-4.9519 Y-10.9892
G01 X-4.9807 Y-11.0449
G01 X-5.0525 Y-11.1290
G01 X-5.1558 Y-11.1931
G01 X-5.2631 Y-11.2200
G01 X-6.6556 Y-11.2217
G01 X-6.7487 Y-11.2085
G01 X-6.8303 Y-11.1758
G01 X-6.9543 Y-11.1758
G01 X-6.9228 Y-11.3016
G01 X-6.9215 Y-11.3715
G01 X-6.9649 Y-11.4989
G01 X-7.0493 Y-11.6422
G01 X-7.0813 Y-11.7521
G01 X-7.0817 Y-12.1726
G01 X-7.0493 Y-12.2878
G01 X-6.9464 Y-12.4664
G01 X-6.9231 Y-12.5720
G01 X-6.9199 Y-12.6204
G01 X-6.9285 Y-12.6736
G01 X-6.9607 Y-12.7584
G01 X-7.0493 Y-12.9122
G01 X-7.0813 Y-13.0221
G01 X-7.0817 Y-13.4426
G01 X-7.0493 Y-13.5578
G01 X-6.9464 Y-13.7364
G01 X-6.9231 Y-13.8420
G01 X-6.9199 Y-13.8904
G01 X-6.9285 Y-13.9436
G01 X-6.9607 Y-14.0284
G01 X-7.0493 Y-14.1822
G01 X-7.0813 Y-14.2921
G01 X-7.0817 Y-14.7126
G01 X-7.0493 Y-14.8278
G01 X-6.9938 Y-14.9217
G01 X-6.9167 Y-14.9988
G01 X-6.8228 Y-15.0543
G01 X-6.7129 Y-15.0863
G01 X-5.2424 Y-15.0867
G01 X-5.1272 Y-15.0543
G01 X-5.0333 Y-14.9988
G01 X-4.9562 Y-14.9217
G01 X-4.9007 Y-14.8278
G01 X-4.8687 Y-14.7179
G01 X-4.8683 Y-14.2974
G01 X-4.8989 Y-14.1804
G01 X-4.9019 Y-14.1152
G01 X-4.8888 Y-14.0242
G01 X-4.8724 Y-13.9729
G01 X-4.8444 Y-13.9270
G01 X-4.7874 Y-13.8609
G01 X-4.7138 Y-13.8072
G01 X-4.5944 Y-13.7708
G01 X-4.1754 Y-13.7678
G01 X-4.0569 Y-13.7407
G01 X-3.9482 Y-13.6879
G01 X-3.8433 Y-13.5999
G01 X-3.3849 Y-13.1392
G01 X-3.3151 Y-13.0286
G01 X-3.2755 Y-12.9110
G01 X-3.2650 Y-12.7811
G01 X-3.2683 Y-10.0817
G01 X-3.2568 Y-9.9944
G01 X-3.2205 Y-9.9110
G01 X-3.1665 Y-9.8358
G01 X-3.1180 Y-9.7932
G01 X-2.9937 Y-9.7392
G01 X-2.8930 Y-9.7247
G01 X-2.7738 Y-9.6852
G01 X-2.6682 Y-9.6201
G01 X-2.5805 Y-9.5325
G01 X-2.5152 Y-9.4271
G01 X-2.4755 Y-9.3080
G01 X-2.4683 Y-9.2387
G01 X-2.4683 Y-7.5612
G01 X-2.4753 Y-7.4930
G01 X-2.5148 Y-7.3738
G01 X-2.5799 Y-7.2682
G01 X-2.6675 Y-7.1805
G01 X-2.7729 Y-7.1152
G01 X-2.8920 Y-7.0755
G01 X-2.9613 Y-7.0683
G01 X-4.6388 Y-7.0683
G01 X-4.7070 Y-7.0753
G01 X-4.8262 Y-7.1148
G01 X-4.9318 Y-7.1799
G01 X-5.0195 Y-7.2675
G01 X-5.1048 Y-7.4047
G01 X-5.1549 Y-7.4667
G01 X-5.1980 Y-7.5006
G01 X-5.2861 Y-7.5442
G01 X-5.3427 Y-7.5614
G01 X-5.4073 Y-7.5628
G01 X-5.5095 Y-7.5480
G01 X-5.5866 Y-7.5103
G01 X-5.6731 Y-7.4359
G01 X-5.7762 Y-7.3017
G01 X-5.8034 Y-7.2421
G01 X-5.8230 Y-7.1383
G01 X-5.8183 Y-5.3641
G01 X-5.8504 Y-5.2633
G01 X-5.8987 Y-5.1987
G01 X-5.9633 Y-5.1504
G01 X-6.0426 Y-5.1206
G01 X-6.1060 Y-5.1127
G01 X-6.1828 Y-5.0910
G01 X-6.2530 Y-5.0521
G01 X-6.3348 Y-4.9704
G01 X-6.3710 Y-4.9090
G01 X-6.5985 Y-4.6815
G01 X-6.7106 Y-4.7090
G01 X-6.8889 Y-4.7265
G01 X-7.0006 Y-4.7219
G01 X-7.1112 Y-4.7046
G01 X-7.2826 Y-4.6526
G01 X-7.3840 Y-4.6056
G01 X-7.4796 Y-4.5473
G01 X-7.6180 Y-4.4337
G01 X-7.6937 Y-4.3514
G01 X-7.7597 Y-4.2611
G01 X-7.8441 Y-4.1031
G01 X-7.8826 Y-3.9981
G01 X-7.9205 Y-3.8117
G01 X-7.9268 Y-3.7000
G01 X-7.9090 Y-3.5106
G01 X-7.8815 Y-3.3985
G01 X-7.9265 Y-3.3535
G01 X-7.9688 Y-3.5115
G01 X-7.9853 Y-3.7000
G01 X-7.9697 Y-3.9390
G01 X-8.0108 Y-4.0746
G01 X-8.0600 Y-4.1449
G01 X-8.1582 Y-4.2219
G01 X-8.2180 Y-4.2464
G01 X-8.3205 Y-4.2594
G01 X-8.3636 Y-4.2597
G01 X-8.4163 Y-4.2487
G01 X-8.5460 Y-4.1812
G01 X-9.5557 Y-3.2360
G01 X-9.6489 Y-3.1708
G01 X-9.7862 Y-3.1188
G01 X-9.8550 Y-3.1133
G01 X-13.9578 Y-3.1133
G01 X-14.0703 Y-3.1295
G01 X-14.1959 Y-3.1808
G01 X-14.2947 Y-3.2737
G01 X-14.3495 Y-3.3590
G01 X-14.3776 Y-3.4532
G01 X-14.3867 Y-3.5382
G01 X-14.3868 Y-4.3666
G01 X-14.4045 Y-4.4666
G01 X-14.4395 Y-4.5435
G01 X-14.5229 Y-4.6379
G01 X-14.5772 Y-4.6728
G01 X-14.6808 Y-4.7056
G01 X-14.7395 Y-4.7133
G01 X-15.9583 Y-4.7093
G01 X-16.0699 Y-4.6779
G01 X-16.1746 Y-4.5964
G01 X-16.2283 Y-4.5228
G01 X-16.2679 Y-4.3808
G01 X-16.3232 Y-4.3808
G01 X-16.3235 Y-4.6611
G01 X-16.3365 Y-4.7264
G01 X-16.3555 Y-4.7666
G01 X-16.3977 Y-4.8180
G01 X-16.4530 Y-4.8550
G01 X-16.4949 Y-4.8700
G01 X-16.5500 Y-4.8768
G01 X-18.5611 Y-4.8765
G01 X-18.6051 Y-4.8700
G01 X-18.6666 Y-4.8445
G01 X-18.7180 Y-4.8023
G01 X-18.7445 Y-4.7666
G01 X-18.7700 Y-4.7051
G01 X-18.7765 Y-4.6611
G01 X-18.7768 Y-4.3808
G01 X-18.8312 Y-4.3808
G01 X-18.8289 Y-4.7073
G01 X-18.7992 Y-4.7864
G01 X-18.7415 Y-4.8666
G01 X-18.7190 Y-4.9120
G01 X-18.6905 Y-5.0642
G01 X-18.6982 Y-5.1175
G01 X-18.7336 Y-5.2145
G01 X-18.7996 Y-5.3133
G01 X-18.8294 Y-5.3926
G01 X-18.8318 Y-6.6160
G01 X-18.8527 Y-6.7286
G01 X-18.8818 Y-6.7886
G01 X-18.9480 Y-6.8689
G01 X-18.9890 Y-6.9038
G01 X-19.0371 Y-6.9282
G01 X-19.1360 Y-6.9581
G01 X-19.7551 Y-6.9722
G01 X-19.9042 Y-7.0017
G01 X-19.9921 Y-7.0435
G01 X-20.0646 Y-7.1084
G01 X-20.1414 Y-7.2218
G01 X-20.1788 Y-7.3001
G01 X-20.2610 Y-7.3929
G01 X-20.3252 Y-7.4321
G01 X-20.4242 Y-7.4619
G01 X-20.4776 Y-7.4683
G01 X-22.0388 Y-7.4683
G01 X-22.1070 Y-7.4753
G01 X-22.2262 Y-7.5148
G01 X-22.3318 Y-7.5799
G01 X-22.4195 Y-7.6675
G01 X-22.4848 Y-7.7729
G01 X-22.5245 Y-7.8920
G01 X-22.5317 Y-7.9613
G01 X-22.5317 Y-9.6388
G01 X-22.5247 Y-9.7070
G00 X-22.5247 Y-9.7070
G01 F60.00
G01 Z-0.0750
G01 F120.00
G01 X-22.4852 Y-9.8262
G01 X-22.4201 Y-9.9318
G01 X-22.3325 Y-10.0195
G01 X-22.2271 Y-10.0848
G01 X-22.1080 Y-10.1245
G01 X-22.0087 Y-10.1378
G01 X-21.9580 Y-10.1542
G01 X-21.8657 Y-10.2109
G01 X-21.8287 Y-10.2422
G01 X-21.7964 Y-10.2854
G01 X-21.7528 Y-10.3790
G01 X-21.7291 Y-10.4987
G01 X-21.6887 Y-10.5873
G01 X-21.5879 Y-10.7093
G01 X-19.1742 Y-12.2972
G01 X-19.0712 Y-12.3455
G01 X-18.9382 Y-12.3715
G01 X-18.7601 Y-12.3391
G01 X-18.6959 Y-12.3335
G01 X-18.6443 Y-12.3390
G01 X-18.5280 Y-12.3812
G01 X-18.4367 Y-12.4445
G01 X-18.3574 Y-12.4742
G01 X-18.2940 Y-12.4822
G01 X-18.1958 Y-12.5125
G01 X-18.1470 Y-12.5428
G01 X-18.0797 Y-12.6085
G01 X-18.0290 Y-12.6859
G01 X-17.8015 Y-12.9134
G01 X-17.6894 Y-12.8859
G01 X-17.5000 Y-12.8681
G01 X-17.3106 Y-12.8859
G01 X-17.1985 Y-12.9134
G01 X-16.9705 Y-12.6854
G01 X-16.9360 Y-12.6294
G01 X-16.8635 Y-12.5497
G01 X-16.8177 Y-12.5214
G01 X-16.7308 Y-12.4895
G01 X-16.6426 Y-12.4742
G01 X-16.5633 Y-12.4445
G01 X-16.4987 Y-12.3961
G01 X-16.4504 Y-12.3316
G01 X-16.4183 Y-12.2307
G01 X-16.4183 Y-10.9173
G01 X-16.4051 Y-10.8229
G01 X-16.3425 Y-10.7012
G01 X-16.2907 Y-10.6468
G01 X-16.1923 Y-10.5907
G01 X-16.0474 Y-10.5370
G01 X-15.9357 Y-10.4601
G01 X-15.8589 Y-10.3483
G01 X-15.8214 Y-10.2475
G01 X-15.8133 Y-10.1641
G01 X-15.8133 Y-9.8157
G01 X-15.8403 Y-9.6662
G01 X-15.8808 Y-9.5777
G01 X-15.9445 Y-9.5041
G01 X-16.1073 Y-9.3946
G01 X-16.1998 Y-9.3095
G01 X-16.2321 Y-9.2536
G01 X-16.2642 Y-9.1441
G01 X-16.2682 Y-8.0334
G01 X-16.2505 Y-7.9334
G01 X-16.2329 Y-7.8856
G01 X-16.1550 Y-7.7850
G01 X-16.1062 Y-7.7427
G01 X-16.0527 Y-7.7175
G01 X-15.9371 Y-7.6877
G01 X-14.7334 Y-7.6868
G01 X-14.6334 Y-7.7045
G01 X-14.5856 Y-7.7221
G01 X-14.4850 Y-7.8000
G01 X-14.4427 Y-7.8488
G01 X-14.4175 Y-7.9023
G01 X-14.3877 Y-8.0179
G01 X-14.3867 Y-9.7291
G01 X-14.3705 Y-9.8416
G01 X-14.3192 Y-9.9672
G01 X-14.2263 Y-10.0660
G01 X-14.0810 Y-10.1655
G01 X-14.0210 Y-10.2292
G01 X-13.9894 Y-10.2891
G01 X-13.9570 Y-10.4211
G01 X-13.9567 Y-11.0755
G01 X-13.9499 Y-11.1420
G01 X-13.9113 Y-11.2584
G01 X-13.7930 Y-11.4436
G01 X-13.7663 Y-11.5179
G01 X-13.7580 Y-11.6327
G01 X-13.7688 Y-11.6964
G01 X-13.8195 Y-11.7986
G01 X-13.9104 Y-11.9410
G01 X-13.9240 Y-11.9817
G01 X-13.8651 Y-11.9817
G01 X-13.8295 Y-11.9140
G01 X-13.7891 Y-11.8595
G01 X-13.7320 Y-11.8036
G01 X-13.6661 Y-11.7585
G01 X-13.5616 Y-11.7152
G01 X-13.4431 Y-11.6983
G01 X-12.9569 Y-11.6983
G01 X-12.8384 Y-11.7152
G01 X-12.7436 Y-11.7530
G01 X-12.6680 Y-11.8036
G01 X-12.6036 Y-11.8680
G01 X-12.5585 Y-11.9339
G01 X-12.5182 Y-12.0277
G01 X-12.4996 Y-12.1281
G01 X-12.5018 Y-12.8191
G01 X-12.5295 Y-12.9298
G01 X-12.5764 Y-13.0205
G01 X-12.6342 Y-13.0908
G01 X-12.7192 Y-13.1577
G01 X-12.7192 Y-13.2349
G01 X-12.6382 Y-13.2290
G01 X-12.5801 Y-13.2375
G01 X-12.4729 Y-13.2842
G01 X-12.4204 Y-13.3218
G01 X-12.3373 Y-13.4419
G01 X-12.2993 Y-13.5578
G01 X-12.2141 Y-13.6980
G01 X-12.1931 Y-13.7465
G01 X-12.1709 Y-13.8581
G01 X-12.1757 Y-13.9331
G01 X-12.2203 Y-14.0496
G01 X-12.2993 Y-14.1822
G01 X-12.3317 Y-14.2974
G01 X-12.3313 Y-14.7179
G01 X-12.2993 Y-14.8278
G01 X-12.2438 Y-14.9217
G01 X-12.1667 Y-14.9988
G01 X-12.0728 Y-15.0543
G01 X-11.9576 Y-15.0867
G01 X-10.4924 Y-15.0867
G01 X-10.3413 Y-15.0452
G01 X-10.1845 Y-15.0367
G01 X-10.0621 Y-15.0592
G01 X-9.9924 Y-15.0963
G01 X-9.9220 Y-15.1572
G01 X-9.8877 Y-15.1988
G01 X-9.8642 Y-15.2472
G01 X-9.8358 Y-15.3466
G01 X-9.8334 Y-16.2537
G01 X-9.8057 Y-16.3781
G01 X-9.7529 Y-16.4868
G01 X-9.6649 Y-16.5917
G01 X-8.4392 Y-17.8151
G01 X-8.3316 Y-17.8835
G01 X-8.2142 Y-17.9238
G01 X-8.0811 Y-17.9350
G01 X-5.9009 Y-17.9320
G01 X-5.7992 Y-17.9506
G01 X-5.7312 Y-17.9842
G01 X-5.6508 Y-18.0493
G01 X-5.6118 Y-18.0980
G01 X-5.4780 Y-18.2318
G01 X-5.3229 Y-18.3404
G01 X-5.2649 Y-18.3717
G01 X-5.1808 Y-18.4446
G01 X-5.1310 Y-18.5256
G01 X-5.1042 Y-18.6141
G01 X-5.0974 Y-18.6675
G01 X-5.1034 Y-18.7210
G01 X-5.1288 Y-18.8100
G01 X-5.1711 Y-18.8847
G01 X-5.2639 Y-18.9682
G01 X-5.3227 Y-19.0001
G01 X-5.4776 Y-19.1086
G01 X-5.6114 Y-19.2424
G01 X-5.7199 Y-19.3973
G01 X-5.7488 Y-19.4592
G01 X-5.6872 Y-19.4592
G01 X-5.6273 Y-19.3604
G01 X-5.5061 Y-19.2139
G01 X-5.4226 Y-19.1394
G01 X-5.2640 Y-19.0344
G01 X-5.1626 Y-18.9874
G01 X-4.9912 Y-18.9354
G01 X-4.8806 Y-18.9181
G01 X-4.7800 Y-18.9132
G01 X-4.6794 Y-18.9181
G01 X-4.5688 Y-18.9354
G01 X-4.3974 Y-18.9874
G01 X-4.2960 Y-19.0344
G01 X-4.1374 Y-19.1394
G01 X-4.0539 Y-19.2139
G01 X-3.9327 Y-19.3604
G01 X-3.8728 Y-19.4592
G01 X-3.8112 Y-19.4592
G01 X-3.8401 Y-19.3973
G01 X-3.9486 Y-19.2424
G01 X-4.0824 Y-19.1086
G01 X-4.2373 Y-19.0001
G01 X-4.2951 Y-18.9689
G01 X-4.3864 Y-18.8881
G01 X-4.4252 Y-18.8249
G01 X-4.4614 Y-18.6946
G01 X-4.4588 Y-18.6301
G01 X-4.4329 Y-18.5357
G01 X-4.3889 Y-18.4558
G01 X-4.2961 Y-18.3724
G01 X-4.2371 Y-18.3404
G01 X-4.0820 Y-18.2318
G01 X-3.9482 Y-18.0980
G01 X-3.8396 Y-17.9429
G01 X-3.7597 Y-17.7714
G01 X-3.7107 Y-17.5886
G01 X-3.6942 Y-17.4000
G01 X-3.7107 Y-17.2114
G01 X-3.7597 Y-17.0286
G01 X-3.8396 Y-16.8571
G01 X-3.9482 Y-16.7020
G01 X-4.0820 Y-16.5682
G01 X-4.2371 Y-16.4596
G01 X-4.4086 Y-16.3797
G01 X-4.5914 Y-16.3307
G01 X-4.7800 Y-16.3142
G01 X-4.9686 Y-16.3307
G01 X-5.1514 Y-16.3797
G01 X-5.3229 Y-16.4596
G01 X-5.4780 Y-16.5682
G01 X-5.7117 Y-16.8059
G01 X-5.7695 Y-16.8358
G01 X-5.8689 Y-16.8642
G01 X-7.7336 Y-16.8683
G01 X-7.8066 Y-16.8607
G01 X-7.8592 Y-16.8428
G01 X-7.9792 Y-16.7687
G01 X-8.6692 Y-16.0787
G01 X-8.7274 Y-15.9969
G01 X-8.7606 Y-15.8923
G01 X-8.7682 Y-15.8390
G01 X-8.7666 Y-14.8463
G01 X-8.7943 Y-14.7219
G01 X-8.8507 Y-14.6076
G01 X-8.9351 Y-14.5083
G01 X-9.3604 Y-14.0861
G01 X-9.4634 Y-14.0215
G01 X-9.5776 Y-13.9819
G01 X-9.7139 Y-13.9700
G01 X-9.8549 Y-13.9692
G01 X-9.9822 Y-13.9202
G01 X-10.0234 Y-13.8946
G01 X-10.0616 Y-13.8567
G01 X-10.1184 Y-13.7703
G01 X-10.1425 Y-13.7104
G01 X-10.1483 Y-13.5644
G01 X-10.1183 Y-13.4426
G01 X-10.1187 Y-13.0221
G01 X-10.1507 Y-12.9122
G01 X-10.2536 Y-12.7336
G01 X-10.2769 Y-12.6280
G01 X-10.2801 Y-12.5796
G01 X-10.2715 Y-12.5264
G01 X-10.2393 Y-12.4416
G01 X-10.1507 Y-12.2878
G01 X-10.1187 Y-12.1779
G01 X-10.1170 Y-11.7623
G01 X-10.0923 Y-11.6540
G01 X-10.0557 Y-11.5907
G01 X-9.9909 Y-11.5169
G01 X-9.9287 Y-11.4746
G01 X-9.8200 Y-11.4402
G01 X-9.7084 Y-11.4280
G01 X-9.6077 Y-11.3981
G01 X-9.5033 Y-11.3277
G01 X-5.7698 Y-7.9498
G01 X-5.7057 Y-7.8838
G01 X-5.5967 Y-7.8274
G01 X-5.5454 Y-7.8110
G01 X-5.4809 Y-7.8079
G01 X-5.3683 Y-7.8262
G01 X-5.3006 Y-7.8591
G01 X-5.2071 Y-7.9418
G01 X-5.1679 Y-8.0060
G01 X-5.1381 Y-8.1050
G01 X-5.1317 Y-8.1584
G01 X-5.1317 Y-9.2388
G01 X-5.1247 Y-9.3070
G01 X-5.0852 Y-9.4262
G01 X-4.9958 Y-9.5669
G01 X-4.9564 Y-9.6536
G01 X-4.9416 Y-9.7031
G01 X-4.9383 Y-9.7547
G01 X-4.9522 Y-9.8563
G01 X-4.9733 Y-9.9173
G01 X-5.0500 Y-10.0155
G01 X-5.0898 Y-10.0517
G01 X-5.1472 Y-10.0813
G01 X-5.2572 Y-10.1115
G01 X-5.4942 Y-10.1138
G01 X-5.4942 Y-10.1682
G01 X-5.2742 Y-10.1692
G01 X-5.1906 Y-10.1844
G01 X-5.0816 Y-10.2381
G01 X-5.0336 Y-10.2786
G01 X-4.9931 Y-10.3266
G01 X-4.9479 Y-10.4112
G01 X-4.9250 Y-10.5081
G01 X-4.9233 Y-10.8506
G01 X-4.9329 Y-10.9294
G01 X-4.9519 Y-10.9892
G01 X-4.9807 Y-11.0449
G01 X-5.0525 Y-11.1290
G01 X-5.1558 Y-11.1931
G01 X-5.2631 Y-11.2200
G01 X-6.6556 Y-11.2217
G01 X-6.7487 Y-11.2085
G01 X-6.8303 Y-11.1758
G01 X-6.9543 Y-11.1758
G01 X-6.9228 Y-11.3016
G01 X-6.9215 Y-11.3715
G01 X-6.9649 Y-11.4989
G01 X-7.0493 Y-11.6422
G01 X-7.0813 Y-11.7521
G01 X-7.0817 Y-12.1726
G01 X-7.0493 Y-12.2878
G01 X-6.9464 Y-12.4664
G01 X-6.9231 Y-12.5720
G01 X-6.9199 Y-12.6204
G01 X-6.9285 Y-12.6736
G01 X-6.9607 Y-12.7584
G01 X-7.0493 Y-12.9122
G01 X-7.0813 Y-13.0221
G01 X-7.0817 Y-13.4426
G01 X-7.0493 Y-13.5578
G01 X-6.9464 Y-13.7364
G01 X-6.9231 Y-13.8420
G01 X-6.9199 Y-13.8904
G01 X-6.9285 Y-13.9436
G01 X-6.9607 Y-14.0284
G01 X-7.0493 Y-14.1822
G01 X-7.0813 Y-14.2921
G01 X-7.0817 Y-14.7126
G01 X-7.0493 Y-14.8278
G01 X-6.9938 Y-14.9217
G01 X-6.9167 Y-14.9988
G01 X-6.8228 Y-15.0543
G01 X-6.7129 Y-15.0863
G01 X-5.2424 Y-15.0867
G01 X-5.1272 Y-15.0543
G01 X-5.0333 Y-14.9988
G01 X-4.9562 Y-14.9217
G01 X-4.9007 Y-14.8278
G01 X-4.8687 Y-14.7179
G01 X-4.8683 Y-14.2974
G01 X-4.8989 Y-14.1804
G01 X-4.9019 Y-14.1152
G01 X-4.8888 Y-14.0242
G01 X-4.8724 Y-13.9729
G01 X-4.8444 Y-13.9270
G01 X-4.7874 Y-13.8609
G01 X-4.7138 Y-13.8072
G01 X-4.5944 Y-13.7708
G01 X-4.1754 Y-13.7678
G01 X-4.0569 Y-13.7407
G01 X-3.9482 Y-13.6879
G01 X-3.8433 Y-13.5999
G01 X-3.3849 Y-13.1392
G01 X-3.3151 Y-13.0286
G01 X-3.2755 Y-12.9110
G01 X-3.2650 Y-12.7811
G01 X-3.2683 Y-10.0817
G01 X-3.2568 Y-9.9944
G01 X-3.2205 Y-9.9110
G01 X-3.1665 Y-9.8358
G01 X-3.1180 Y-9.7932
G01 X-2.9937 Y-9.7392
G01 X-2.8930 Y-9.7247
G01 X-2.7738 Y-9.6852
G01 X-2.6682 Y-9.6201
G01 X-2.5805 Y-9.5325
G01 X-2.5152 Y-9.4271
G01 X-2.4755 Y-9.3080
G01 X-2.4683 Y-9.2387
G01 X-2.4683 Y-7.5612
G01 X-2.4753 Y-7.4930
G01 X-2.5148 Y-7.3738
G01 X-2.5799 Y-7.2682
G01 X-2.6675 Y-7.1805
G01 X-2.7729 Y-7.1152
G01 X-2.8920 Y-7.0755
G01 X-2.9613 Y-7.0683
G01 X-4.6388 Y-7.0683
G01 X-4.7070 Y-7.0753
G01 X-4.8262 Y-7.1148
G01 X-4.9318 Y-7.1799
G01 X-5.0195 Y-7.2675
G01 X-5.1048 Y-7.4047
G01 X-5.1549 Y-7.4667
G01 X-5.1980 Y-7.5006
G01 X-5.2861 Y-7.5442
G01 X-5.3427 Y-7.5614
G01 X-5.4073 Y-7.5628
G01 X-5.5095 Y-7.5480
G01 X-5.5866 Y-7.5103
G01 X-5.6731 Y-7.4359
G01 X-5.7762 Y-7.3017
G01 X-5.8034 Y-7.2421
G01 X-5.8230 Y-7.1383
G01 X-5.8183 Y-5.3641
G01 X-5.8504 Y-5.2633
G01 X-5.8987 Y-5.1987
G01 X-5.9633 Y-5.1504
G01 X-6.0426 Y-5.1206
G01 X-6.1060 Y-5.1127
G01 X-6.1828 Y-5.0910
G01 X-6.2530 Y-5.0521
G01 X-6.3348 Y-4.9704
G01 X-6.3710 Y-4.9090
G01 X-6.5985 Y-4.6815
G01 X-6.7106 Y-4.7090
G01 X-6.8889 Y-4.7265
G01 X-7.0006 Y-4.7219
G01 X-7.1112 Y-4.7046
G01 X-7.2826 Y-4.6526
G01 X-7.3840 Y-4.6056
G01 X-7.4796 Y-4.5473
G01 X-7.6180 Y-4.4337
G01 X-7.6937 Y-4.3514
G01 X-7.7597 Y-4.2611
G01 X-7.8441 Y-4.1031
G01 X-7.8826 Y-3.9981
G01 X-7.9205 Y-3.8117
G01 X-7.9268 Y-3.7000
G01 X-7.9090 Y-3.5106
G01 X-7.8815 Y-3.3985
G01 X-7.9265 Y-3.3535
G01 X-7.9688 Y-3.5115
G01 X-7.9853 Y-3.7000
G01 X-7.9697 Y-3.9390
G01 X-8.0108 Y-4.0746
G01 X-8.0600 Y-4.1449
G01 X-8.1582 Y-4.2219
G01 X-8.2180 Y-4.2464
G01 X-8.3205 Y-4.2594
G01 X-8.3636 Y-4.2597
G01 X-8.4163 Y-4.2487
G01 X-8.5460 Y-4.1812
G01 X-9.5557 Y-3.2360
G01 X-9.6489 Y-3.1708
G01 X-9.7862 Y-3.1188
G01 X-9.8550 Y-3.1133
G01 X-13.9578 Y-3.1133
G01 X-14.0703 Y-3.1295
G01 X-14.1959 Y-3.1808
G01 X-14.2947 Y-3.2737
G01 X-14.3495 Y-3.3590
G01 X-14.3776 Y-3.4532
G01 X-14.3867 Y-3.5382
G01 X-14.3868 Y-4.3666
G01 X-14.4045 Y-4.4666
G01 X-14.4395 Y-4.5435
G01 X-14.5229 Y-4.6379
G01 X-14.5772 Y-4.6728
G01 X-14.6808 Y-4.7056
G01 X-14.7395 Y-4.7133
G01 X-15.9583 Y-4.7093
G01 X-16.0699 Y-4.6779
G01 X-16.1746 Y-4.5964
G01 X-16.2283 Y-4.5228
G01 X-16.2679 Y-4.3808
G01 X-16.3232 Y-4.3808
G01 X-16.3235 Y-4.6611
G01 X-16.3365 Y-4.7264
G01 X-16.3555 Y-4.7666
G01 X-16.3977 Y-4.8180
G01 X-16.4530 Y-4.8550
G01 X-16.4949 Y-4.8700
G01 X-16.5500 Y-4.8768
G01 X-18.5611 Y-4.8765
G01 X-18.6051 Y-4.8700
G01 X-18.6666 Y-4.8445
G01 X-18.7180 Y-4.8023
G01 X-18.7445 Y-4.7666
G01 X-18.7700 Y-4.7051
G01 X-18.7765 Y-4.6611
G01 X-18.7768 Y-4.3808
G01 X-18.8312 Y-4.3808
G01 X-18.8289 Y-4.7073
G01 X-18.7992 Y-4.7864
G01 X-18.7415 Y-4.8666
G01 X-18.7190 Y-4.9120
G01 X-18.6905 Y-5.0642
G01 X-18.6982 Y-5.1175
G01 X-18.7336 Y-5.2145
G01 X-18.7996 Y-5.3133
G01 X-18.8294 Y-5.3926
G01 X-18.8318 Y-6.6160
G01 X-18.8527 Y-6.7286
G01 X-18.8818 Y-6.7886
G01 X-18.9480 Y-6.8689
G01 X-18.9890 Y-6.9038
G01 X-19.0371 Y-6.9282
G01 X-19.1360 Y-6.9581
G01 X-19.7551 Y-6.9722
G01 X-19.9042 Y-7.0017
G01 X-19.9921 Y-7.0435
G01 X-20.0646 Y-7.1084
G01 X-20.1414 Y-7.2218
G01 X-20.1788 Y-7.3001
G01 X-20.2610 Y-7.3929
G01 X-20.3252 Y-7.4321
G01 X-20.4242 Y-7.4619
G01 X-20.4776 Y-7.4683
G01 X-22.0388 Y-7.4683
G01 X-22.1070 Y-7.4753
G01 X-22.2262 Y-7.5148
G01 X-22.3318 Y-7.5799
G01 X-22.4195 Y-7.6675
G01 X-22.4848 Y-7.7729
G01 X-22.5245 Y-7.8920
G01 X-22.5317 Y-7.9613
G01 X-22.5317 Y-9.6388
G01 X-22.5247 Y-9.7070
G00 X-22.5247 Y-9.7070
G01 F60.00
G01 Z-0.1000
G01 F120.00
G01 X-22.4852 Y-9.8262
G01 X-22.4201 Y-9.9318
G01 X-22.3325 Y-10.0195
G01 X-22.2271 Y-10.0848
G01 X-22.1080 Y-10.1245
G01 X-22.0087 Y-10.1378
G01 X-21.9580 Y-10.1542
G01 X-21.8657 Y-10.2109
G01 X-21.8287 Y-10.2422
G01 X-21.7964 Y-10.2854
G01 X-21.7528 Y-10.3790
G01 X-21.7291 Y-10.4987
G01 X-21.6887 Y-10.5873
G01 X-21.5879 Y-10.7093
G01 X-19.1742 Y-12.2972
G01 X-19.0712 Y-12.3455
G01 X-18.9382 Y-12.3715
G01 X-18.7601 Y-12.3391
G01 X-18.6959 Y-12.3335
G01 X-18.6443 Y-12.3390
G01 X-18.5280 Y-12.3812
G01 X-18.4367 Y-12.4445
G01 X-18.3574 Y-12.4742
G01 X-18.2940 Y-12.4822
G01 X-18.1958 Y-12.5125
G01 X-18.1470 Y-12.5428
G01 X-18.0797 Y-12.6085
G01 X-18.0290 Y-12.6859
G01 X-17.8015 Y-12.9134
G01 X-17.6894 Y-12.8859
G01 X-17.5000 Y-12.8681
G01 X-17.3106 Y-12.8859
G01 X-17.1985 Y-12.9134
G01 X-16.9705 Y-12.6854
G01 X-16.9360 Y-12.6294
G01 X-16.8635 Y-12.5497
G01 X-16.8177 Y-12.5214
G01 X-16.7308 Y-12.4895
G01 X-16.6426 Y-12.4742
G01 X-16.5633 Y-12.4445
G01 X-16.4987 Y-12.3961
G01 X-16.4504 Y-12.3316
G01 X-16.4183 Y-12.2307
G01 X-16.4183 Y-10.9173
G01 X-16.4051 Y-10.8229
G01 X-16.3425 Y-10.7012
G01 X-16.2907 Y-10.6468
G01 X-16.1923 Y-10.5907
G01 X-16.0474 Y-10.5370
G01 X-15.9357 Y-10.4601
G01 X-15.8589 Y-10.3483
G01 X-15.8214 Y-10.2475
G01 X-15.8133 Y-10.1641
G01 X-15.8133 Y-9.8157
G01 X-15.8403 Y-9.6662
G01 X-15.8808 Y-9.5777
G01 X-15.9445 Y-9.5041
G01 X-16.1073 Y-9.3946
G01 X-16.1998 Y-9.3095
G01 X-16.2321 Y-9.2536
G01 X-16.2642 Y-9.1441
G01 X-16.2682 Y-8.0334
G01 X-16.2505 Y-7.9334
G01 X-16.2329 Y-7.8856
G01 X-16.1550 Y-7.7850
G01 X-16.1062 Y-7.7427
G01 X-16.0527 Y-7.7175
G01 X-15.9371 Y-7.6877
G01 X-14.7334 Y-7.6868
G01 X-14.6334 Y-7.7045
G01 X-14.5856 Y-7.7221
G01 X-14.4850 Y-7.8000
G01 X-14.4427 Y-7.8488
G01 X-14.4175 Y-7.9023
G01 X-14.3877 Y-8.0179
G01 X-14.3867 Y-9.7291
G01 X-14.3705 Y-9.8416
G01 X-14.3192 Y-9.9672
G01 X-14.2263 Y-10.0660
G01 X-14.0810 Y-10.1655
G01 X-14.0210 Y-10.2292
G01 X-13.9894 Y-10.2891
G01 X-13.9570 Y-10.4211
G01 X-13.9567 Y-11.0755
G01 X-13.9499 Y-11.1420
G01 X-13.9113 Y-11.2584
G01 X-13.7930 Y-11.4436
G01 X-13.7663 Y-11.5179
G01 X-13.7580 Y-11.6327
G01 X-13.7688 Y-11.6964
G01 X-13.8195 Y-11.7986
G01 X-13.9104 Y-11.9410
G01 X-13.9240 Y-11.9817
G01 X-13.8651 Y-11.9817
G01 X-13.8295 Y-11.9140
G01 X-13.7891 Y-11.8595
G01 X-13.7320 Y-11.8036
G01 X-13.6661 Y-11.7585
G01 X-13.5616 Y-11.7152
G01 X-13.4431 Y-11.6983
G01 X-12.9569 Y-11.6983
G01 X-12.8384 Y-11.7152
G01 X-12.7436 Y-11.7530
G01 X-12.6680 Y-11.8036
G01 X-12.6036 Y-11.8680
G01 X-12.5585 Y-11.9339
G01 X-12.5182 Y-12.0277
G01 X-12.4996 Y-12.1281
G01 X-12.5018 Y-12.8191
G01 X-12.5295 Y-12.9298
G01 X-12.5764 Y-13.0205
G01 X-12.6342 Y-13.0908
G01 X-12.7192 Y-13.1577
G01 X-12.7192 Y-13.2349
G01 X-12.6382 Y-13.2290
G01 X-12.5801 Y-13.2375
G01 X-12.4729 Y-13.2842
G01 X-12.4204 Y-13.3218
G01 X-12.3373 Y-13.4419
G01 X-12.2993 Y-13.5578
G01 X-12.2141 Y-13.6980
G01 X-12.1931 Y-13.7465
G01 X-12.1709 Y-13.8581
G01 X-12.1757 Y-13.9331
G01 X-12.2203 Y-14.0496
G01 X-12.2993 Y-14.1822
G01 X-12.3317 Y-14.2974
G01 X-12.3313 Y-14.7179
G01 X-12.2993 Y-14.8278
G01 X-12.2438 Y-14.9217
G01 X-12.1667 Y-14.9988
G01 X-12.0728 Y-15.0543
G01 X-11.9576 Y-15.0867
G01 X-10.4924 Y-15.0867
G01 X-10.3413 Y-15.0452
G01 X-10.1845 Y-15.0367
G01 X-10.0621 Y-15.0592
G01 X-9.9924 Y-15.0963
G01 X-9.9220 Y-15.1572
G01 X-9.8877 Y-15.1988
G01 X-9.8642 Y-15.2472
G01 X-9.8358 Y-15.3466
G01 X-9.8334 Y-16.2537
G01 X-9.8057 Y-16.3781
G01 X-9.7529 Y-16.4868
G01 X-9.6649 Y-16.5917
G01 X-8.4392 Y-17.8151
G01 X-8.3316 Y-17.8835
G01 X-8.2142 Y-17.9238
G01 X-8.0811 Y-17.9350
G01 X-5.9009 Y-17.9320
G01 X-5.7992 Y-17.9506
G01 X-5.7312 Y-17.9842
G01 X-5.6508 Y-18.0493
G01 X-5.6118 Y-18.0980
G01 X-5.4780 Y-18.2318
G01 X-5.3229 Y-18.3404
G01 X-5.2649 Y-18.3717
G01 X-5.1808 Y-18.4446
G01 X-5.1310 Y-18.5256
G01 X-5.1042 Y-18.6141
G01 X-5.0974 Y-18.6675
G01 X-5.1034 Y-18.7210
G01 X-5.1288 Y-18.8100
G01 X-5.1711 Y-18.8847
G01 X-5.2639 Y-18.9682
G01 X-5.3227 Y-19.0001
G01 X-5.4776 Y-19.1086
G01 X-5.6114 Y-19.2424
G01 X-5.7199 Y-19.3973
G01 X-5.7488 Y-19.4592
G01 X-5.6872 Y-19.4592
G01 X-5.6273 Y-19.3604
G01 X-5.5061 Y-19.2139
G01 X-5.4226 Y-19.1394
G01 X-5.2640 Y-19.0344
G01 X-5.1626 Y-18.9874
G01 X-4.9912 Y-18.9354
G01 X-4.8806 Y-18.9181
G01 X-4.7800 Y-18.9132
G01 X-4.6794 Y-18.9181
G01 X-4.5688 Y-18.9354
G01 X-4.3974 Y-18.9874
G01 X-4.2960 Y-19.0344
G01 X-4.1374 Y-19.1394
G01 X-4.0539 Y-19.2139
G01 X-3.9327 Y-19.3604
G01 X-3.8728 Y-19.4592
G01 X-3.8112 Y-19.4592
G01 X-3.8401 Y-19.3973
G01 X-3.9486 Y-19.2424
G01 X-4.0824 Y-19.1086
G01 X-4.2373 Y-19.0001
G01 X-4.2951 Y-18.9689
G01 X-4.3864 Y-18.8881
G01 X-4.4252 Y-18.8249
G01 X-4.4614 Y-18.6946
G01 X-4.4588 Y-18.6301
G01 X-4.4329 Y-18.5357
G01 X-4.3889 Y-18.4558
G01 X-4.2961 Y-18.3724
G01 X-4.2371 Y-18.3404
G01 X-4.0820 Y-18.2318
G01 X-3.9482 Y-18.0980
G01 X-3.8396 Y-17.9429
G01 X-3.7597 Y-17.7714
G01 X-3.7107 Y-17.5886
G01 X-3.6942 Y-17.4000
G01 X-3.7107 Y-17.2114
G01 X-3.7597 Y-17.0286
G01 X-3.8396 Y-16.8571
G01 X-3.9482 Y-16.7020
G01 X-4.0820 Y-16.5682
G01 X-4.2371 Y-16.4596
G01 X-4.4086 Y-16.3797
G01 X-4.5914 Y-16.3307
G01 X-4.7800 Y-16.3142
G01 X-4.9686 Y-16.3307
G01 X-5.1514 Y-16.3797
G01 X-5.3229 Y-16.4596
G01 X-5.4780 Y-16.5682
G01 X-5.7117 Y-16.8059
G01 X-5.7695 Y-16.8358
G01 X-5.8689 Y-16.8642
G01 X-7.7336 Y-16.8683
G01 X-7.8066 Y-16.8607
G01 X-7.8592 Y-16.8428
G01 X-7.9792 Y-16.7687
G01 X-8.6692 Y-16.0787
G01 X-8.7274 Y-15.9969
G01 X-8.7606 Y-15.8923
G01 X-8.7682 Y-15.8390
G01 X-8.7666 Y-14.8463
G01 X-8.7943 Y-14.7219
G01 X-8.8507 Y-14.6076
G01 X-8.9351 Y-14.5083
G01 X-9.3604 Y-14.0861
G01 X-9.4634 Y-14.0215
G01 X-9.5776 Y-13.9819
G01 X-9.7139 Y-13.9700
G01 X-9.8549 Y-13.9692
G01 X-9.9822 Y-13.9202
G01 X-10.0234 Y-13.8946
G01 X-10.0616 Y-13.8567
G01 X-10.1184 Y-13.7703
G01 X-10.1425 Y-13.7104
G01 X-10.1483 Y-13.5644
G01 X-10.1183 Y-13.4426
G01 X-10.1187 Y-13.0221
G01 X-10.1507 Y-12.9122
G01 X-10.2536 Y-12.7336
G01 X-10.2769 Y-12.6280
G01 X-10.2801 Y-12.5796
G01 X-10.2715 Y-12.5264
G01 X-10.2393 Y-12.4416
G01 X-10.1507 Y-12.2878
G01 X-10.1187 Y-12.1779
G01 X-10.1170 Y-11.7623
G01 X-10.0923 Y-11.6540
G01 X-10.0557 Y-11.5907
G01 X-9.9909 Y-11.5169
G01 X-9.9287 Y-11.4746
G01 X-9.8200 Y-11.4402
G01 X-9.7084 Y-11.4280
G01 X-9.6077 Y-11.3981
G01 X-9.5033 Y-11.3277
G01 X-5.7698 Y-7.9498
G01 X-5.7057 Y-7.8838
G01 X-5.5967 Y-7.8274
G01 X-5.5454 Y-7.8110
G01 X-5.4809 Y-7.8079
G01 X-5.3683 Y-7.8262
G01 X-5.3006 Y-7.8591
G01 X-5.2071 Y-7.9418
G01 X-5.1679 Y-8.0060
G01 X-5.1381 Y-8.1050
G01 X-5.1317 Y-8.1584
G01 X-5.1317 Y-9.2388
G01 X-5.1247 Y-9.3070
G01 X-5.0852 Y-9.4262
G01 X-4.9958 Y-9.5669
G01 X-4.9564 Y-9.6536
G01 X-4.9416 Y-9.7031
G01 X-4.9383 Y-9.7547
G01 X-4.9522 Y-9.8563
G01 X-4.9733 Y-9.9173
G01 X-5.0500 Y-10.0155
G01 X-5.0898 Y-10.0517
G01 X-5.1472 Y-10.0813
G01 X-5.2572 Y-10.1115
G01 X-5.4942 Y-10.1138
G01 X-5.4942 Y-10.1682
G01 X-5.2742 Y-10.1692
G01 X-5.1906 Y-10.1844
G01 X-5.0816 Y-10.2381
G01 X-5.0336 Y-10.2786
G01 X-4.9931 Y-10.3266
G01 X-4.9479 Y-10.4112
G01 X-4.9250 Y-10.5081
G01 X-4.9233 Y-10.8506
G01 X-4.9329 Y-10.9294
G01 X-4.9519 Y-10.9892
G01 X-4.9807 Y-11.0449
G01 X-5.0525 Y-11.1290
G01 X-5.1558 Y-11.1931
G01 X-5.2631 Y-11.2200
G01 X-6.6556 Y-11.2217
G01 X-6.7487 Y-11.2085
G01 X-6.8303 Y-11.1758
G01 X-6.9543 Y-11.1758
G01 X-6.9228 Y-11.3016
G01 X-6.9215 Y-11.3715
G01 X-6.9649 Y-11.4989
G01 X-7.0493 Y-11.6422
G01 X-7.0813 Y-11.7521
G01 X-7.0817 Y-12.1726
G01 X-7.0493 Y-12.2878
G01 X-6.9464 Y-12.4664
G01 X-6.9231 Y-12.5720
G01 X-6.9199 Y-12.6204
G01 X-6.9285 Y-12.6736
G01 X-6.9607 Y-12.7584
G01 X-7.0493 Y-12.9122
G01 X-7.0813 Y-13.0221
G01 X-7.0817 Y-13.4426
G01 X-7.0493 Y-13.5578
G01 X-6.9464 Y-13.7364
G01 X-6.9231 Y-13.8420
G01 X-6.9199 Y-13.8904
G01 X-6.9285 Y-13.9436
G01 X-6.9607 Y-14.0284
G01 X-7.0493 Y-14.1822
G01 X-7.0813 Y-14.2921
G01 X-7.0817 Y-14.7126
G01 X-7.0493 Y-14.8278
G01 X-6.9938 Y-14.9217
G01 X-6.9167 Y-14.9988
G01 X-6.8228 Y-15.0543
G01 X-6.7129 Y-15.0863
G01 X-5.2424 Y-15.0867
G01 X-5.1272 Y-15.0543
G01 X-5.0333 Y-14.9988
G01 X-4.9562 Y-14.9217
G01 X-4.9007 Y-14.8278
G01 X-4.8687 Y-14.7179
G01 X-4.8683 Y-14.2974
G01 X-4.8989 Y-14.1804
G01 X-4.9019 Y-14.1152
G01 X-4.8888 Y-14.0242
G01 X-4.8724 Y-13.9729
G01 X-4.8444 Y-13.9270
G01 X-4.7874 Y-13.8609
G01 X-4.7138 Y-13.8072
G01 X-4.5944 Y-13.7708
G01 X-4.1754 Y-13.7678
G01 X-4.0569 Y-13.7407
G01 X-3.9482 Y-13.6879
G01 X-3.8433 Y-13.5999
G01 X-3.3849 Y-13.1392
G01 X-3.3151 Y-13.0286
G01 X-3.2755 Y-12.9110
G01 X-3.2650 Y-12.7811
G01 X-3.2683 Y-10.0817
G01 X-3.2568 Y-9.9944
G01 X-3.2205 Y-9.9110
G01 X-3.1665 Y-9.8358
G01 X-3.1180 Y-9.7932
G01 X-2.9937 Y-9.7392
G01 X-2.8930 Y-9.7247
G01 X-2.7738 Y-9.6852
G01 X-2.6682 Y-9.6201
G01 X-2.5805 Y-9.5325
G01 X-2.5152 Y-9.4271
G01 X-2.4755 Y-9.3080
G01 X-2.4683 Y-9.2387
G01 X-2.4683 Y-7.5612
G01 X-2.4753 Y-7.4930
G01 X-2.5148 Y-7.3738
G01 X-2.5799 Y-7.2682
G01 X-2.6675 Y-7.1805
G01 X-2.7729 Y-7.1152
G01 X-2.8920 Y-7.0755
G01 X-2.9613 Y-7.0683
G01 X-4.6388 Y-7.0683
G01 X-4.7070 Y-7.0753
G01 X-4.8262 Y-7.1148
G01 X-4.9318 Y-7.1799
G01 X-5.0195 Y-7.2675
G01 X-5.1048 Y-7.4047
G01 X-5.1549 Y-7.4667
G01 X-5.1980 Y-7.5006
G01 X-5.2861 Y-7.5442
G01 X-5.3427 Y-7.5614
G01 X-5.4073 Y-7.5628
G01 X-5.5095 Y-7.5480
G01 X-5.5866 Y-7.5103
G01 X-5.6731 Y-7.4359
G01 X-5.7762 Y-7.3017
G01 X-5.8034 Y-7.2421
G01 X-5.8230 Y-7.1383
G01 X-5.8183 Y-5.3641
G01 X-5.8504 Y-5.2633
G01 X-5.8987 Y-5.1987
G01 X-5.9633 Y-5.1504
G01 X-6.0426 Y-5.1206
G01 X-6.1060 Y-5.1127
G01 X-6.1828 Y-5.0910
G01 X-6.2530 Y-5.0521
G01 X-6.3348 Y-4.9704
G01 X-6.3710 Y-4.9090
G01 X-6.5985 Y-4.6815
G01 X-6.7106 Y-4.7090
G01 X-6.8889 Y-4.7265
G01 X-7.0006 Y-4.7219
G01 X-7.1112 Y-4.7046
G01 X-7.2826 Y-4.6526
G01 X-7.3840 Y-4.6056
G01 X-7.4796 Y-4.5473
G01 X-7.6180 Y-4.4337
G01 X-7.6937 Y-4.3514
G01 X-7.7597 Y-4.2611
G01 X-7.8441 Y-4.1031
G01 X-7.8826 Y-3.9981
G01 X-7.9205 Y-3.8117
G01 X-7.9268 Y-3.7000
G01 X-7.9090 Y-3.5106
G01 X-7.8815 Y-3.3985
G01 X-7.9265 Y-3.3535
G01 X-7.9688 Y-3.5115
G01 X-7.9853 Y-3.7000
G01 X-7.9697 Y-3.9390
G01 X-8.0108 Y-4.0746
G01 X-8.0600 Y-4.1449
G01 X-8.1582 Y-4.2219
G01 X-8.2180 Y-4.2464
G01 X-8.3205 Y-4.2594
G01 X-8.3636 Y-4.2597
G01 X-8.4163 Y-4.2487
G01 X-8.5460 Y-4.1812
G01 X-9.5557 Y-3.2360
G01 X-9.6489 Y-3.1708
G01 X-9.7862 Y-3.1188
G01 X-9.8550 Y-3.1133
G01 X-13.9578 Y-3.1133
G01 X-14.0703 Y-3.1295
G01 X-14.1959 Y-3.1808
G01 X-14.2947 Y-3.2737
G01 X-14.3495 Y-3.3590
G01 X-14.3776 Y-3.4532
G01 X-14.3867 Y-3.5382
G01 X-14.3868 Y-4.3666
G01 X-14.4045 Y-4.4666
G01 X-14.4395 Y-4.5435
G01 X-14.5229 Y-4.6379
G01 X-14.5772 Y-4.6728
