(G-CODE GENERATED BY FLATCAM vUnstable - www.flatcam.org - Version Date: 2022/3/1)

(Name: smd_vacuum-B_Cu.gbr_iso_combined_cnc)
(Type: G-code from Geometry)
(Units: MM)

(Created on Tuesday, 03 May 2022 at 06:47)

(This preprocessor is the default preprocessor used by FlatCAM.)
(It is made to work with MACH3 compatible motion controllers.)

(TOOL DIAMETER: 0.4536 mm)
(Feedrate_XY: 120.0 mm/min)
(Feedrate_Z: 60.0 mm/min)
(Feedrate rapids 1500.0 mm/min)

(Z_Cut: -0.1 mm)
(DepthPerCut: 0.025 mm <=>4 passes)
(Z_Move: 2.0 mm)
(Z Start: None mm)
(Z End: 15.0 mm)
(X,Y End: None mm)
(Steps per circle: 16)
(Preprocessor Geometry: default)

(X range:  -73.0345 ...   -1.9655  mm)
(Y range:  -74.4345 ...   -1.9655  mm)

(Spindle Speed: 12000.0 RPM)
G21
G90
G94

G01 F120.00
G00 Z2.0000

M03 S12000.0
G01 F120.00
G00 X-7.0224 Y-5.8796
G01 F60.00
G01 Z-0.0250
G01 F120.00
G01 X-6.9588 Y-6.0776
G01 X-6.8696 Y-6.2654
G01 X-6.7563 Y-6.4399
G01 X-6.6210 Y-6.5978
G01 X-6.5743 Y-6.6395
G01 X-6.4660 Y-6.7364
G01 X-6.2940 Y-6.8533
G01 X-6.1080 Y-6.9464
G01 X-5.9114 Y-7.0141
G01 X-5.7075 Y-7.0552
G01 X-5.5533 Y-7.0654
G01 X-5.4034 Y-7.0653
G01 X-5.1524 Y-7.0300
G01 X-4.9531 Y-6.9706
G01 X-4.7634 Y-6.8853
G01 X-4.5867 Y-6.7757
G01 X-4.4260 Y-6.6437
G01 X-4.2841 Y-6.4916
G01 X-4.1637 Y-6.3221
G01 X-4.0667 Y-6.1382
G01 X-3.9948 Y-5.9430
G01 X-3.9495 Y-5.7400
G01 X-3.9314 Y-5.5329
G01 X-3.9408 Y-5.3251
G01 X-3.9776 Y-5.1204
G01 X-4.0412 Y-4.9224
G01 X-4.1304 Y-4.7346
G01 X-4.2437 Y-4.5601
G01 X-4.3790 Y-4.4022
G01 X-4.5340 Y-4.2636
G01 X-4.7060 Y-4.1467
G01 X-4.8920 Y-4.0536
G01 X-5.0886 Y-3.9859
G01 X-5.2925 Y-3.9448
G01 X-5.4467 Y-3.9346
G01 X-5.5966 Y-3.9347
G01 X-5.8476 Y-3.9700
G01 X-6.0469 Y-4.0294
G01 X-6.2366 Y-4.1147
G01 X-6.4133 Y-4.2243
G01 X-6.5740 Y-4.3563
G01 X-6.7159 Y-4.5084
G01 X-6.8363 Y-4.6779
G01 X-6.9333 Y-4.8618
G01 X-7.0052 Y-5.0570
G01 X-7.0505 Y-5.2600
G01 X-7.0686 Y-5.4671
G01 X-7.0592 Y-5.6749
G01 X-7.0224 Y-5.8796
G00 X-7.0224 Y-5.8796
G01 F60.00
G01 Z-0.0500
G01 F120.00
G01 X-6.9588 Y-6.0776
G01 X-6.8696 Y-6.2654
G01 X-6.7563 Y-6.4399
G01 X-6.6210 Y-6.5978
G01 X-6.5743 Y-6.6395
G01 X-6.4660 Y-6.7364
G01 X-6.2940 Y-6.8533
G01 X-6.1080 Y-6.9464
G01 X-5.9114 Y-7.0141
G01 X-5.7075 Y-7.0552
G01 X-5.5533 Y-7.0654
G01 X-5.4034 Y-7.0653
G01 X-5.1524 Y-7.0300
G01 X-4.9531 Y-6.9706
G01 X-4.7634 Y-6.8853
G01 X-4.5867 Y-6.7757
G01 X-4.4260 Y-6.6437
G01 X-4.2841 Y-6.4916
G01 X-4.1637 Y-6.3221
G01 X-4.0667 Y-6.1382
G01 X-3.9948 Y-5.9430
G01 X-3.9495 Y-5.7400
G01 X-3.9314 Y-5.5329
G01 X-3.9408 Y-5.3251
G01 X-3.9776 Y-5.1204
G01 X-4.0412 Y-4.9224
G01 X-4.1304 Y-4.7346
G01 X-4.2437 Y-4.5601
G01 X-4.3790 Y-4.4022
G01 X-4.5340 Y-4.2636
G01 X-4.7060 Y-4.1467
G01 X-4.8920 Y-4.0536
G01 X-5.0886 Y-3.9859
G01 X-5.2925 Y-3.9448
G01 X-5.4467 Y-3.9346
G01 X-5.5966 Y-3.9347
G01 X-5.8476 Y-3.9700
G01 X-6.0469 Y-4.0294
G01 X-6.2366 Y-4.1147
G01 X-6.4133 Y-4.2243
G01 X-6.5740 Y-4.3563
G01 X-6.7159 Y-4.5084
G01 X-6.8363 Y-4.6779
G01 X-6.9333 Y-4.8618
G01 X-7.0052 Y-5.0570
G01 X-7.0505 Y-5.2600
G01 X-7.0686 Y-5.4671
G01 X-7.0592 Y-5.6749
G01 X-7.0224 Y-5.8796
G00 X-7.0224 Y-5.8796
G01 F60.00
G01 Z-0.0750
G01 F120.00
G01 X-6.9588 Y-6.0776
G01 X-6.8696 Y-6.2654
G01 X-6.7563 Y-6.4399
G01 X-6.6210 Y-6.5978
G01 X-6.5743 Y-6.6395
G01 X-6.4660 Y-6.7364
G01 X-6.2940 Y-6.8533
G01 X-6.1080 Y-6.9464
G01 X-5.9114 Y-7.0141
G01 X-5.7075 Y-7.0552
G01 X-5.5533 Y-7.0654
G01 X-5.4034 Y-7.0653
G01 X-5.1524 Y-7.0300
G01 X-4.9531 Y-6.9706
G01 X-4.7634 Y-6.8853
G01 X-4.5867 Y-6.7757
G01 X-4.4260 Y-6.6437
G01 X-4.2841 Y-6.4916
G01 X-4.1637 Y-6.3221
G01 X-4.0667 Y-6.1382
G01 X-3.9948 Y-5.9430
G01 X-3.9495 Y-5.7400
G01 X-3.9314 Y-5.5329
G01 X-3.9408 Y-5.3251
G01 X-3.9776 Y-5.1204
G01 X-4.0412 Y-4.9224
G01 X-4.1304 Y-4.7346
G01 X-4.2437 Y-4.5601
G01 X-4.3790 Y-4.4022
G01 X-4.5340 Y-4.2636
G01 X-4.7060 Y-4.1467
G01 X-4.8920 Y-4.0536
G01 X-5.0886 Y-3.9859
G01 X-5.2925 Y-3.9448
G01 X-5.4467 Y-3.9346
G01 X-5.5966 Y-3.9347
G01 X-5.8476 Y-3.9700
G01 X-6.0469 Y-4.0294
G01 X-6.2366 Y-4.1147
G01 X-6.4133 Y-4.2243
G01 X-6.5740 Y-4.3563
G01 X-6.7159 Y-4.5084
G01 X-6.8363 Y-4.6779
G01 X-6.9333 Y-4.8618
G01 X-7.0052 Y-5.0570
G01 X-7.0505 Y-5.2600
G01 X-7.0686 Y-5.4671
G01 X-7.0592 Y-5.6749
G01 X-7.0224 Y-5.8796
G00 X-7.0224 Y-5.8796
G01 F60.00
G01 Z-0.1000
G01 F120.00
G01 X-6.9588 Y-6.0776
G01 X-6.8696 Y-6.2654
G01 X-6.7563 Y-6.4399
G01 X-6.6210 Y-6.5978
G01 X-6.5743 Y-6.6395
G01 X-6.4660 Y-6.7364
G01 X-6.2940 Y-6.8533
G01 X-6.1080 Y-6.9464
G01 X-5.9114 Y-7.0141
G01 X-5.7075 Y-7.0552
G01 X-5.5533 Y-7.0654
G01 X-5.4034 Y-7.0653
G01 X-5.1524 Y-7.0300
G01 X-4.9531 Y-6.9706
G01 X-4.7634 Y-6.8853
G01 X-4.5867 Y-6.7757
G01 X-4.4260 Y-6.6437
G01 X-4.2841 Y-6.4916
G01 X-4.1637 Y-6.3221
G01 X-4.0667 Y-6.1382
G01 X-3.9948 Y-5.9430
G01 X-3.9495 Y-5.7400
G01 X-3.9314 Y-5.5329
G01 X-3.9408 Y-5.3251
G01 X-3.9776 Y-5.1204
G01 X-4.0412 Y-4.9224
G01 X-4.1304 Y-4.7346
G01 X-4.2437 Y-4.5601
G01 X-4.3790 Y-4.4022
G01 X-4.5340 Y-4.2636
G01 X-4.7060 Y-4.1467
G01 X-4.8920 Y-4.0536
G01 X-5.0886 Y-3.9859
G01 X-5.2925 Y-3.9448
G01 X-5.4467 Y-3.9346
G01 X-5.5966 Y-3.9347
G01 X-5.8476 Y-3.9700
G01 X-6.0469 Y-4.0294
G01 X-6.2366 Y-4.1147
G01 X-6.4133 Y-4.2243
G01 X-6.5740 Y-4.3563
G01 X-6.7159 Y-4.5084
G01 X-6.8363 Y-4.6779
G01 X-6.9333 Y-4.8618
G01 X-7.0052 Y-5.0570
G01 X-7.0505 Y-5.2600
G01 X-7.0686 Y-5.4671
G01 X-7.0592 Y-5.6749
G01 X-7.0224 Y-5.8796
G00 Z2.0000
G00 X-7.4194 Y-5.9786
G01 F60.00
G01 Z-0.0250
G01 F120.00
G01 X-7.3392 Y-6.2282
G01 X-7.2267 Y-6.4650
G01 X-7.0839 Y-6.6849
G01 X-6.9133 Y-6.8840
G01 X-6.8464 Y-6.9439
G01 X-6.7179 Y-7.0588
G01 X-6.5010 Y-7.2062
G01 X-6.2666 Y-7.3236
G01 X-6.0186 Y-7.4089
G01 X-5.7616 Y-7.4607
G01 X-5.5666 Y-7.4737
G01 X-5.3967 Y-7.4737
G01 X-5.3231 Y-7.4704
G01 X-5.0617 Y-7.4290
G01 X-4.8105 Y-7.3541
G01 X-4.5713 Y-7.2466
G01 X-4.3485 Y-7.1084
G01 X-4.1459 Y-6.9420
G01 X-3.9671 Y-6.7502
G01 X-3.8152 Y-6.5365
G01 X-3.6929 Y-6.3046
G01 X-3.6024 Y-6.0585
G01 X-3.5452 Y-5.8026
G01 X-3.5223 Y-5.5414
G01 X-3.5342 Y-5.2795
G01 X-3.5806 Y-5.0214
G01 X-3.6608 Y-4.7718
G01 X-3.7733 Y-4.5350
G01 X-3.9161 Y-4.3151
G01 X-4.0867 Y-4.1160
G01 X-4.2821 Y-3.9412
G01 X-4.4990 Y-3.7938
G01 X-4.7334 Y-3.6764
G01 X-4.9814 Y-3.5911
G01 X-5.2384 Y-3.5393
G01 X-5.4334 Y-3.5263
G01 X-5.6033 Y-3.5263
G01 X-5.6769 Y-3.5296
G01 X-5.9383 Y-3.5710
G01 X-6.1895 Y-3.6459
G01 X-6.4287 Y-3.7534
G01 X-6.6515 Y-3.8916
G01 X-6.8541 Y-4.0580
G01 X-7.0329 Y-4.2498
G01 X-7.1848 Y-4.4635
G01 X-7.3071 Y-4.6954
G01 X-7.3976 Y-4.9415
G01 X-7.4548 Y-5.1974
G01 X-7.4777 Y-5.4586
G01 X-7.4658 Y-5.7205
G01 X-7.4194 Y-5.9786
G00 X-7.4194 Y-5.9786
G01 F60.00
G01 Z-0.0500
G01 F120.00
G01 X-7.3392 Y-6.2282
G01 X-7.2267 Y-6.4650
G01 X-7.0839 Y-6.6849
G01 X-6.9133 Y-6.8840
G01 X-6.8464 Y-6.9439
G01 X-6.7179 Y-7.0588
G01 X-6.5010 Y-7.2062
G01 X-6.2666 Y-7.3236
G01 X-6.0186 Y-7.4089
G01 X-5.7616 Y-7.4607
G01 X-5.5666 Y-7.4737
G01 X-5.3967 Y-7.4737
G01 X-5.3231 Y-7.4704
G01 X-5.0617 Y-7.4290
G01 X-4.8105 Y-7.3541
G01 X-4.5713 Y-7.2466
G01 X-4.3485 Y-7.1084
G01 X-4.1459 Y-6.9420
G01 X-3.9671 Y-6.7502
G01 X-3.8152 Y-6.5365
G01 X-3.6929 Y-6.3046
G01 X-3.6024 Y-6.0585
G01 X-3.5452 Y-5.8026
G01 X-3.5223 Y-5.5414
G01 X-3.5342 Y-5.2795
G01 X-3.5806 Y-5.0214
G01 X-3.6608 Y-4.7718
G01 X-3.7733 Y-4.5350
G01 X-3.9161 Y-4.3151
G01 X-4.0867 Y-4.1160
G01 X-4.2821 Y-3.9412
G01 X-4.4990 Y-3.7938
G01 X-4.7334 Y-3.6764
G01 X-4.9814 Y-3.5911
G01 X-5.2384 Y-3.5393
G01 X-5.4334 Y-3.5263
G01 X-5.6033 Y-3.5263
G01 X-5.6769 Y-3.5296
G01 X-5.9383 Y-3.5710
G01 X-6.1895 Y-3.6459
G01 X-6.4287 Y-3.7534
G01 X-6.6515 Y-3.8916
G01 X-6.8541 Y-4.0580
G01 X-7.0329 Y-4.2498
G01 X-7.1848 Y-4.4635
G01 X-7.3071 Y-4.6954
G01 X-7.3976 Y-4.9415
G01 X-7.4548 Y-5.1974
G01 X-7.4777 Y-5.4586
G01 X-7.4658 Y-5.7205
G01 X-7.4194 Y-5.9786
G00 X-7.4194 Y-5.9786
G01 F60.00
G01 Z-0.0750
G01 F120.00
G01 X-7.3392 Y-6.2282
G01 X-7.2267 Y-6.4650
G01 X-7.0839 Y-6.6849
G01 X-6.9133 Y-6.8840
G01 X-6.8464 Y-6.9439
G01 X-6.7179 Y-7.0588
G01 X-6.5010 Y-7.2062
G01 X-6.2666 Y-7.3236
G01 X-6.0186 Y-7.4089
G01 X-5.7616 Y-7.4607
G01 X-5.5666 Y-7.4737
G01 X-5.3967 Y-7.4737
G01 X-5.3231 Y-7.4704
G01 X-5.0617 Y-7.4290
G01 X-4.8105 Y-7.3541
G01 X-4.5713 Y-7.2466
G01 X-4.3485 Y-7.1084
G01 X-4.1459 Y-6.9420
G01 X-3.9671 Y-6.7502
G01 X-3.8152 Y-6.5365
G01 X-3.6929 Y-6.3046
G01 X-3.6024 Y-6.0585
G01 X-3.5452 Y-5.8026
G01 X-3.5223 Y-5.5414
G01 X-3.5342 Y-5.2795
G01 X-3.5806 Y-5.0214
G01 X-3.6608 Y-4.7718
G01 X-3.7733 Y-4.5350
G01 X-3.9161 Y-4.3151
G01 X-4.0867 Y-4.1160
G01 X-4.2821 Y-3.9412
G01 X-4.4990 Y-3.7938
G01 X-4.7334 Y-3.6764
G01 X-4.9814 Y-3.5911
G01 X-5.2384 Y-3.5393
G01 X-5.4334 Y-3.5263
G01 X-5.6033 Y-3.5263
G01 X-5.6769 Y-3.5296
G01 X-5.9383 Y-3.5710
G01 X-6.1895 Y-3.6459
G01 X-6.4287 Y-3.7534
G01 X-6.6515 Y-3.8916
G01 X-6.8541 Y-4.0580
G01 X-7.0329 Y-4.2498
G01 X-7.1848 Y-4.4635
G01 X-7.3071 Y-4.6954
G01 X-7.3976 Y-4.9415
G01 X-7.4548 Y-5.1974
G01 X-7.4777 Y-5.4586
G01 X-7.4658 Y-5.7205
G01 X-7.4194 Y-5.9786
G00 X-7.4194 Y-5.9786
G01 F60.00
G01 Z-0.1000
G01 F120.00
G01 X-7.3392 Y-6.2282
G01 X-7.2267 Y-6.4650
G01 X-7.0839 Y-6.6849
G01 X-6.9133 Y-6.8840
G01 X-6.8464 Y-6.9439
G01 X-6.7179 Y-7.0588
G01 X-6.5010 Y-7.2062
G01 X-6.2666 Y-7.3236
G01 X-6.0186 Y-7.4089
G01 X-5.7616 Y-7.4607
G01 X-5.5666 Y-7.4737
G01 X-5.3967 Y-7.4737
G01 X-5.3231 Y-7.4704
G01 X-5.0617 Y-7.4290
G01 X-4.8105 Y-7.3541
G01 X-4.5713 Y-7.2466
G01 X-4.3485 Y-7.1084
G01 X-4.1459 Y-6.9420
G01 X-3.9671 Y-6.7502
G01 X-3.8152 Y-6.5365
G01 X-3.6929 Y-6.3046
G01 X-3.6024 Y-6.0585
G01 X-3.5452 Y-5.8026
G01 X-3.5223 Y-5.5414
G01 X-3.5342 Y-5.2795
G01 X-3.5806 Y-5.0214
G01 X-3.6608 Y-4.7718
G01 X-3.7733 Y-4.5350
G01 X-3.9161 Y-4.3151
G01 X-4.0867 Y-4.1160
G01 X-4.2821 Y-3.9412
G01 X-4.4990 Y-3.7938
G01 X-4.7334 Y-3.6764
G01 X-4.9814 Y-3.5911
G01 X-5.2384 Y-3.5393
G01 X-5.4334 Y-3.5263
G01 X-5.6033 Y-3.5263
G01 X-5.6769 Y-3.5296
G01 X-5.9383 Y-3.5710
G01 X-6.1895 Y-3.6459
G01 X-6.4287 Y-3.7534
G01 X-6.6515 Y-3.8916
G01 X-6.8541 Y-4.0580
G01 X-7.0329 Y-4.2498
G01 X-7.1848 Y-4.4635
G01 X-7.3071 Y-4.6954
G01 X-7.3976 Y-4.9415
G01 X-7.4548 Y-5.1974
G01 X-7.4777 Y-5.4586
G01 X-7.4658 Y-5.7205
G01 X-7.4194 Y-5.9786
G00 Z2.0000
G00 X-7.1330 Y-16.7236
G01 F60.00
G01 Z-0.0250
G01 F120.00
G01 X-7.0089 Y-16.6929
G01 X-6.8000 Y-16.6732
G01 X-6.5911 Y-16.6929
G01 X-6.4202 Y-16.7403
G01 X-6.3758 Y-16.6959
G01 X-6.5262 Y-16.6469
G01 X-6.7164 Y-16.6178
G01 X-6.9107 Y-16.6200
G01 X-7.1019 Y-16.6539
G01 X-7.2233 Y-16.6967
G01 X-7.1798 Y-16.7403
G01 X-7.1330 Y-16.7236
G00 X-7.1330 Y-16.7236
G01 F60.00
G01 Z-0.0500
G01 F120.00
G01 X-7.0089 Y-16.6929
G01 X-6.8000 Y-16.6732
G01 X-6.5911 Y-16.6929
G01 X-6.4202 Y-16.7403
G01 X-6.3758 Y-16.6959
G01 X-6.5262 Y-16.6469
G01 X-6.7164 Y-16.6178
G01 X-6.9107 Y-16.6200
G01 X-7.1019 Y-16.6539
G01 X-7.2233 Y-16.6967
G01 X-7.1798 Y-16.7403
G01 X-7.1330 Y-16.7236
G00 X-7.1330 Y-16.7236
G01 F60.00
G01 Z-0.0750
G01 F120.00
G01 X-7.0089 Y-16.6929
G01 X-6.8000 Y-16.6732
G01 X-6.5911 Y-16.6929
G01 X-6.4202 Y-16.7403
G01 X-6.3758 Y-16.6959
G01 X-6.5262 Y-16.6469
G01 X-6.7164 Y-16.6178
G01 X-6.9107 Y-16.6200
G01 X-7.1019 Y-16.6539
G01 X-7.2233 Y-16.6967
G01 X-7.1798 Y-16.7403
G01 X-7.1330 Y-16.7236
G00 X-7.1330 Y-16.7236
G01 F60.00
G01 Z-0.1000
G01 F120.00
G01 X-7.0089 Y-16.6929
G01 X-6.8000 Y-16.6732
G01 X-6.5911 Y-16.6929
G01 X-6.4202 Y-16.7403
G01 X-6.3758 Y-16.6959
G01 X-6.5262 Y-16.6469
G01 X-6.7164 Y-16.6178
G01 X-6.9107 Y-16.6200
G01 X-7.1019 Y-16.6539
G01 X-7.2233 Y-16.6967
G01 X-7.1798 Y-16.7403
G01 X-7.1330 Y-16.7236
G00 Z2.0000
G00 X-7.8764 Y-18.1330
G01 F60.00
G01 Z-0.0250
G01 F120.00
G01 X-7.9071 Y-18.0089
G01 X-7.9268 Y-17.8000
G01 X-7.9071 Y-17.5911
G01 X-7.8597 Y-17.4203
G01 X-7.9038 Y-17.3762
G01 X-7.9222 Y-17.4189
G01 X-7.9691 Y-17.6056
G01 X-7.9847 Y-17.8508
G01 X-7.9586 Y-18.0496
G01 X-7.9053 Y-18.2254
G01 X-7.8597 Y-18.1798
G01 X-7.8764 Y-18.1330
G00 X-7.8764 Y-18.1330
G01 F60.00
G01 Z-0.0500
G01 F120.00
G01 X-7.9071 Y-18.0089
G01 X-7.9268 Y-17.8000
G01 X-7.9071 Y-17.5911
G01 X-7.8597 Y-17.4203
G01 X-7.9038 Y-17.3762
G01 X-7.9222 Y-17.4189
G01 X-7.9691 Y-17.6056
G01 X-7.9847 Y-17.8508
G01 X-7.9586 Y-18.0496
G01 X-7.9053 Y-18.2254
G01 X-7.8597 Y-18.1798
G01 X-7.8764 Y-18.1330
G00 X-7.8764 Y-18.1330
G01 F60.00
G01 Z-0.0750
G01 F120.00
G01 X-7.9071 Y-18.0089
G01 X-7.9268 Y-17.8000
G01 X-7.9071 Y-17.5911
G01 X-7.8597 Y-17.4203
G01 X-7.9038 Y-17.3762
G01 X-7.9222 Y-17.4189
G01 X-7.9691 Y-17.6056
G01 X-7.9847 Y-17.8508
G01 X-7.9586 Y-18.0496
G01 X-7.9053 Y-18.2254
G01 X-7.8597 Y-18.1798
G01 X-7.8764 Y-18.1330
G00 X-7.8764 Y-18.1330
G01 F60.00
G01 Z-0.1000
G01 F120.00
G01 X-7.9071 Y-18.0089
G01 X-7.9268 Y-17.8000
G01 X-7.9071 Y-17.5911
G01 X-7.8597 Y-17.4203
G01 X-7.9038 Y-17.3762
G01 X-7.9222 Y-17.4189
G01 X-7.9691 Y-17.6056
G01 X-7.9847 Y-17.8508
G01 X-7.9586 Y-18.0496
G01 X-7.9053 Y-18.2254
G01 X-7.8597 Y-18.1798
G01 X-7.8764 Y-18.1330
G00 Z2.0000
G00 X-6.8546 Y-18.9839
G01 F60.00
G01 Z-0.0250
G01 F120.00
G01 X-6.6588 Y-18.9767
G01 X-6.4702 Y-18.9384
G01 X-6.3770 Y-18.9029
G01 X-6.4202 Y-18.8597
G01 X-6.5752 Y-18.9041
G01 X-6.6785 Y-18.9200
G01 X-6.8000 Y-18.9268
G01 X-6.8993 Y-18.9222
G01 X-7.0248 Y-18.9041
G01 X-7.1798 Y-18.8597
G01 X-7.2256 Y-18.9056
G01 X-7.0456 Y-18.9595
G01 X-6.8546 Y-18.9839
G00 X-6.8546 Y-18.9839
G01 F60.00
G01 Z-0.0500
G01 F120.00
G01 X-6.6588 Y-18.9767
G01 X-6.4702 Y-18.9384
G01 X-6.3770 Y-18.9029
G01 X-6.4202 Y-18.8597
G01 X-6.5752 Y-18.9041
G01 X-6.6785 Y-18.9200
G01 X-6.8000 Y-18.9268
G01 X-6.8993 Y-18.9222
G01 X-7.0248 Y-18.9041
G01 X-7.1798 Y-18.8597
G01 X-7.2256 Y-18.9056
G01 X-7.0456 Y-18.9595
G01 X-6.8546 Y-18.9839
G00 X-6.8546 Y-18.9839
G01 F60.00
G01 Z-0.0750
G01 F120.00
G01 X-6.6588 Y-18.9767
G01 X-6.4702 Y-18.9384
G01 X-6.3770 Y-18.9029
G01 X-6.4202 Y-18.8597
G01 X-6.5752 Y-18.9041
G01 X-6.6785 Y-18.9200
G01 X-6.8000 Y-18.9268
G01 X-6.8993 Y-18.9222
G01 X-7.0248 Y-18.9041
G01 X-7.1798 Y-18.8597
G01 X-7.2256 Y-18.9056
G01 X-7.0456 Y-18.9595
G01 X-6.8546 Y-18.9839
G00 X-6.8546 Y-18.9839
G01 F60.00
G01 Z-0.1000
G01 F120.00
G01 X-6.6588 Y-18.9767
G01 X-6.4702 Y-18.9384
G01 X-6.3770 Y-18.9029
G01 X-6.4202 Y-18.8597
G01 X-6.5752 Y-18.9041
G01 X-6.6785 Y-18.9200
G01 X-6.8000 Y-18.9268
G01 X-6.8993 Y-18.9222
G01 X-7.0248 Y-18.9041
G01 X-7.1798 Y-18.8597
G01 X-7.2256 Y-18.9056
G01 X-7.0456 Y-18.9595
G01 X-6.8546 Y-18.9839
G00 Z2.0000
G00 X-5.6265 Y-17.9658
G01 F60.00
G01 Z-0.0250
G01 F120.00
G01 X-5.6151 Y-17.7719
G01 X-5.6356 Y-17.5788
G01 X-5.6950 Y-17.3749
G01 X-5.7403 Y-17.4202
G01 X-5.6959 Y-17.5752
G01 X-5.6778 Y-17.7007
G01 X-5.6732 Y-17.8000
G01 X-5.6800 Y-17.9215
G01 X-5.6959 Y-18.0248
G01 X-5.7403 Y-18.1798
G01 X-5.6969 Y-18.2232
G01 X-5.6688 Y-18.1536
G01 X-5.6265 Y-17.9658
G00 X-5.6265 Y-17.9658
G01 F60.00
G01 Z-0.0500
G01 F120.00
G01 X-5.6151 Y-17.7719
G01 X-5.6356 Y-17.5788
G01 X-5.6950 Y-17.3749
G01 X-5.7403 Y-17.4202
G01 X-5.6959 Y-17.5752
G01 X-5.6778 Y-17.7007
G01 X-5.6732 Y-17.8000
G01 X-5.6800 Y-17.9215
G01 X-5.6959 Y-18.0248
G01 X-5.7403 Y-18.1798
G01 X-5.6969 Y-18.2232
G01 X-5.6688 Y-18.1536
G01 X-5.6265 Y-17.9658
G00 X-5.6265 Y-17.9658
G01 F60.00
G01 Z-0.0750
G01 F120.00
G01 X-5.6151 Y-17.7719
G01 X-5.6356 Y-17.5788
G01 X-5.6950 Y-17.3749
G01 X-5.7403 Y-17.4202
G01 X-5.6959 Y-17.5752
G01 X-5.6778 Y-17.7007
G01 X-5.6732 Y-17.8000
G01 X-5.6800 Y-17.9215
G01 X-5.6959 Y-18.0248
G01 X-5.7403 Y-18.1798
G01 X-5.6969 Y-18.2232
G01 X-5.6688 Y-18.1536
G01 X-5.6265 Y-17.9658
G00 X-5.6265 Y-17.9658
G01 F60.00
G01 Z-0.1000
G01 F120.00
G01 X-5.6151 Y-17.7719
G01 X-5.6356 Y-17.5788
G01 X-5.6950 Y-17.3749
G01 X-5.7403 Y-17.4202
G01 X-5.6959 Y-17.5752
G01 X-5.6778 Y-17.7007
G01 X-5.6732 Y-17.8000
G01 X-5.6800 Y-17.9215
G01 X-5.6959 Y-18.0248
G01 X-5.7403 Y-18.1798
G01 X-5.6969 Y-18.2232
G01 X-5.6688 Y-18.1536
G01 X-5.6265 Y-17.9658
G00 Z2.0000
G00 X-14.7914 Y-19.0790
G01 F60.00
G01 Z-0.0250
G01 F120.00
G01 X-14.7124 Y-19.0497
G01 X-14.6477 Y-19.0017
G01 X-14.5991 Y-18.9376
G01 X-14.5691 Y-18.8585
G01 X-14.5663 Y-18.2808
G01 X-14.6207 Y-18.2808
G01 X-14.6219 Y-18.8237
G01 X-14.6510 Y-18.9133
G01 X-14.6958 Y-18.9686
G01 X-14.7554 Y-19.0073
G01 X-14.8238 Y-19.0256
G01 X-15.3192 Y-19.0268
G01 X-15.3192 Y-19.0812
G01 X-14.7914 Y-19.0790
G00 X-14.7914 Y-19.0790
G01 F60.00
G01 Z-0.0500
G01 F120.00
G01 X-14.7124 Y-19.0497
G01 X-14.6477 Y-19.0017
G01 X-14.5991 Y-18.9376
G01 X-14.5691 Y-18.8585
G01 X-14.5663 Y-18.2808
G01 X-14.6207 Y-18.2808
G01 X-14.6219 Y-18.8237
G01 X-14.6510 Y-18.9133
G01 X-14.6958 Y-18.9686
G01 X-14.7554 Y-19.0073
G01 X-14.8238 Y-19.0256
G01 X-15.3192 Y-19.0268
G01 X-15.3192 Y-19.0812
G01 X-14.7914 Y-19.0790
G00 X-14.7914 Y-19.0790
G01 F60.00
G01 Z-0.0750
G01 F120.00
G01 X-14.7124 Y-19.0497
G01 X-14.6477 Y-19.0017
G01 X-14.5991 Y-18.9376
G01 X-14.5691 Y-18.8585
G01 X-14.5663 Y-18.2808
G01 X-14.6207 Y-18.2808
G01 X-14.6219 Y-18.8237
G01 X-14.6510 Y-18.9133
G01 X-14.6958 Y-18.9686
G01 X-14.7554 Y-19.0073
G01 X-14.8238 Y-19.0256
G01 X-15.3192 Y-19.0268
G01 X-15.3192 Y-19.0812
G01 X-14.7914 Y-19.0790
G00 X-14.7914 Y-19.0790
G01 F60.00
G01 Z-0.1000
G01 F120.00
G01 X-14.7124 Y-19.0497
G01 X-14.6477 Y-19.0017
G01 X-14.5991 Y-18.9376
G01 X-14.5691 Y-18.8585
G01 X-14.5663 Y-18.2808
G01 X-14.6207 Y-18.2808
G01 X-14.6219 Y-18.8237
G01 X-14.6510 Y-18.9133
G01 X-14.6958 Y-18.9686
G01 X-14.7554 Y-19.0073
G01 X-14.8238 Y-19.0256
G01 X-15.3192 Y-19.0268
G01 X-15.3192 Y-19.0812
G01 X-14.7914 Y-19.0790
G00 Z2.0000
G00 X-19.4715 Y-18.1791
G01 F60.00
G01 Z-0.0250
G01 F120.00
G01 X-19.4985 Y-18.0666
G01 X-19.5190 Y-17.8586
G01 X-19.5144 Y-17.6480
G01 X-19.4966 Y-17.5222
G01 X-19.4650 Y-17.3996
G01 X-19.3851 Y-17.2065
G01 X-19.3243 Y-17.1031
G01 X-19.2470 Y-16.9989
G01 X-19.1739 Y-16.9186
G01 X-19.0936 Y-16.8455
G01 X-18.9616 Y-16.7515
G01 X-18.9081 Y-16.6741
G01 X-18.8541 Y-16.6134
G01 X-14.5266 Y-12.2859
G01 X-14.4106 Y-12.1917
G01 X-14.2961 Y-12.1306
G01 X-14.1593 Y-12.0880
G01 X-14.0125 Y-12.0729
G01 X-7.6603 Y-12.0729
G01 X-7.5233 Y-11.9362
G01 X-7.4351 Y-11.8695
G01 X-7.3344 Y-11.8080
G01 X-7.2365 Y-11.7613
G01 X-7.1330 Y-11.7236
G01 X-7.0089 Y-11.6929
G01 X-6.8111 Y-11.6735
G01 X-6.6892 Y-11.6787
G01 X-6.5752 Y-11.6959
G01 X-6.4670 Y-11.7236
G01 X-6.3635 Y-11.7613
G01 X-6.2656 Y-11.8080
G01 X-6.1798 Y-11.8594
G01 X-6.0797 Y-11.9336
G01 X-5.9336 Y-12.0797
G01 X-5.8594 Y-12.1798
G01 X-5.8080 Y-12.2656
G01 X-5.7613 Y-12.3635
G01 X-5.7236 Y-12.4670
G01 X-5.6959 Y-12.5752
G01 X-5.6787 Y-12.6892
G01 X-5.6732 Y-12.8000
G01 X-5.6778 Y-12.8993
G01 X-5.6959 Y-13.0248
G01 X-5.7188 Y-13.1164
G01 X-5.7635 Y-13.2414
G01 X-5.8594 Y-13.4202
G01 X-5.9336 Y-13.5203
G01 X-6.0032 Y-13.5968
G01 X-6.1649 Y-13.7305
G01 X-6.2788 Y-13.7988
G01 X-6.4670 Y-13.8764
G01 X-6.5752 Y-13.9041
G01 X-6.6892 Y-13.9213
G01 X-6.8111 Y-13.9265
G01 X-7.0089 Y-13.9071
G01 X-7.1330 Y-13.8764
G01 X-7.2365 Y-13.8387
G01 X-7.3344 Y-13.7920
G01 X-7.4351 Y-13.7305
G01 X-7.5233 Y-13.6638
G01 X-7.6603 Y-13.5271
G01 X-13.7113 Y-13.5271
G01 X-16.7578 Y-16.5735
G01 X-14.8475 Y-16.5732
G01 X-14.7775 Y-16.5843
G01 X-14.7142 Y-16.6165
G01 X-14.6789 Y-16.6483
G01 X-14.6510 Y-16.6867
G01 X-14.6256 Y-16.7529
G01 X-14.6207 Y-17.3192
G01 X-14.5663 Y-17.3192
G01 X-14.5663 Y-16.7648
G01 X-14.5978 Y-16.6649
G01 X-14.6458 Y-16.6002
G01 X-14.7124 Y-16.5503
G01 X-14.7914 Y-16.5210
G01 X-15.3586 Y-16.5185
G01 X-15.4979 Y-16.4929
G01 X-15.5590 Y-16.4675
G01 X-15.6913 Y-16.3712
G01 X-15.7876 Y-16.2225
G01 X-15.8225 Y-16.0546
G01 X-15.7970 Y-15.8922
G01 X-15.7715 Y-15.8310
G01 X-15.6835 Y-15.7066
G01 X-13.7900 Y-13.8131
G01 X-13.6655 Y-13.7250
G01 X-13.6038 Y-13.6994
G01 X-13.4535 Y-13.6737
G01 X-7.9114 Y-13.6739
G01 X-7.8000 Y-13.6899
G01 X-7.7438 Y-13.7091
G01 X-7.6498 Y-13.7589
G01 X-7.4544 Y-13.8978
G01 X-7.2663 Y-13.9900
G01 X-7.0657 Y-14.0501
G01 X-6.9849 Y-14.0605
G01 X-6.8580 Y-14.0768
G01 X-6.6487 Y-14.0691
G01 X-6.4434 Y-14.0273
G01 X-6.2478 Y-13.9526
G01 X-6.0669 Y-13.8469
G01 X-5.9058 Y-13.7132
G01 X-5.7686 Y-13.5548
G01 X-5.6592 Y-13.3763
G01 X-5.5804 Y-13.1822
G01 X-5.5344 Y-12.9779
G01 X-5.5223 Y-12.7688
G01 X-5.5446 Y-12.5605
G01 X-5.6005 Y-12.3587
G01 X-5.6887 Y-12.1687
G01 X-5.8067 Y-11.9957
G01 X-5.9515 Y-11.8443
G01 X-6.1189 Y-11.7185
G01 X-6.3047 Y-11.6218
G01 X-6.5038 Y-11.5567
G01 X-6.7108 Y-11.5250
G01 X-6.9203 Y-11.5276
G01 X-7.1265 Y-11.5643
G01 X-7.3239 Y-11.6342
G01 X-7.5073 Y-11.7355
G01 X-7.6318 Y-11.8331
G01 X-7.7267 Y-11.8878
G01 X-7.9026 Y-11.9260
G01 X-14.0339 Y-11.9226
G01 X-14.0971 Y-11.9263
G01 X-14.2618 Y-11.9585
G01 X-14.3583 Y-11.9933
G01 X-14.5046 Y-12.0732
G01 X-14.5565 Y-12.1112
G01 X-14.6787 Y-12.2282
G01 X-18.9756 Y-16.5222
G01 X-19.0940 Y-16.6548
G01 X-19.2473 Y-16.7799
G01 X-19.3635 Y-16.8436
G01 X-19.5305 Y-16.8742
G01 X-19.7016 Y-16.8422
G01 X-19.8419 Y-16.7564
G01 X-19.8951 Y-16.7004
G01 X-19.9711 Y-16.5779
G01 X-20.0060 Y-16.4099
G01 X-20.0063 Y-7.6595
G01 X-19.9918 Y-7.5439
G01 X-19.9385 Y-7.3532
G01 X-19.9263 Y-7.2206
G01 X-19.9263 Y-6.5669
G01 X-19.9435 Y-6.4217
G01 X-19.9965 Y-6.2508
G01 X-20.0799 Y-6.0924
G01 X-20.1907 Y-5.9519
G01 X-20.3252 Y-5.8339
G01 X-20.4790 Y-5.7424
G01 X-20.6469 Y-5.6804
G01 X-20.8233 Y-5.6501
G01 X-21.0022 Y-5.6525
G01 X-21.1777 Y-5.6874
G01 X-21.3440 Y-5.7537
G01 X-21.5737 Y-5.8991
G01 X-21.7051 Y-5.9423
G01 X-21.7628 Y-5.9498
G01 X-21.8904 Y-5.9392
G01 X-21.9533 Y-5.9210
G01 X-22.0788 Y-5.8531
G01 X-22.2120 Y-5.7465
G01 X-22.3334 Y-5.6862
G01 X-22.4693 Y-5.6523
G01 X-23.3158 Y-5.6513
G01 X-23.4666 Y-5.6862
G01 X-23.5880 Y-5.7465
G01 X-23.6936 Y-5.8314
G01 X-23.7785 Y-5.9370
G01 X-23.8388 Y-6.0584
G01 X-23.8737 Y-6.2092
G01 X-23.8737 Y-7.5908
G01 X-23.8388 Y-7.7416
G01 X-23.7999 Y-7.8322
G01 X-23.7737 Y-7.9844
G01 X-23.7737 Y-13.8410
G01 X-23.7970 Y-13.9806
G01 X-23.8148 Y-14.0340
G01 X-23.9131 Y-14.1775
G01 X-25.5558 Y-15.8197
G01 X-25.6578 Y-15.8922
G01 X-25.7660 Y-15.9345
G01 X-25.9009 Y-15.9613
G01 X-26.0828 Y-16.0258
G01 X-26.2517 Y-16.1190
G01 X-26.4032 Y-16.2387
G01 X-26.5331 Y-16.3814
G01 X-26.6379 Y-16.5435
G01 X-26.7149 Y-16.7205
G01 X-26.7619 Y-16.9076
G01 X-26.7783 Y-17.1065
G01 X-26.7511 Y-17.3489
G01 X-26.6950 Y-17.5336
G01 X-26.6130 Y-17.6995
G01 X-26.4969 Y-17.8633
G01 X-26.3602 Y-17.9995
G01 X-26.0573 Y-18.2093
G01 X-25.9542 Y-18.3574
G01 X-25.9162 Y-18.5131
G01 X-25.9154 Y-18.5828
G01 X-25.9483 Y-18.7299
G01 X-26.0308 Y-18.8618
G01 X-33.3556 Y-26.1847
G01 X-33.4586 Y-26.3158
G01 X-33.5349 Y-26.4641
G01 X-33.5566 Y-26.5246
G01 X-33.5917 Y-26.6876
G01 X-33.5968 Y-28.2678
G01 X-33.6289 Y-28.4100
G01 X-33.7049 Y-28.5326
G01 X-33.7581 Y-28.5886
G01 X-33.8728 Y-28.6634
G01 X-33.9192 Y-28.6806
G01 X-34.0579 Y-28.7060
G01 X-34.5023 Y-28.7015
G01 X-34.5530 Y-28.6892
G01 X-34.6859 Y-28.6351
G01 X-34.8184 Y-28.5129
G01 X-34.8977 Y-28.3436
G01 X-34.9071 Y-28.1682
G01 X-34.8978 Y-28.1234
G01 X-34.8551 Y-28.0083
G01 X-34.7488 Y-27.8310
G01 X-34.6762 Y-27.6522
G01 X-34.6337 Y-27.4639
G01 X-34.6226 Y-27.2712
G01 X-34.6324 Y-27.1793
G01 X-34.6431 Y-27.0793
G01 X-34.6947 Y-26.8933
G01 X-34.7760 Y-26.7183
G01 X-34.8847 Y-26.5588
G01 X-35.0181 Y-26.4193
G01 X-35.1724 Y-26.3034
G01 X-35.3436 Y-26.2143
G01 X-35.5271 Y-26.1543
G01 X-35.7178 Y-26.1251
G01 X-35.9108 Y-26.1275
G01 X-36.1008 Y-26.1613
G01 X-36.2828 Y-26.2258
G01 X-36.5761 Y-26.3922
G01 X-36.7528 Y-26.4263
G01 X-51.4450 Y-26.4263
G01 X-51.6168 Y-26.3941
G01 X-51.7469 Y-26.3152
G01 X-51.8000 Y-26.2659
G01 X-51.9335 Y-26.0810
G01 X-52.0115 Y-26.0211
G01 X-52.1024 Y-25.9834
G01 X-52.1755 Y-25.9738
G01 X-54.2245 Y-25.9738
G01 X-54.2976 Y-25.9834
G01 X-54.3885 Y-26.0211
G01 X-54.4665 Y-26.0810
G01 X-54.5264 Y-26.1590
G01 X-54.5641 Y-26.2499
G01 X-54.5737 Y-26.3230
G01 X-54.5737 Y-28.2770
G01 X-54.5431 Y-28.4905
G01 X-54.5688 Y-28.6408
G01 X-54.6002 Y-28.7118
G01 X-54.6608 Y-28.8019
G01 X-54.7074 Y-28.8486
G01 X-54.8393 Y-28.9311
G01 X-54.9746 Y-28.9619
G01 X-58.9100 Y-28.9652
G01 X-59.0433 Y-28.9385
G01 X-59.1067 Y-28.9113
G01 X-59.2047 Y-28.8433
G01 X-59.4003 Y-28.6675
G01 X-59.5835 Y-28.5474
G01 X-59.7825 Y-28.4557
G01 X-59.9927 Y-28.3945
G01 X-60.2098 Y-28.3649
G01 X-60.4288 Y-28.3678
G01 X-60.6450 Y-28.4030
G01 X-60.8536 Y-28.4698
G01 X-61.0501 Y-28.5666
G01 X-61.2300 Y-28.6915
G01 X-61.3915 Y-28.8432
G01 X-61.5027 Y-28.9173
G01 X-61.5605 Y-28.9406
G01 X-61.6992 Y-28.9660
G01 X-67.0416 Y-28.9662
G01 X-67.1624 Y-28.9476
G01 X-67.2203 Y-28.9266
G01 X-67.3286 Y-28.8623
G01 X-67.5189 Y-28.7185
G01 X-67.7047 Y-28.6218
G01 X-67.9038 Y-28.5567
G01 X-68.1108 Y-28.5250
G01 X-68.3203 Y-28.5276
G01 X-68.5265 Y-28.5643
G01 X-68.7239 Y-28.6342
G01 X-68.8914 Y-28.7267
G01 X-69.0716 Y-28.8653
G01 X-69.2126 Y-29.0202
G01 X-69.3264 Y-29.1960
G01 X-69.4099 Y-29.3881
G01 X-69.4609 Y-29.5913
G01 X-69.4786 Y-29.8065
G01 X-69.4492 Y-30.0701
G01 X-69.3883 Y-30.2705
G01 X-69.2955 Y-30.4583
G01 X-69.1733 Y-30.6283
G01 X-69.0249 Y-30.7762
G01 X-68.8544 Y-30.8978
G01 X-68.6663 Y-30.9900
G01 X-68.4657 Y-31.0501
G01 X-68.2580 Y-31.0768
G01 X-68.0487 Y-31.0691
G01 X-67.8434 Y-31.0273
G01 X-67.6478 Y-30.9526
G01 X-67.3221 Y-30.7522
G01 X-67.1462 Y-30.7140
G01 X-61.6859 Y-30.7144
G01 X-61.5408 Y-30.7471
G01 X-61.4793 Y-30.7739
G01 X-61.3765 Y-30.8517
G01 X-61.1687 Y-31.0356
G01 X-60.9824 Y-31.1509
G01 X-60.7811 Y-31.2373
G01 X-60.5693 Y-31.2931
G01 X-60.3516 Y-31.3169
G01 X-60.1327 Y-31.3083
G01 X-59.9175 Y-31.2675
G01 X-59.7107 Y-31.1953
G01 X-59.5169 Y-31.0933
G01 X-59.3402 Y-30.9638
G01 X-59.2027 Y-30.8307
G01 X-59.1034 Y-30.7646
G01 X-59.0429 Y-30.7396
G01 X-58.9171 Y-30.7151
G01 X-54.4653 Y-30.7140
G01 X-54.2945 Y-30.7499
G01 X-54.2455 Y-30.7760
G01 X-54.1405 Y-30.8525
G01 X-54.1048 Y-30.8958
G01 X-54.0368 Y-31.0073
G01 X-54.0217 Y-31.0550
G01 X-54.0006 Y-31.1882
G01 X-54.0059 Y-31.2444
G01 X-54.0460 Y-31.3923
G01 X-54.1255 Y-31.5092
G01 X-54.1738 Y-31.5588
G01 X-54.2945 Y-31.7196
G01 X-54.3881 Y-31.8992
G01 X-54.3234 Y-31.8992
G01 X-54.2318 Y-31.7306
G01 X-54.1545 Y-31.6264
G01 X-54.0891 Y-31.5542
G01 X-53.9869 Y-31.4615
G01 X-53.8131 Y-31.3454
G01 X-53.6884 Y-31.2865
G01 X-53.5892 Y-31.2513
G01 X-53.4778 Y-31.2234
G01 X-53.3520 Y-31.2056
G01 X-53.1525 Y-31.2007
G01 X-53.0259 Y-31.2077
G01 X-52.9222 Y-31.2234
G01 X-52.8108 Y-31.2513
G01 X-52.6910 Y-31.2950
G01 X-52.5031 Y-31.3957
G01 X-52.3959 Y-31.4757
G01 X-52.2455 Y-31.6264
G01 X-52.1682 Y-31.7306
G01 X-52.0766 Y-31.8992
G01 X-52.0139 Y-31.8992
G01 X-52.1219 Y-31.6942
G01 X-52.2466 Y-31.5364
G01 X-52.2997 Y-31.4820
G01 X-52.3710 Y-31.3653
G01 X-52.3934 Y-31.3025
G01 X-52.4105 Y-31.1393
G01 X-52.3776 Y-31.0013
G01 X-52.3533 Y-30.9480
G01 X-52.2829 Y-30.8511
G01 X-52.1156 Y-30.6737
G01 X-51.9956 Y-30.4972
G01 X-51.9054 Y-30.3038
G01 X-51.8473 Y-30.0984
G01 X-51.8228 Y-29.8864
G01 X-51.8325 Y-29.6732
G01 X-51.8761 Y-29.4643
G01 X-51.9526 Y-29.2651
G01 X-52.0434 Y-29.1081
G01 X-52.0843 Y-29.0062
G01 X-52.0987 Y-28.8518
G01 X-52.0899 Y-28.7871
G01 X-52.0318 Y-28.6355
G01 X-51.9348 Y-28.5208
G01 X-51.7932 Y-28.3258
G01 X-51.7564 Y-28.2914
G01 X-51.6569 Y-28.2250
G01 X-51.5845 Y-28.1970
G01 X-51.4450 Y-28.1737
G01 X-36.8485 Y-28.1740
G01 X-36.6671 Y-28.2143
G01 X-36.5240 Y-28.3124
G01 X-36.4909 Y-28.3515
G01 X-36.4202 Y-28.4671
G01 X-36.4041 Y-28.5199
G01 X-36.3838 Y-28.6549
G01 X-36.3892 Y-28.7040
G01 X-36.4244 Y-28.8419
G01 X-36.5224 Y-28.9850
G01 X-38.6356 Y-31.0947
G01 X-38.7386 Y-31.2258
G01 X-38.8149 Y-31.3741
G01 X-38.8366 Y-31.4346
G01 X-38.8717 Y-31.5976
G01 X-38.8754 Y-31.7669
G01 X-38.8737 Y-37.5410
G01 X-38.8970 Y-37.6806
G01 X-38.9250 Y-37.7530
G01 X-39.0048 Y-37.8687
G01 X-40.1313 Y-38.9952
G01 X-40.2660 Y-39.0852
G01 X-40.4217 Y-39.1232
G01 X-58.3842 Y-39.1263
G01 X-58.4607 Y-39.1199
G01 X-58.6129 Y-39.0676
G01 X-58.7313 Y-38.9726
G01 X-58.7683 Y-38.9310
G01 X-58.8178 Y-38.8447
G01 X-58.8736 Y-38.7115
G01 X-58.9335 Y-38.6335
G01 X-59.0115 Y-38.5736
G01 X-59.1024 Y-38.5359
G01 X-59.1755 Y-38.5263
G01 X-60.3661 Y-38.5249
G01 X-60.5205 Y-38.4911
G01 X-60.6524 Y-38.4086
G01 X-64.8947 Y-34.1644
G01 X-64.9420 Y-34.1224
G01 X-65.0812 Y-34.0287
G01 X-65.2346 Y-33.9634
G01 X-65.3976 Y-33.9283
G01 X-67.0834 Y-33.9263
G01 X-67.1855 Y-33.9149
G01 X-67.2339 Y-33.9005
G01 X-67.3431 Y-33.8479
G01 X-67.5189 Y-33.7185
G01 X-67.7047 Y-33.6218
G01 X-67.9038 Y-33.5567
G01 X-68.1108 Y-33.5250
G01 X-68.3203 Y-33.5276
G01 X-68.5265 Y-33.5643
G01 X-68.7239 Y-33.6342
G01 X-68.9024 Y-33.7328
G01 X-69.0716 Y-33.8653
G01 X-69.2126 Y-34.0202
G01 X-69.3264 Y-34.1960
G01 X-69.4099 Y-34.3881
G01 X-69.4609 Y-34.5913
G01 X-69.4786 Y-34.8065
G01 X-69.4492 Y-35.0701
G01 X-69.3883 Y-35.2705
G01 X-69.2955 Y-35.4583
G01 X-69.1733 Y-35.6283
G01 X-69.0249 Y-35.7762
G01 X-68.8544 Y-35.8978
G01 X-68.6663 Y-35.9900
G01 X-68.4657 Y-36.0501
G01 X-68.2580 Y-36.0768
G01 X-68.0487 Y-36.0691
G01 X-67.8434 Y-36.0273
G01 X-67.6478 Y-35.9526
G01 X-67.4669 Y-35.8469
G01 X-67.3718 Y-35.7695
G01 X-67.2739 Y-35.7122
G01 X-67.1189 Y-35.6760
G01 X-66.0474 Y-35.6740
G01 X-65.9081 Y-35.6996
G01 X-65.8470 Y-35.7250
G01 X-65.7225 Y-35.8131
G01 X-61.9131 Y-39.6225
G01 X-61.8089 Y-39.7795
G01 X-61.7740 Y-39.9474
G01 X-61.7737 Y-41.1245
G01 X-61.7641 Y-41.1976
G01 X-61.7264 Y-41.2885
G01 X-61.6665 Y-41.3665
G01 X-61.5885 Y-41.4264
G01 X-61.4361 Y-41.4921
G01 X-61.3381 Y-41.5577
G01 X-61.3012 Y-41.5921
G01 X-61.2089 Y-41.7363
G01 X-61.1740 Y-41.9042
G01 X-61.1737 Y-54.3842
G01 X-61.1879 Y-54.4897
G01 X-61.2266 Y-54.6009
G01 X-61.2570 Y-54.6507
G01 X-61.3690 Y-54.7683
G01 X-61.4591 Y-54.8196
G01 X-61.5885 Y-54.8736
G01 X-61.6665 Y-54.9335
G01 X-61.7264 Y-55.0115
G01 X-61.7641 Y-55.1024
G01 X-61.7737 Y-55.1755
G01 X-61.7740 Y-56.3526
G01 X-61.7996 Y-56.4919
G01 X-61.8250 Y-56.5530
G01 X-61.9131 Y-56.6775
G01 X-62.9225 Y-57.6869
G01 X-63.0377 Y-57.7691
G01 X-63.1081 Y-57.8004
G01 X-63.2590 Y-57.8263
G01 X-67.0979 Y-57.8258
G01 X-67.1898 Y-57.8141
G01 X-67.2435 Y-57.7961
G01 X-67.3603 Y-57.7373
G01 X-67.5189 Y-57.6185
G01 X-67.7047 Y-57.5218
G01 X-67.9038 Y-57.4567
G01 X-68.1108 Y-57.4250
G01 X-68.3203 Y-57.4276
G01 X-68.5265 Y-57.4643
G01 X-68.7239 Y-57.5342
G01 X-68.9073 Y-57.6355
G01 X-69.0716 Y-57.7653
G01 X-69.2126 Y-57.9202
G01 X-69.3264 Y-58.0960
G01 X-69.4099 Y-58.2881
G01 X-69.4609 Y-58.4913
G01 X-69.4786 Y-58.7065
G01 X-69.4492 Y-58.9701
G01 X-69.3883 Y-59.1705
G01 X-69.2955 Y-59.3583
G01 X-69.1733 Y-59.5283
G01 X-69.0249 Y-59.6762
G01 X-68.8544 Y-59.7978
G01 X-68.6663 Y-59.8900
G01 X-68.4657 Y-59.9501
G01 X-68.2580 Y-59.9768
G01 X-68.0487 Y-59.9691
G01 X-67.8434 Y-59.9273
G01 X-67.6478 Y-59.8526
G01 X-67.4669 Y-59.7469
G01 X-67.3718 Y-59.6695
G01 X-67.2739 Y-59.6122
G01 X-67.0980 Y-59.5740
G01 X-62.6786 Y-59.5774
G01 X-62.5130 Y-59.5575
G01 X-62.3542 Y-59.5067
G01 X-62.2961 Y-59.4792
G01 X-62.1560 Y-59.3888
G01 X-60.6775 Y-57.9131
G01 X-60.5377 Y-57.8166
G01 X-60.4913 Y-57.7994
G01 X-60.3526 Y-57.7740
G01 X-59.1755 Y-57.7737
G01 X-59.1024 Y-57.7641
G01 X-59.0115 Y-57.7264
G01 X-58.9335 Y-57.6665
G01 X-58.8736 Y-57.5885
G01 X-58.8359 Y-57.4976
G01 X-58.8263 Y-57.4245
G01 X-58.8263 Y-55.1755
G01 X-58.8359 Y-55.1024
G01 X-58.8736 Y-55.0115
G01 X-58.9335 Y-54.9335
G01 X-59.0115 Y-54.8736
G01 X-59.1639 Y-54.8079
G01 X-59.2619 Y-54.7423
G01 X-59.2988 Y-54.7079
G01 X-59.3911 Y-54.5637
G01 X-59.4260 Y-54.3958
G01 X-59.4262 Y-41.9090
G01 X-59.4121 Y-41.8103
G01 X-59.3734 Y-41.6991
G01 X-59.3430 Y-41.6493
G01 X-59.2310 Y-41.5317
G01 X-59.1409 Y-41.4804
G01 X-59.0115 Y-41.4264
G01 X-58.9335 Y-41.3665
G01 X-58.8736 Y-41.2885
G01 X-58.8182 Y-41.1549
G01 X-58.7423 Y-41.0381
G01 X-58.6956 Y-40.9914
G01 X-58.6055 Y-40.9309
G01 X-58.5351 Y-40.8996
G01 X-58.3842 Y-40.8737
G01 X-39.8154 Y-40.8737
G01 X-39.7130 Y-40.8575
G01 X-39.5542 Y-40.8067
G01 X-39.4079 Y-40.7268
G01 X-39.3560 Y-40.6888
G01 X-37.3644 Y-38.7053
G01 X-37.1755 Y-38.4682
G01 X-37.0642 Y-38.3937
G01 X-37.0140 Y-38.3698
G01 X-36.8860 Y-38.3447
G01 X-36.8305 Y-38.3419
G01 X-36.6596 Y-38.3818
G01 X-36.5165 Y-38.4799
G01 X-35.5103 Y-39.4853
G01 X-35.4366 Y-39.5806
G01 X-35.3818 Y-39.7268
G01 X-35.3711 Y-39.7889
G01 X-35.3150 Y-39.9736
G01 X-35.2295 Y-40.1466
G01 X-35.1413 Y-40.2832
G01 X-35.1171 Y-40.3490
G01 X-35.0940 Y-40.4772
G01 X-35.0937 Y-41.1291
G01 X-35.1046 Y-41.2290
G01 X-35.1496 Y-41.3480
G01 X-35.2579 Y-41.5235
G01 X-35.3349 Y-41.7005
G01 X-35.4092 Y-41.9809
G01 X-35.4852 Y-42.1034
G01 X-36.5776 Y-43.2020
G01 X-36.6713 Y-43.3412
G01 X-36.7149 Y-43.4341
G01 X-36.7618 Y-43.5940
G01 X-36.7717 Y-43.6576
G01 X-36.7754 Y-43.8269
G01 X-36.7737 Y-48.8505
G01 X-36.8089 Y-49.0300
G01 X-36.8914 Y-49.1619
G01 X-36.9381 Y-49.2086
G01 X-37.0565 Y-49.2852
G01 X-37.0992 Y-49.3006
G01 X-37.2379 Y-49.3260
G01 X-42.7576 Y-49.3262
G01 X-42.8462 Y-49.3153
G01 X-42.9796 Y-49.2676
G01 X-43.0249 Y-49.2367
G01 X-43.1335 Y-49.1335
G01 X-43.2115 Y-49.0736
G01 X-43.3024 Y-49.0359
G01 X-43.3755 Y-49.0263
G01 X-45.0245 Y-49.0263
G01 X-45.0976 Y-49.0359
G01 X-45.1885 Y-49.0736
G01 X-45.2665 Y-49.1335
G01 X-45.3264 Y-49.2115
G01 X-45.3641 Y-49.3024
G01 X-45.3737 Y-49.3755
G01 X-45.3737 Y-51.0245
G01 X-45.3641 Y-51.0976
G01 X-45.3264 Y-51.1885
G01 X-45.2665 Y-51.2665
G01 X-45.1885 Y-51.3264
G01 X-45.0976 Y-51.3641
G01 X-45.0245 Y-51.3737
G01 X-43.3755 Y-51.3737
G01 X-43.3024 Y-51.3641
G01 X-43.2115 Y-51.3264
G01 X-43.1335 Y-51.2665
G01 X-43.0745 Y-51.2012
G01 X-42.9476 Y-51.1166
G01 X-42.9012 Y-51.0994
G01 X-42.7624 Y-51.0740
G01 X-36.6087 Y-51.0737
G01 X-36.5154 Y-51.0832
G01 X-36.4685 Y-51.0963
G01 X-36.3599 Y-51.1453
G01 X-36.2631 Y-51.2116
G01 X-36.0897 Y-51.2965
G01 X-35.9049 Y-51.3520
G01 X-35.7134 Y-51.3765
G01 X-35.5206 Y-51.3694
G01 X-35.3314 Y-51.3310
G01 X-35.1511 Y-51.2621
G01 X-34.9845 Y-51.1647
G01 X-34.8360 Y-51.0415
G01 X-34.7039 Y-50.8892
G01 X-34.6516 Y-50.8419
G01 X-34.5290 Y-50.7659
G01 X-34.3611 Y-50.7310
G01 X-34.3122 Y-50.7338
G01 X-34.1784 Y-50.7628
G01 X-34.0474 Y-50.8419
G01 X-33.9914 Y-50.8951
G01 X-33.9250 Y-50.9946
G01 X-33.9043 Y-51.0395
G01 X-33.8737 Y-51.2065
G01 X-33.8739 Y-54.7588
G01 X-33.8800 Y-54.8255
G01 X-33.8938 Y-54.8777
G01 X-33.9439 Y-54.9976
G01 X-34.0379 Y-55.1435
G01 X-34.1149 Y-55.3205
G01 X-34.1619 Y-55.5076
G01 X-34.1783 Y-55.7065
G01 X-34.1511 Y-55.9489
G01 X-34.0950 Y-56.1336
G01 X-34.0095 Y-56.3066
G01 X-33.9163 Y-56.4363
G01 X-33.7602 Y-56.5995
G01 X-33.6031 Y-56.7116
G01 X-33.4297 Y-56.7965
G01 X-33.2449 Y-56.8520
G01 X-33.0534 Y-56.8765
G01 X-32.8398 Y-56.8703
G01 X-32.6793 Y-56.9010
G01 X-32.6282 Y-56.9265
G01 X-32.5131 Y-57.0087
G01 X-32.4089 Y-57.1656
G01 X-32.3737 Y-57.3452
G01 X-32.3737 Y-59.9505
G01 X-32.3996 Y-60.1013
G01 X-32.4250 Y-60.1625
G01 X-32.4849 Y-60.2526
G01 X-32.5381 Y-60.3086
G01 X-32.6700 Y-60.3911
G01 X-32.8171 Y-60.4240
G01 X-33.2700 Y-60.4263
G01 X-33.3764 Y-60.4141
G01 X-33.5209 Y-60.3525
G01 X-33.5924 Y-60.3034
G01 X-33.7636 Y-60.2143
G01 X-33.9471 Y-60.1543
G01 X-34.1378 Y-60.1251
G01 X-34.3308 Y-60.1275
G01 X-34.5208 Y-60.1613
G01 X-34.7028 Y-60.2258
G01 X-34.8717 Y-60.3190
G01 X-35.0232 Y-60.4387
G01 X-35.1531 Y-60.5814
G01 X-35.2579 Y-60.7435
G01 X-35.3349 Y-60.9205
G01 X-35.3819 Y-61.1076
G01 X-35.3983 Y-61.3065
G01 X-35.3711 Y-61.5489
G01 X-35.3150 Y-61.7336
G01 X-35.2295 Y-61.9066
G01 X-35.1169 Y-62.0633
G01 X-35.0048 Y-62.1784
G01 X-34.9381 Y-62.2779
G01 X-34.9123 Y-62.3397
G01 X-34.8888 Y-62.4581
G01 X-34.8879 Y-62.5155
G01 X-34.9098 Y-62.6300
G01 X-34.9377 Y-62.7025
G01 X-35.0258 Y-62.8269
G01 X-35.1693 Y-62.9252
G01 X-35.2227 Y-62.9430
G01 X-35.3623 Y-62.9663
G01 X-37.5858 Y-62.9661
G01 X-37.6678 Y-62.9571
G01 X-37.7649 Y-62.9253
G01 X-37.9836 Y-62.8143
G01 X-38.1671 Y-62.7543
G01 X-38.3578 Y-62.7251
G01 X-38.5508 Y-62.7275
G01 X-38.7408 Y-62.7613
G01 X-38.9228 Y-62.8258
G01 X-39.0942 Y-62.9210
G01 X-39.2432 Y-63.0387
G01 X-39.3731 Y-63.1814
G01 X-39.4779 Y-63.3435
G01 X-39.5549 Y-63.5205
G01 X-39.6019 Y-63.7076
G01 X-39.6183 Y-63.9065
G01 X-39.5911 Y-64.1489
G01 X-39.5350 Y-64.3336
G01 X-39.4495 Y-64.5066
G01 X-39.3956 Y-64.5823
G01 X-39.3522 Y-64.6614
G01 X-39.3140 Y-64.8372
G01 X-39.3139 Y-68.0588
G01 X-39.3246 Y-68.1490
G01 X-39.3736 Y-68.2775
G01 X-39.4779 Y-68.4435
G01 X-39.5549 Y-68.6205
G01 X-39.6019 Y-68.8076
G01 X-39.6172 Y-69.0510
G01 X-39.5911 Y-69.2489
G01 X-39.5350 Y-69.4336
G01 X-39.4495 Y-69.6066
G01 X-39.3841 Y-69.6976
G01 X-39.3369 Y-69.7633
G01 X-39.2002 Y-69.8995
G01 X-39.0431 Y-70.0116
G01 X-38.8697 Y-70.0965
G01 X-38.6849 Y-70.1520
G01 X-38.4934 Y-70.1765
G01 X-38.3006 Y-70.1694
G01 X-38.1114 Y-70.1310
G01 X-37.9311 Y-70.0621
G01 X-37.7645 Y-69.9647
G01 X-37.6160 Y-69.8415
G01 X-37.4896 Y-69.6956
G01 X-37.3888 Y-69.5310
G01 X-37.3162 Y-69.3522
G01 X-37.2737 Y-69.1639
G01 X-37.2626 Y-68.9712
G01 X-37.2831 Y-68.7793
G01 X-37.3347 Y-68.5933
G01 X-37.4160 Y-68.4183
G01 X-37.4895 Y-68.3101
G01 X-37.5311 Y-68.2306
G01 X-37.5660 Y-68.0626
G01 X-37.5660 Y-65.1779
G01 X-37.5311 Y-65.0100
G01 X-37.4486 Y-64.8781
G01 X-37.4019 Y-64.8314
G01 X-37.2835 Y-64.7548
G01 X-37.2408 Y-64.7394
G01 X-37.1021 Y-64.7140
G01 X-35.1567 Y-64.7140
G01 X-35.0754 Y-64.7232
G01 X-35.0196 Y-64.7401
G01 X-34.9199 Y-64.7853
G01 X-34.8231 Y-64.8516
G01 X-34.6497 Y-64.9365
G01 X-34.4649 Y-64.9920
G01 X-34.2734 Y-65.0165
G01 X-34.0806 Y-65.0094
G01 X-33.8914 Y-64.9710
G01 X-33.7111 Y-64.9021
G01 X-33.5445 Y-64.8047
G01 X-33.3960 Y-64.6815
G01 X-33.2696 Y-64.5356
G01 X-33.1688 Y-64.3710
G01 X-33.0962 Y-64.1922
G01 X-33.0537 Y-64.0039
G01 X-33.0426 Y-63.8112
G01 X-33.0604 Y-63.6448
G01 X-33.1147 Y-63.4333
G01 X-33.1960 Y-63.2583
G01 X-33.3047 Y-63.0988
G01 X-33.4270 Y-62.9705
G01 X-33.5020 Y-62.8590
G01 X-33.5262 Y-62.7992
G01 X-33.5504 Y-62.6745
G01 X-33.5495 Y-62.6171
G01 X-33.5212 Y-62.4825
G01 X-33.5005 Y-62.4375
G01 X-33.4406 Y-62.3474
G01 X-33.3781 Y-62.2849
G01 X-33.2880 Y-62.2250
G01 X-33.2268 Y-62.1996
G01 X-33.0760 Y-62.1737
G01 X-28.0491 Y-62.1737
G01 X-27.9674 Y-62.1812
G01 X-27.8415 Y-62.2229
G01 X-27.8015 Y-62.2434
G01 X-27.5465 Y-62.4648
G01 X-27.4700 Y-62.5673
G01 X-27.4482 Y-62.6082
G01 X-27.4099 Y-62.7598
G01 X-27.4106 Y-62.8217
G01 X-27.4388 Y-62.9682
G01 X-27.5052 Y-63.0842
G01 X-27.6379 Y-63.2835
G01 X-27.7149 Y-63.4605
G01 X-27.7619 Y-63.6476
G01 X-27.7772 Y-63.8910
G01 X-27.7511 Y-64.0889
G01 X-27.6950 Y-64.2736
G01 X-27.6095 Y-64.4466
G01 X-27.4969 Y-64.6033
G01 X-27.3602 Y-64.7395
G01 X-27.2031 Y-64.8516
G01 X-27.0297 Y-64.9365
G01 X-26.8449 Y-64.9920
G01 X-26.6534 Y-65.0165
G01 X-26.4606 Y-65.0094
G01 X-26.2714 Y-64.9710
G01 X-26.0911 Y-64.9021
G01 X-25.8183 Y-64.7466
G01 X-25.6561 Y-64.7140
G01 X-23.4328 Y-64.7137
G01 X-23.3395 Y-64.7232
G01 X-23.2837 Y-64.7401
G01 X-23.1680 Y-64.7945
G01 X-23.0031 Y-64.9116
G01 X-22.8297 Y-64.9965
G01 X-22.6449 Y-65.0520
G01 X-22.4534 Y-65.0765
G01 X-22.2606 Y-65.0694
G01 X-22.0714 Y-65.0310
G01 X-21.8911 Y-64.9621
G01 X-21.7245 Y-64.8647
G01 X-21.5760 Y-64.7415
G01 X-21.4496 Y-64.5956
G01 X-21.3488 Y-64.4310
G01 X-21.2762 Y-64.2522
G01 X-21.2337 Y-64.0639
G01 X-21.2226 Y-63.8712
G01 X-21.2431 Y-63.6793
G01 X-21.2947 Y-63.4933
G01 X-21.3760 Y-63.3183
G01 X-21.4847 Y-63.1588
G01 X-21.6181 Y-63.0193
G01 X-21.7724 Y-62.9034
G01 X-21.9436 Y-62.8143
G01 X-22.1238 Y-62.7505
G01 X-22.2326 Y-62.6762
G01 X-22.2679 Y-62.6433
G01 X-22.3452 Y-62.5261
G01 X-22.3639 Y-62.4845
G01 X-22.3910 Y-62.3421
G01 X-22.3870 Y-62.2680
G01 X-22.3474 Y-62.1208
G01 X-22.2538 Y-61.9870
G01 X-20.7644 Y-60.5053
G01 X-20.6614 Y-60.3742
G01 X-20.5851 Y-60.2259
G01 X-20.5382 Y-60.0660
G01 X-20.5263 Y-59.9429
G01 X-20.5260 Y-58.3379
G01 X-20.4911 Y-58.1700
G01 X-20.4151 Y-58.0474
G01 X-20.3619 Y-57.9914
G01 X-20.2472 Y-57.9166
G01 X-20.2008 Y-57.8994
G01 X-20.0621 Y-57.8740
G01 X-17.6786 Y-57.8774
G01 X-17.6154 Y-57.8737
G01 X-17.4507 Y-57.8415
G01 X-17.2961 Y-57.7792
G01 X-17.2079 Y-57.7268
G01 X-17.1123 Y-57.6479
G01 X-16.4644 Y-57.0053
G01 X-16.3614 Y-56.8742
G01 X-16.2851 Y-56.7259
G01 X-16.2634 Y-56.6654
G01 X-16.2283 Y-56.5024
G01 X-16.2262 Y-55.9424
G01 X-16.2153 Y-55.8538
G01 X-16.1566 Y-55.7015
G01 X-16.0335 Y-55.5665
G01 X-15.9736 Y-55.4885
G01 X-15.9359 Y-55.3976
G01 X-15.9263 Y-55.3245
G01 X-15.9263 Y-53.6755
G01 X-15.9359 Y-53.6024
G01 X-15.9736 Y-53.5115
G01 X-16.0335 Y-53.4335
G01 X-16.1115 Y-53.3736
G01 X-16.2024 Y-53.3359
G01 X-16.2755 Y-53.3263
G01 X-17.9245 Y-53.3263
G01 X-17.9976 Y-53.3359
G01 X-18.0885 Y-53.3736
G01 X-18.1665 Y-53.4335
G01 X-18.2264 Y-53.5115
G01 X-18.2641 Y-53.6024
G01 X-18.2737 Y-53.6755
G01 X-18.2737 Y-55.3245
G01 X-18.2641 Y-55.3976
G01 X-18.2218 Y-55.5110
G01 X-18.1988 Y-55.6621
G01 X-18.2242 Y-55.8008
G01 X-18.2414 Y-55.8472
G01 X-18.3163 Y-55.9619
G01 X-18.3722 Y-56.0151
G01 X-18.4948 Y-56.0911
G01 X-18.6628 Y-56.1260
G01 X-20.4645 Y-56.1258
G01 X-20.5520 Y-56.1149
G01 X-20.6005 Y-56.1005
G01 X-20.7065 Y-56.0496
G01 X-20.7724 Y-56.0034
G01 X-20.9436 Y-55.9143
G01 X-21.1271 Y-55.8543
G01 X-21.3178 Y-55.8251
G01 X-21.5108 Y-55.8275
G01 X-21.7008 Y-55.8613
G01 X-21.8828 Y-55.9258
G01 X-22.0517 Y-56.0190
G01 X-22.2032 Y-56.1387
G01 X-22.3331 Y-56.2814
G01 X-22.4379 Y-56.4435
G01 X-22.5149 Y-56.6205
G01 X-22.5619 Y-56.8076
G01 X-22.5783 Y-57.0065
G01 X-22.5511 Y-57.2489
G01 X-22.4950 Y-57.4336
G01 X-22.4095 Y-57.6066
G01 X-22.3556 Y-57.6823
G01 X-22.3122 Y-57.7614
G01 X-22.2751 Y-57.9238
G01 X-22.2781 Y-59.3853
G01 X-22.3148 Y-59.5340
G01 X-22.4012 Y-59.6647
G01 X-23.0225 Y-60.2869
G01 X-23.1470 Y-60.3750
G01 X-23.2087 Y-60.4006
G01 X-23.3590 Y-60.4263
G01 X-25.1657 Y-60.4258
G01 X-25.2462 Y-60.4153
G01 X-25.3796 Y-60.3676
G01 X-25.4249 Y-60.3367
G01 X-25.5335 Y-60.2335
G01 X-25.6115 Y-60.1736
G01 X-25.7024 Y-60.1359
G01 X-25.7755 Y-60.1263
G01 X-27.4245 Y-60.1263
G01 X-27.4976 Y-60.1359
G01 X-27.5885 Y-60.1736
G01 X-27.6665 Y-60.2335
G01 X-27.7255 Y-60.2988
G01 X-27.8524 Y-60.3834
G01 X-27.8988 Y-60.4006
G01 X-28.0241 Y-60.4249
G01 X-30.1505 Y-60.4263
G01 X-30.2900 Y-60.4030
G01 X-30.3472 Y-60.3834
G01 X-30.4869 Y-60.2869
G01 X-30.5691 Y-60.1718
G01 X-30.6004 Y-60.1013
G01 X-30.6260 Y-59.9621
G01 X-30.6263 Y-49.8495
G01 X-30.5911 Y-49.6700
G01 X-30.4948 Y-49.5213
G01 X-30.4526 Y-49.4849
G01 X-30.3435 Y-49.4148
G01 X-30.1878 Y-49.3768
G01 X-27.1128 Y-49.3737
G01 X-27.0138 Y-49.3845
G01 X-26.9664 Y-49.3980
G01 X-26.8565 Y-49.4501
G01 X-26.7962 Y-49.4974
G01 X-26.7068 Y-49.6014
G01 X-26.6491 Y-49.7484
G01 X-26.6396 Y-49.8131
G01 X-26.6448 Y-49.9214
G01 X-26.6619 Y-50.0076
G01 X-26.6783 Y-50.2065
G01 X-26.6511 Y-50.4489
G01 X-26.5950 Y-50.6336
G01 X-26.5095 Y-50.8066
G01 X-26.3969 Y-50.9633
G01 X-26.3489 Y-51.0112
G01 X-26.2602 Y-51.0995
G01 X-26.1031 Y-51.2116
G01 X-25.9297 Y-51.2965
G01 X-25.7449 Y-51.3520
G01 X-25.5534 Y-51.3765
G01 X-25.3606 Y-51.3694
G01 X-25.1714 Y-51.3310
G01 X-24.9911 Y-51.2621
G01 X-24.7183 Y-51.1066
G01 X-24.5446 Y-51.0737
G01 X-9.6590 Y-51.0737
G01 X-9.5087 Y-51.0994
G01 X-9.4470 Y-51.1250
G01 X-9.3225 Y-51.2131
G01 X-8.1869 Y-52.3515
G01 X-8.1328 Y-52.4244
G01 X-8.1125 Y-52.4682
G01 X-8.0729 Y-52.5925
G01 X-8.0492 Y-52.7701
G01 X-7.9883 Y-52.9705
G01 X-7.8955 Y-53.1583
G01 X-7.7733 Y-53.3283
G01 X-7.6249 Y-53.4762
G01 X-7.4544 Y-53.5978
G01 X-7.2663 Y-53.6900
G01 X-7.0657 Y-53.7501
G01 X-6.8580 Y-53.7768
G01 X-6.5379 Y-53.7590
G01 X-6.3700 Y-53.7938
G01 X-6.2131 Y-53.8980
G01 X-6.1089 Y-54.0549
G01 X-6.0737 Y-54.2345
G01 X-6.0737 Y-59.6410
G01 X-6.1043 Y-59.8080
G01 X-6.1250 Y-59.8530
G01 X-6.2048 Y-59.9687
G01 X-7.0476 Y-60.8086
G01 X-7.1470 Y-60.8750
G01 X-7.2194 Y-60.9030
G01 X-7.3474 Y-60.9260
G01 X-7.6057 Y-60.9273
G01 X-7.7416 Y-60.9612
G01 X-7.8630 Y-61.0215
G01 X-7.9686 Y-61.1064
G01 X-8.0535 Y-61.2120
G01 X-8.1138 Y-61.3334
G01 X-8.1487 Y-61.4842
G01 X-8.1487 Y-62.3158
G01 X-8.1171 Y-62.4582
G01 X-8.1079 Y-62.5356
G01 X-8.1105 Y-62.5878
G01 X-8.1426 Y-62.7300
G01 X-8.2186 Y-62.8526
G01 X-8.2596 Y-62.8988
G01 X-8.3713 Y-62.9750
G01 X-8.4330 Y-63.0006
G01 X-8.5832 Y-63.0263
G01 X-11.3045 Y-63.0258
G01 X-11.3920 Y-63.0149
G01 X-11.4405 Y-63.0005
G01 X-11.5465 Y-62.9496
G01 X-11.6124 Y-62.9034
G01 X-11.7836 Y-62.8143
G01 X-11.9671 Y-62.7543
G01 X-12.1578 Y-62.7251
G01 X-12.3508 Y-62.7275
G01 X-12.5408 Y-62.7613
G01 X-12.7228 Y-62.8258
G01 X-12.8942 Y-62.9210
G01 X-13.0432 Y-63.0387
G01 X-13.1731 Y-63.1814
G01 X-13.2779 Y-63.3435
G01 X-13.3549 Y-63.5205
G01 X-13.4019 Y-63.7076
G01 X-13.4183 Y-63.9065
G01 X-13.3911 Y-64.1489
G01 X-13.3350 Y-64.3336
G01 X-13.2495 Y-64.5066
G01 X-13.1369 Y-64.6633
G01 X-13.0002 Y-64.7995
G01 X-12.8431 Y-64.9116
G01 X-12.6697 Y-64.9965
G01 X-12.4849 Y-65.0520
G01 X-12.2934 Y-65.0765
G01 X-12.1006 Y-65.0694
G01 X-11.9114 Y-65.0310
G01 X-11.7311 Y-64.9621
G01 X-11.4583 Y-64.8066
G01 X-11.2961 Y-64.7740
G01 X-7.7156 Y-64.7737
G01 X-7.5743 Y-64.7963
G01 X-7.3532 Y-64.8615
G01 X-7.2206 Y-64.8737
G01 X-6.5669 Y-64.8737
G01 X-6.4217 Y-64.8565
G01 X-6.2508 Y-64.8035
G01 X-6.0924 Y-64.7201
G01 X-5.9519 Y-64.6093
G01 X-5.8339 Y-64.4748
G01 X-5.7424 Y-64.3210
G01 X-5.6804 Y-64.1531
G01 X-5.6501 Y-63.9767
G01 X-5.6525 Y-63.7978
G01 X-5.6874 Y-63.6223
G01 X-5.7537 Y-63.4560
G01 X-5.8991 Y-63.2263
G01 X-5.9423 Y-63.0949
G01 X-5.9498 Y-63.0372
G01 X-5.9392 Y-62.9096
G01 X-5.9210 Y-62.8467
G01 X-5.8531 Y-62.7212
G01 X-5.7465 Y-62.5880
G01 X-5.6862 Y-62.4666
G01 X-5.6523 Y-62.3307
G01 X-5.6510 Y-62.0724
G01 X-5.6193 Y-61.9129
G01 X-5.5941 Y-61.8627
G01 X-5.5119 Y-61.7475
G01 X-4.5224 Y-60.7580
G01 X-4.4287 Y-60.6188
G01 X-4.3634 Y-60.4654
G01 X-4.3283 Y-60.3024
G01 X-4.3246 Y-60.1331
G01 X-4.3263 Y-41.1154
G01 X-4.3425 Y-41.0130
G01 X-4.3933 Y-40.8542
G01 X-4.4732 Y-40.7079
G01 X-4.5112 Y-40.6560
G01 X-5.3947 Y-39.7697
G01 X-5.4663 Y-39.6772
G01 X-5.4891 Y-39.6325
G01 X-5.5258 Y-39.5153
G01 X-5.5446 Y-39.3605
G01 X-5.6005 Y-39.1587
G01 X-5.6887 Y-38.9687
G01 X-5.8067 Y-38.7957
G01 X-5.9515 Y-38.6443
G01 X-6.1189 Y-38.5185
G01 X-6.3047 Y-38.4218
G01 X-6.5038 Y-38.3567
G01 X-6.7108 Y-38.3250
G01 X-6.9203 Y-38.3276
G01 X-7.1265 Y-38.3643
G01 X-7.3239 Y-38.4342
G01 X-7.5073 Y-38.5355
G01 X-7.6318 Y-38.6331
G01 X-7.7267 Y-38.6878
G01 X-7.9026 Y-38.7260
G01 X-16.7384 Y-38.7244
G01 X-16.8507 Y-38.7042
G01 X-16.9893 Y-38.6346
G01 X-17.1023 Y-38.5157
G01 X-17.1392 Y-38.4479
G01 X-17.1737 Y-38.3455
G01 X-17.1824 Y-38.2808
G01 X-17.1709 Y-38.1377
G01 X-17.1311 Y-37.9875
G01 X-17.1148 Y-37.7991
G01 X-17.1311 Y-37.6125
G01 X-17.1735 Y-37.4535
G01 X-17.2186 Y-37.4985
G01 X-17.1910 Y-37.6106
G01 X-17.1735 Y-37.7889
G01 X-17.1784 Y-37.9035
G01 X-17.1940 Y-38.0053
G01 X-17.2172 Y-38.0974
G01 X-17.2536 Y-38.1983
G01 X-17.3425 Y-38.3647
G01 X-17.4094 Y-38.4551
G01 X-17.4739 Y-38.5261
G01 X-17.5449 Y-38.5906
G01 X-17.6353 Y-38.6575
G01 X-17.8017 Y-38.7464
G01 X-17.9026 Y-38.7828
G01 X-18.0106 Y-38.8090
G01 X-18.1889 Y-38.8265
G01 X-18.3035 Y-38.8216
G01 X-18.4112 Y-38.8046
G01 X-18.5826 Y-38.7526
G01 X-18.6741 Y-38.7106
G01 X-18.7796 Y-38.6473
G01 X-18.9180 Y-38.5337
G01 X-18.9865 Y-38.4598
G01 X-19.0575 Y-38.3647
G01 X-19.1106 Y-38.2741
G01 X-19.1791 Y-38.1086
G01 X-19.2046 Y-38.0112
G01 X-19.2216 Y-37.9035
G01 X-19.2265 Y-37.7889
G01 X-19.2090 Y-37.6106
G01 X-19.1814 Y-37.4985
G01 X-19.2265 Y-37.4535
G01 X-19.2689 Y-37.6125
G01 X-19.2852 Y-37.7991
G01 X-19.2689 Y-37.9875
G01 X-19.2280 Y-38.1429
G01 X-19.2162 Y-38.2318
G01 X-19.2176 Y-38.2817
G01 X-19.2413 Y-38.4013
G01 X-19.2667 Y-38.4625
G01 X-19.3548 Y-38.5869
G01 X-19.4792 Y-38.6750
G01 X-19.5517 Y-38.7030
G01 X-19.6912 Y-38.7263
G01 X-25.1916 Y-38.7263
G01 X-25.3167 Y-38.7095
G01 X-25.4497 Y-38.6488
G01 X-25.5097 Y-38.6012
G01 X-25.6063 Y-38.4835
G01 X-25.6605 Y-38.3299
G01 X-25.6645 Y-38.2735
G01 X-25.6495 Y-38.1219
G01 X-25.5898 Y-37.9924
G01 X-25.5503 Y-37.9351
G01 X-25.5210 Y-37.8561
G01 X-25.5188 Y-37.4808
G01 X-25.5732 Y-37.4808
G01 X-25.5732 Y-37.8000
G01 X-25.5927 Y-37.8921
G01 X-25.6483 Y-37.9686
G01 X-25.6867 Y-37.9965
G01 X-25.7529 Y-38.0219
G01 X-27.4000 Y-38.0268
G01 X-27.4921 Y-38.0073
G01 X-27.5686 Y-37.9517
G01 X-27.6073 Y-37.8921
G01 X-27.6268 Y-37.8000
G01 X-27.6219 Y-36.1529
G01 X-27.5965 Y-36.0867
G01 X-27.5686 Y-36.0483
G01 X-27.4921 Y-35.9927
G01 X-27.4000 Y-35.9732
G01 X-27.0808 Y-35.9732
G01 X-27.0808 Y-35.9188
G01 X-27.4364 Y-35.9189
G01 X-27.5226 Y-35.9417
G01 X-27.6505 Y-35.9612
G01 X-27.8300 Y-35.9260
G01 X-27.9619 Y-35.8435
G01 X-28.0151 Y-35.7875
G01 X-28.0943 Y-35.6566
G01 X-28.1263 Y-35.4854
G01 X-28.1249 Y-33.7339
G01 X-28.1006 Y-33.6087
G01 X-28.0834 Y-33.5623
G01 X-28.0086 Y-33.4476
G01 X-27.9417 Y-33.3780
G01 X-27.8421 Y-33.3062
G01 X-27.7112 Y-33.2598
G01 X-27.6672 Y-33.2518
G01 X-27.5454 Y-33.2573
G01 X-27.4245 Y-33.2737
G01 X-25.7755 Y-33.2737
G01 X-25.7024 Y-33.2641
G01 X-25.6115 Y-33.2264
G01 X-25.5335 Y-33.1665
G01 X-25.4736 Y-33.0885
G01 X-25.4359 Y-32.9976
G01 X-25.4263 Y-32.9245
G01 X-25.4263 Y-31.2755
G01 X-25.4359 Y-31.2024
G01 X-25.4736 Y-31.1115
G01 X-25.5335 Y-31.0335
G01 X-25.6115 Y-30.9736
G01 X-25.7024 Y-30.9359
G01 X-25.7755 Y-30.9263
G01 X-27.4245 Y-30.9263
G01 X-27.4976 Y-30.9359
G01 X-27.5885 Y-30.9736
G01 X-27.6665 Y-31.0335
G01 X-27.6969 Y-31.0692
G01 X-27.7904 Y-31.1504
G01 X-27.8382 Y-31.1792
G01 X-27.9545 Y-31.2202
G01 X-28.1493 Y-31.2585
G01 X-28.3039 Y-31.3208
G01 X-28.4440 Y-31.4112
G01 X-28.7391 Y-31.7001
G01 X-28.8385 Y-31.7665
G01 X-28.8997 Y-31.7920
G01 X-29.0621 Y-31.8175
G01 X-29.2008 Y-31.7921
G01 X-29.2472 Y-31.7749
G01 X-29.3619 Y-31.7001
G01 X-29.3948 Y-31.6702
G01 X-29.4750 Y-31.5540
G01 X-29.5004 Y-31.4929
G01 X-29.5263 Y-31.3420
G01 X-29.5263 Y-29.0590
G01 X-29.5006 Y-28.9087
G01 X-29.4750 Y-28.8470
G01 X-29.3952 Y-28.7313
G01 X-28.9687 Y-28.3048
G01 X-28.8340 Y-28.2148
G01 X-28.6783 Y-28.1768
G01 X-26.5630 Y-28.1752
G01 X-26.4954 Y-28.1832
G01 X-26.4396 Y-28.2001
G01 X-26.3399 Y-28.2453
G01 X-26.2431 Y-28.3116
G01 X-26.0697 Y-28.3965
G01 X-25.8849 Y-28.4520
G01 X-25.6934 Y-28.4765
G01 X-25.5006 Y-28.4694
G01 X-25.3114 Y-28.4310
G01 X-25.1311 Y-28.3621
G01 X-24.9645 Y-28.2647
G01 X-24.8160 Y-28.1415
G01 X-24.6338 Y-27.9239
G01 X-24.5893 Y-27.8849
G01 X-24.4667 Y-27.8089
G01 X-24.2987 Y-27.7740
G01 X-7.7156 Y-27.7737
G01 X-7.5743 Y-27.7963
G01 X-7.3532 Y-27.8615
G01 X-7.2206 Y-27.8737
G01 X-6.5669 Y-27.8737
G01 X-6.4217 Y-27.8565
G01 X-6.2508 Y-27.8035
G01 X-6.0924 Y-27.7201
G01 X-5.9519 Y-27.6093
G01 X-5.8339 Y-27.4748
G01 X-5.7424 Y-27.3210
G01 X-5.6804 Y-27.1531
G01 X-5.6501 Y-26.9767
G01 X-5.6525 Y-26.7978
G01 X-5.6874 Y-26.6223
G01 X-5.7537 Y-26.4560
G01 X-5.8991 Y-26.2263
G01 X-5.9423 Y-26.0949
G01 X-5.9496 Y-26.0282
G01 X-5.9392 Y-25.9096
G01 X-5.9210 Y-25.8467
G01 X-5.8531 Y-25.7212
G01 X-5.7465 Y-25.5880
G01 X-5.6862 Y-25.4666
G01 X-5.6523 Y-25.3307
G01 X-5.6523 Y-24.4693
G01 X-5.6862 Y-24.3334
G01 X-5.7465 Y-24.2120
G01 X-5.8314 Y-24.1064
G01 X-5.9370 Y-24.0215
G01 X-6.0584 Y-23.9612
G01 X-6.1943 Y-23.9273
G01 X-7.5908 Y-23.9263
G01 X-7.7416 Y-23.9612
G01 X-7.8322 Y-24.0001
G01 X-7.9844 Y-24.0263
G01 X-22.3810 Y-24.0263
G01 X-22.5522 Y-23.9943
G01 X-22.6831 Y-23.9151
G01 X-24.3686 Y-22.2326
G01 X-24.4189 Y-22.1645
G01 X-24.4417 Y-22.1199
G01 X-24.5347 Y-21.7933
G01 X-24.6160 Y-21.6183
G01 X-24.7247 Y-21.4588
G01 X-24.8581 Y-21.3193
G01 X-25.1319 Y-21.1182
G01 X-25.2323 Y-20.9746
G01 X-25.2519 Y-20.9174
G01 X-25.2752 Y-20.7779
G01 X-25.2495 Y-20.6276
G01 X-25.2239 Y-20.5659
G01 X-25.1358 Y-20.4414
G01 X-23.4987 Y-18.8048
G01 X-23.3640 Y-18.7148
G01 X-23.2083 Y-18.6768
G01 X-22.1259 Y-18.6737
G01 X-21.9871 Y-18.6957
G01 X-21.9263 Y-18.7190
G01 X-21.8243 Y-18.7831
G01 X-21.7137 Y-18.8844
G01 X-21.5372 Y-19.0044
G01 X-21.3438 Y-19.0946
G01 X-21.1384 Y-19.1527
G01 X-20.9264 Y-19.1772
G01 X-20.7132 Y-19.1675
G01 X-20.5043 Y-19.1239
G01 X-20.3051 Y-19.0474
G01 X-20.1207 Y-18.9401
G01 X-19.9200 Y-18.7724
G01 X-19.8132 Y-18.7003
G01 X-19.7596 Y-18.6806
G01 X-19.6144 Y-18.6534
G01 X-19.4742 Y-18.6741
G01 X-19.4285 Y-18.6883
G01 X-19.3059 Y-18.7627
G01 X-19.1737 Y-18.8844
G01 X-18.9972 Y-19.0044
G01 X-18.8038 Y-19.0946
G01 X-18.5984 Y-19.1527
G01 X-18.3864 Y-19.1772
G01 X-18.1732 Y-19.1675
G01 X-17.9643 Y-19.1239
G01 X-17.7651 Y-19.0474
G01 X-17.4810 Y-18.8848
G01 X-17.3131 Y-18.8499
G01 X-17.1620 Y-18.8729
G01 X-17.1085 Y-18.8907
G01 X-16.9901 Y-18.9673
G01 X-16.8901 Y-19.0484
G01 X-16.8086 Y-19.0790
G01 X-16.2808 Y-19.0812
G01 X-16.2808 Y-19.0268
G01 X-16.7525 Y-19.0268
G01 X-16.8225 Y-19.0157
G01 X-16.8858 Y-18.9835
G01 X-16.9211 Y-18.9517
G01 X-16.9682 Y-18.8700
G01 X-16.9793 Y-18.8000
G01 X-16.9790 Y-16.7947
G01 X-17.3301 Y-17.1458
G01 X-17.2550 Y-17.2910
G01 X-17.2113 Y-17.4108
G01 X-17.1834 Y-17.5222
G01 X-17.1656 Y-17.6480
G01 X-17.1607 Y-17.8475
G01 X-17.1667 Y-17.9659
G01 X-17.1858 Y-18.0884
G01 X-17.2465 Y-18.2884
G01 X-17.3054 Y-18.4131
G01 X-17.3557 Y-18.4969
G01 X-17.4330 Y-18.6011
G01 X-17.5061 Y-18.6814
G01 X-17.5864 Y-18.7545
G01 X-17.6906 Y-18.8318
G01 X-17.7744 Y-18.8821
G01 X-17.8785 Y-18.9325
G01 X-17.9983 Y-18.9762
G01 X-18.1097 Y-19.0041
G01 X-18.2355 Y-19.0219
G01 X-18.3511 Y-19.0265
G01 X-18.5591 Y-19.0060
G01 X-18.6817 Y-18.9762
G01 X-18.7809 Y-18.9410
G01 X-18.8860 Y-18.8926
G01 X-19.0043 Y-18.8216
G01 X-19.1658 Y-18.6891
G01 X-19.2443 Y-18.6041
G01 X-19.3141 Y-18.5118
G01 X-19.3746 Y-18.4131
G01 X-19.4250 Y-18.3090
G01 X-19.4715 Y-18.1791
G00 X-19.4715 Y-18.1791
G01 F60.00
G01 Z-0.0500
G01 F120.00
G01 X-19.4985 Y-18.0666
G01 X-19.5190 Y-17.8586
G01 X-19.5144 Y-17.6480
G01 X-19.4966 Y-17.5222
G01 X-19.4650 Y-17.3996
G01 X-19.3851 Y-17.2065
G01 X-19.3243 Y-17.1031
G01 X-19.2470 Y-16.9989
G01 X-19.1739 Y-16.9186
G01 X-19.0936 Y-16.8455
G01 X-18.9616 Y-16.7515
G01 X-18.9081 Y-16.6741
G01 X-18.8541 Y-16.6134
G01 X-14.5266 Y-12.2859
G01 X-14.4106 Y-12.1917
G01 X-14.2961 Y-12.1306
G01 X-14.1593 Y-12.0880
G01 X-14.0125 Y-12.0729
G01 X-7.6603 Y-12.0729
G01 X-7.5233 Y-11.9362
G01 X-7.4351 Y-11.8695
G01 X-7.3344 Y-11.8080
G01 X-7.2365 Y-11.7613
G01 X-7.1330 Y-11.7236
G01 X-7.0089 Y-11.6929
G01 X-6.8111 Y-11.6735
G01 X-6.6892 Y-11.6787
G01 X-6.5752 Y-11.6959
G01 X-6.4670 Y-11.7236
G01 X-6.3635 Y-11.7613
G01 X-6.2656 Y-11.8080
G01 X-6.1798 Y-11.8594
G01 X-6.0797 Y-11.9336
G01 X-5.9336 Y-12.0797
G01 X-5.8594 Y-12.1798
G01 X-5.8080 Y-12.2656
G01 X-5.7613 Y-12.3635
G01 X-5.7236 Y-12.4670
G01 X-5.6959 Y-12.5752
G01 X-5.6787 Y-12.6892
G01 X-5.6732 Y-12.8000
G01 X-5.6778 Y-12.8993
G01 X-5.6959 Y-13.0248
G01 X-5.7188 Y-13.1164
G01 X-5.7635 Y-13.2414
G01 X-5.8594 Y-13.4202
G01 X-5.9336 Y-13.5203
G01 X-6.0032 Y-13.5968
G01 X-6.1649 Y-13.7305
G01 X-6.2788 Y-13.7988
G01 X-6.4670 Y-13.8764
G01 X-6.5752 Y-13.9041
G01 X-6.6892 Y-13.9213
G01 X-6.8111 Y-13.9265
G01 X-7.0089 Y-13.9071
G01 X-7.1330 Y-13.8764
G01 X-7.2365 Y-13.8387
G01 X-7.3344 Y-13.7920
G01 X-7.4351 Y-13.7305
G01 X-7.5233 Y-13.6638
G01 X-7.6603 Y-13.5271
G01 X-13.7113 Y-13.5271
G01 X-16.7578 Y-16.5735
G01 X-14.8475 Y-16.5732
G01 X-14.7775 Y-16.5843
G01 X-14.7142 Y-16.6165
G01 X-14.6789 Y-16.6483
G01 X-14.6510 Y-16.6867
G01 X-14.6256 Y-16.7529
G01 X-14.6207 Y-17.3192
G01 X-14.5663 Y-17.3192
G01 X-14.5663 Y-16.7648
G01 X-14.5978 Y-16.6649
G01 X-14.6458 Y-16.6002
G01 X-14.7124 Y-16.5503
G01 X-14.7914 Y-16.5210
G01 X-15.3586 Y-16.5185
G01 X-15.4979 Y-16.4929
G01 X-15.5590 Y-16.4675
G01 X-15.6913 Y-16.3712
G01 X-15.7876 Y-16.2225
G01 X-15.8225 Y-16.0546
G01 X-15.7970 Y-15.8922
G01 X-15.7715 Y-15.8310
G01 X-15.6835 Y-15.7066
G01 X-13.7900 Y-13.8131
G01 X-13.6655 Y-13.7250
G01 X-13.6038 Y-13.6994
G01 X-13.4535 Y-13.6737
G01 X-7.9114 Y-13.6739
G01 X-7.8000 Y-13.6899
G01 X-7.7438 Y-13.7091
G01 X-7.6498 Y-13.7589
G01 X-7.4544 Y-13.8978
G01 X-7.2663 Y-13.9900
G01 X-7.0657 Y-14.0501
G01 X-6.9849 Y-14.0605
G01 X-6.8580 Y-14.0768
G01 X-6.6487 Y-14.0691
G01 X-6.4434 Y-14.0273
G01 X-6.2478 Y-13.9526
G01 X-6.0669 Y-13.8469
G01 X-5.9058 Y-13.7132
G01 X-5.7686 Y-13.5548
G01 X-5.6592 Y-13.3763
G01 X-5.5804 Y-13.1822
G01 X-5.5344 Y-12.9779
G01 X-5.5223 Y-12.7688
G01 X-5.5446 Y-12.5605
G01 X-5.6005 Y-12.3587
G01 X-5.6887 Y-12.1687
G01 X-5.8067 Y-11.9957
G01 X-5.9515 Y-11.8443
G01 X-6.1189 Y-11.7185
G01 X-6.3047 Y-11.6218
G01 X-6.5038 Y-11.5567
G01 X-6.7108 Y-11.5250
G01 X-6.9203 Y-11.5276
G01 X-7.1265 Y-11.5643
G01 X-7.3239 Y-11.6342
G01 X-7.5073 Y-11.7355
G01 X-7.6318 Y-11.8331
G01 X-7.7267 Y-11.8878
G01 X-7.9026 Y-11.9260
G01 X-14.0339 Y-11.9226
G01 X-14.0971 Y-11.9263
G01 X-14.2618 Y-11.9585
G01 X-14.3583 Y-11.9933
G01 X-14.5046 Y-12.0732
G01 X-14.5565 Y-12.1112
G01 X-14.6787 Y-12.2282
G01 X-18.9756 Y-16.5222
G01 X-19.0940 Y-16.6548
G01 X-19.2473 Y-16.7799
G01 X-19.3635 Y-16.8436
G01 X-19.5305 Y-16.8742
G01 X-19.7016 Y-16.8422
G01 X-19.8419 Y-16.7564
G01 X-19.8951 Y-16.7004
G01 X-19.9711 Y-16.5779
G01 X-20.0060 Y-16.4099
G01 X-20.0063 Y-7.6595
G01 X-19.9918 Y-7.5439
G01 X-19.9385 Y-7.3532
G01 X-19.9263 Y-7.2206
G01 X-19.9263 Y-6.5669
G01 X-19.9435 Y-6.4217
G01 X-19.9965 Y-6.2508
G01 X-20.0799 Y-6.0924
G01 X-20.1907 Y-5.9519
G01 X-20.3252 Y-5.8339
G01 X-20.4790 Y-5.7424
G01 X-20.6469 Y-5.6804
G01 X-20.8233 Y-5.6501
G01 X-21.0022 Y-5.6525
G01 X-21.1777 Y-5.6874
G01 X-21.3440 Y-5.7537
G01 X-21.5737 Y-5.8991
G01 X-21.7051 Y-5.9423
G01 X-21.7628 Y-5.9498
G01 X-21.8904 Y-5.9392
G01 X-21.9533 Y-5.9210
G01 X-22.0788 Y-5.8531
G01 X-22.2120 Y-5.7465
G01 X-22.3334 Y-5.6862
G01 X-22.4693 Y-5.6523
G01 X-23.3158 Y-5.6513
G01 X-23.4666 Y-5.6862
G01 X-23.5880 Y-5.7465
G01 X-23.6936 Y-5.8314
G01 X-23.7785 Y-5.9370
G01 X-23.8388 Y-6.0584
G01 X-23.8737 Y-6.2092
G01 X-23.8737 Y-7.5908
G01 X-23.8388 Y-7.7416
G01 X-23.7999 Y-7.8322
G01 X-23.7737 Y-7.9844
G01 X-23.7737 Y-13.8410
G01 X-23.7970 Y-13.9806
G01 X-23.8148 Y-14.0340
G01 X-23.9131 Y-14.1775
G01 X-25.5558 Y-15.8197
G01 X-25.6578 Y-15.8922
G01 X-25.7660 Y-15.9345
G01 X-25.9009 Y-15.9613
G01 X-26.0828 Y-16.0258
G01 X-26.2517 Y-16.1190
G01 X-26.4032 Y-16.2387
G01 X-26.5331 Y-16.3814
G01 X-26.6379 Y-16.5435
G01 X-26.7149 Y-16.7205
G01 X-26.7619 Y-16.9076
G01 X-26.7783 Y-17.1065
G01 X-26.7511 Y-17.3489
G01 X-26.6950 Y-17.5336
G01 X-26.6130 Y-17.6995
G01 X-26.4969 Y-17.8633
G01 X-26.3602 Y-17.9995
G01 X-26.0573 Y-18.2093
G01 X-25.9542 Y-18.3574
G01 X-25.9162 Y-18.5131
G01 X-25.9154 Y-18.5828
G01 X-25.9483 Y-18.7299
G01 X-26.0308 Y-18.8618
G01 X-33.3556 Y-26.1847
G01 X-33.4586 Y-26.3158
G01 X-33.5349 Y-26.4641
G01 X-33.5566 Y-26.5246
G01 X-33.5917 Y-26.6876
G01 X-33.5968 Y-28.2678
G01 X-33.6289 Y-28.4100
G01 X-33.7049 Y-28.5326
G01 X-33.7581 Y-28.5886
G01 X-33.8728 Y-28.6634
G01 X-33.9192 Y-28.6806
G01 X-34.0579 Y-28.7060
G01 X-34.5023 Y-28.7015
G01 X-34.5530 Y-28.6892
G01 X-34.6859 Y-28.6351
G01 X-34.8184 Y-28.5129
G01 X-34.8977 Y-28.3436
G01 X-34.9071 Y-28.1682
G01 X-34.8978 Y-28.1234
G01 X-34.8551 Y-28.0083
G01 X-34.7488 Y-27.8310
G01 X-34.6762 Y-27.6522
G01 X-34.6337 Y-27.4639
G01 X-34.6226 Y-27.2712
G01 X-34.6324 Y-27.1793
G01 X-34.6431 Y-27.0793
G01 X-34.6947 Y-26.8933
G01 X-34.7760 Y-26.7183
G01 X-34.8847 Y-26.5588
G01 X-35.0181 Y-26.4193
G01 X-35.1724 Y-26.3034
G01 X-35.3436 Y-26.2143
G01 X-35.5271 Y-26.1543
G01 X-35.7178 Y-26.1251
G01 X-35.9108 Y-26.1275
G01 X-36.1008 Y-26.1613
G01 X-36.2828 Y-26.2258
G01 X-36.5761 Y-26.3922
G01 X-36.7528 Y-26.4263
G01 X-51.4450 Y-26.4263
G01 X-51.6168 Y-26.3941
G01 X-51.7469 Y-26.3152
G01 X-51.8000 Y-26.2659
G01 X-51.9335 Y-26.0810
G01 X-52.0115 Y-26.0211
G01 X-52.1024 Y-25.9834
G01 X-52.1755 Y-25.9738
G01 X-54.2245 Y-25.9738
G01 X-54.2976 Y-25.9834
G01 X-54.3885 Y-26.0211
G01 X-54.4665 Y-26.0810
G01 X-54.5264 Y-26.1590
G01 X-54.5641 Y-26.2499
G01 X-54.5737 Y-26.3230
G01 X-54.5737 Y-28.2770
G01 X-54.5431 Y-28.4905
G01 X-54.5688 Y-28.6408
G01 X-54.6002 Y-28.7118
G01 X-54.6608 Y-28.8019
G01 X-54.7074 Y-28.8486
G01 X-54.8393 Y-28.9311
G01 X-54.9746 Y-28.9619
G01 X-58.9100 Y-28.9652
G01 X-59.0433 Y-28.9385
G01 X-59.1067 Y-28.9113
G01 X-59.2047 Y-28.8433
G01 X-59.4003 Y-28.6675
G01 X-59.5835 Y-28.5474
G01 X-59.7825 Y-28.4557
G01 X-59.9927 Y-28.3945
G01 X-60.2098 Y-28.3649
G01 X-60.4288 Y-28.3678
G01 X-60.6450 Y-28.4030
G01 X-60.8536 Y-28.4698
G01 X-61.0501 Y-28.5666
G01 X-61.2300 Y-28.6915
G01 X-61.3915 Y-28.8432
G01 X-61.5027 Y-28.9173
G01 X-61.5605 Y-28.9406
G01 X-61.6992 Y-28.9660
G01 X-67.0416 Y-28.9662
G01 X-67.1624 Y-28.9476
G01 X-67.2203 Y-28.9266
G01 X-67.3286 Y-28.8623
G01 X-67.5189 Y-28.7185
G01 X-67.7047 Y-28.6218
G01 X-67.9038 Y-28.5567
G01 X-68.1108 Y-28.5250
G01 X-68.3203 Y-28.5276
G01 X-68.5265 Y-28.5643
G01 X-68.7239 Y-28.6342
G01 X-68.8914 Y-28.7267
G01 X-69.0716 Y-28.8653
G01 X-69.2126 Y-29.0202
G01 X-69.3264 Y-29.1960
G01 X-69.4099 Y-29.3881
G01 X-69.4609 Y-29.5913
G01 X-69.4786 Y-29.8065
G01 X-69.4492 Y-30.0701
G01 X-69.3883 Y-30.2705
G01 X-69.2955 Y-30.4583
G01 X-69.1733 Y-30.6283
G01 X-69.0249 Y-30.7762
G01 X-68.8544 Y-30.8978
G01 X-68.6663 Y-30.9900
G01 X-68.4657 Y-31.0501
G01 X-68.2580 Y-31.0768
G01 X-68.0487 Y-31.0691
G01 X-67.8434 Y-31.0273
G01 X-67.6478 Y-30.9526
G01 X-67.3221 Y-30.7522
G01 X-67.1462 Y-30.7140
G01 X-61.6859 Y-30.7144
G01 X-61.5408 Y-30.7471
G01 X-61.4793 Y-30.7739
G01 X-61.3765 Y-30.8517
G01 X-61.1687 Y-31.0356
G01 X-60.9824 Y-31.1509
G01 X-60.7811 Y-31.2373
G01 X-60.5693 Y-31.2931
G01 X-60.3516 Y-31.3169
G01 X-60.1327 Y-31.3083
G01 X-59.9175 Y-31.2675
G01 X-59.7107 Y-31.1953
G01 X-59.5169 Y-31.0933
G01 X-59.3402 Y-30.9638
G01 X-59.2027 Y-30.8307
G01 X-59.1034 Y-30.7646
G01 X-59.0429 Y-30.7396
G01 X-58.9171 Y-30.7151
G01 X-54.4653 Y-30.7140
G01 X-54.2945 Y-30.7499
G01 X-54.2455 Y-30.7760
G01 X-54.1405 Y-30.8525
G01 X-54.1048 Y-30.8958
G01 X-54.0368 Y-31.0073
G01 X-54.0217 Y-31.0550
G01 X-54.0006 Y-31.1882
G01 X-54.0059 Y-31.2444
G01 X-54.0460 Y-31.3923
G01 X-54.1255 Y-31.5092
G01 X-54.1738 Y-31.5588
G01 X-54.2945 Y-31.7196
G01 X-54.3881 Y-31.8992
G01 X-54.3234 Y-31.8992
G01 X-54.2318 Y-31.7306
G01 X-54.1545 Y-31.6264
G01 X-54.0891 Y-31.5542
G01 X-53.9869 Y-31.4615
G01 X-53.8131 Y-31.3454
G01 X-53.6884 Y-31.2865
G01 X-53.5892 Y-31.2513
G01 X-53.4778 Y-31.2234
G01 X-53.3520 Y-31.2056
G01 X-53.1525 Y-31.2007
G01 X-53.0259 Y-31.2077
G01 X-52.9222 Y-31.2234
G01 X-52.8108 Y-31.2513
G01 X-52.6910 Y-31.2950
G01 X-52.5031 Y-31.3957
G01 X-52.3959 Y-31.4757
G01 X-52.2455 Y-31.6264
G01 X-52.1682 Y-31.7306
G01 X-52.0766 Y-31.8992
G01 X-52.0139 Y-31.8992
G01 X-52.1219 Y-31.6942
G01 X-52.2466 Y-31.5364
G01 X-52.2997 Y-31.4820
G01 X-52.3710 Y-31.3653
G01 X-52.3934 Y-31.3025
G01 X-52.4105 Y-31.1393
G01 X-52.3776 Y-31.0013
G01 X-52.3533 Y-30.9480
G01 X-52.2829 Y-30.8511
G01 X-52.1156 Y-30.6737
G01 X-51.9956 Y-30.4972
G01 X-51.9054 Y-30.3038
G01 X-51.8473 Y-30.0984
G01 X-51.8228 Y-29.8864
G01 X-51.8325 Y-29.6732
G01 X-51.8761 Y-29.4643
G01 X-51.9526 Y-29.2651
G01 X-52.0434 Y-29.1081
G01 X-52.0843 Y-29.0062
G01 X-52.0987 Y-28.8518
G01 X-52.0899 Y-28.7871
G01 X-52.0318 Y-28.6355
G01 X-51.9348 Y-28.5208
G01 X-51.7932 Y-28.3258
G01 X-51.7564 Y-28.2914
G01 X-51.6569 Y-28.2250
G01 X-51.5845 Y-28.1970
G01 X-51.4450 Y-28.1737
G01 X-36.8485 Y-28.1740
G01 X-36.6671 Y-28.2143
G01 X-36.5240 Y-28.3124
G01 X-36.4909 Y-28.3515
G01 X-36.4202 Y-28.4671
G01 X-36.4041 Y-28.5199
G01 X-36.3838 Y-28.6549
G01 X-36.3892 Y-28.7040
G01 X-36.4244 Y-28.8419
G01 X-36.5224 Y-28.9850
G01 X-38.6356 Y-31.0947
G01 X-38.7386 Y-31.2258
G01 X-38.8149 Y-31.3741
G01 X-38.8366 Y-31.4346
G01 X-38.8717 Y-31.5976
G01 X-38.8754 Y-31.7669
G01 X-38.8737 Y-37.5410
G01 X-38.8970 Y-37.6806
G01 X-38.9250 Y-37.7530
G01 X-39.0048 Y-37.8687
G01 X-40.1313 Y-38.9952
G01 X-40.2660 Y-39.0852
G01 X-40.4217 Y-39.1232
G01 X-58.3842 Y-39.1263
G01 X-58.4607 Y-39.1199
G01 X-58.6129 Y-39.0676
G01 X-58.7313 Y-38.9726
G01 X-58.7683 Y-38.9310
G01 X-58.8178 Y-38.8447
G01 X-58.8736 Y-38.7115
G01 X-58.9335 Y-38.6335
G01 X-59.0115 Y-38.5736
G01 X-59.1024 Y-38.5359
G01 X-59.1755 Y-38.5263
G01 X-60.3661 Y-38.5249
G01 X-60.5205 Y-38.4911
G01 X-60.6524 Y-38.4086
G01 X-64.8947 Y-34.1644
G01 X-64.9420 Y-34.1224
G01 X-65.0812 Y-34.0287
G01 X-65.2346 Y-33.9634
G01 X-65.3976 Y-33.9283
G01 X-67.0834 Y-33.9263
G01 X-67.1855 Y-33.9149
G01 X-67.2339 Y-33.9005
G01 X-67.3431 Y-33.8479
G01 X-67.5189 Y-33.7185
G01 X-67.7047 Y-33.6218
G01 X-67.9038 Y-33.5567
G01 X-68.1108 Y-33.5250
G01 X-68.3203 Y-33.5276
G01 X-68.5265 Y-33.5643
G01 X-68.7239 Y-33.6342
G01 X-68.9024 Y-33.7328
G01 X-69.0716 Y-33.8653
G01 X-69.2126 Y-34.0202
G01 X-69.3264 Y-34.1960
G01 X-69.4099 Y-34.3881
G01 X-69.4609 Y-34.5913
G01 X-69.4786 Y-34.8065
G01 X-69.4492 Y-35.0701
G01 X-69.3883 Y-35.2705
G01 X-69.2955 Y-35.4583
G01 X-69.1733 Y-35.6283
G01 X-69.0249 Y-35.7762
G01 X-68.8544 Y-35.8978
G01 X-68.6663 Y-35.9900
G01 X-68.4657 Y-36.0501
G01 X-68.2580 Y-36.0768
G01 X-68.0487 Y-36.0691
G01 X-67.8434 Y-36.0273
G01 X-67.6478 Y-35.9526
G01 X-67.4669 Y-35.8469
G01 X-67.3718 Y-35.7695
G01 X-67.2739 Y-35.7122
G01 X-67.1189 Y-35.6760
G01 X-66.0474 Y-35.6740
G01 X-65.9081 Y-35.6996
G01 X-65.8470 Y-35.7250
G01 X-65.7225 Y-35.8131
G01 X-61.9131 Y-39.6225
G01 X-61.8089 Y-39.7795
G01 X-61.7740 Y-39.9474
G01 X-61.7737 Y-41.1245
G01 X-61.7641 Y-41.1976
G01 X-61.7264 Y-41.2885
G01 X-61.6665 Y-41.3665
G01 X-61.5885 Y-41.4264
G01 X-61.4361 Y-41.4921
G01 X-61.3381 Y-41.5577
G01 X-61.3012 Y-41.5921
G01 X-61.2089 Y-41.7363
G01 X-61.1740 Y-41.9042
G01 X-61.1737 Y-54.3842
G01 X-61.1879 Y-54.4897
G01 X-61.2266 Y-54.6009
G01 X-61.2570 Y-54.6507
G01 X-61.3690 Y-54.7683
G01 X-61.4591 Y-54.8196
G01 X-61.5885 Y-54.8736
G01 X-61.6665 Y-54.9335
G01 X-61.7264 Y-55.0115
G01 X-61.7641 Y-55.1024
G01 X-61.7737 Y-55.1755
G01 X-61.7740 Y-56.3526
G01 X-61.7996 Y-56.4919
G01 X-61.8250 Y-56.5530
G01 X-61.9131 Y-56.6775
G01 X-62.9225 Y-57.6869
G01 X-63.0377 Y-57.7691
G01 X-63.1081 Y-57.8004
G01 X-63.2590 Y-57.8263
G01 X-67.0979 Y-57.8258
G01 X-67.1898 Y-57.8141
G01 X-67.2435 Y-57.7961
G01 X-67.3603 Y-57.7373
G01 X-67.5189 Y-57.6185
G01 X-67.7047 Y-57.5218
G01 X-67.9038 Y-57.4567
G01 X-68.1108 Y-57.4250
G01 X-68.3203 Y-57.4276
G01 X-68.5265 Y-57.4643
G01 X-68.7239 Y-57.5342
G01 X-68.9073 Y-57.6355
G01 X-69.0716 Y-57.7653
G01 X-69.2126 Y-57.9202
G01 X-69.3264 Y-58.0960
G01 X-69.4099 Y-58.2881
G01 X-69.4609 Y-58.4913
G01 X-69.4786 Y-58.7065
G01 X-69.4492 Y-58.9701
G01 X-69.3883 Y-59.1705
G01 X-69.2955 Y-59.3583
G01 X-69.1733 Y-59.5283
G01 X-69.0249 Y-59.6762
G01 X-68.8544 Y-59.7978
G01 X-68.6663 Y-59.8900
G01 X-68.4657 Y-59.9501
G01 X-68.2580 Y-59.9768
G01 X-68.0487 Y-59.9691
G01 X-67.8434 Y-59.9273
G01 X-67.6478 Y-59.8526
G01 X-67.4669 Y-59.7469
G01 X-67.3718 Y-59.6695
G01 X-67.2739 Y-59.6122
G01 X-67.0980 Y-59.5740
G01 X-62.6786 Y-59.5774
G01 X-62.5130 Y-59.5575
G01 X-62.3542 Y-59.5067
G01 X-62.2961 Y-59.4792
G01 X-62.1560 Y-59.3888
G01 X-60.6775 Y-57.9131
G01 X-60.5377 Y-57.8166
G01 X-60.4913 Y-57.7994
G01 X-60.3526 Y-57.7740
G01 X-59.1755 Y-57.7737
G01 X-59.1024 Y-57.7641
G01 X-59.0115 Y-57.7264
G01 X-58.9335 Y-57.6665
G01 X-58.8736 Y-57.5885
G01 X-58.8359 Y-57.4976
G01 X-58.8263 Y-57.4245
G01 X-58.8263 Y-55.1755
G01 X-58.8359 Y-55.1024
G01 X-58.8736 Y-55.0115
G01 X-58.9335 Y-54.9335
G01 X-59.0115 Y-54.8736
G01 X-59.1639 Y-54.8079
G01 X-59.2619 Y-54.7423
G01 X-59.2988 Y-54.7079
G01 X-59.3911 Y-54.5637
G01 X-59.4260 Y-54.3958
G01 X-59.4262 Y-41.9090
G01 X-59.4121 Y-41.8103
G01 X-59.3734 Y-41.6991
G01 X-59.3430 Y-41.6493
G01 X-59.2310 Y-41.5317
G01 X-59.1409 Y-41.4804
G01 X-59.0115 Y-41.4264
G01 X-58.9335 Y-41.3665
G01 X-58.8736 Y-41.2885
G01 X-58.8182 Y-41.1549
G01 X-58.7423 Y-41.0381
G01 X-58.6956 Y-40.9914
G01 X-58.6055 Y-40.9309
G01 X-58.5351 Y-40.8996
G01 X-58.3842 Y-40.8737
G01 X-39.8154 Y-40.8737
G01 X-39.7130 Y-40.8575
G01 X-39.5542 Y-40.8067
G01 X-39.4079 Y-40.7268
G01 X-39.3560 Y-40.6888
G01 X-37.3644 Y-38.7053
G01 X-37.1755 Y-38.4682
G01 X-37.0642 Y-38.3937
G01 X-37.0140 Y-38.3698
G01 X-36.8860 Y-38.3447
G01 X-36.8305 Y-38.3419
G01 X-36.6596 Y-38.3818
G01 X-36.5165 Y-38.4799
G01 X-35.5103 Y-39.4853
G01 X-35.4366 Y-39.5806
G01 X-35.3818 Y-39.7268
G01 X-35.3711 Y-39.7889
G01 X-35.3150 Y-39.9736
G01 X-35.2295 Y-40.1466
G01 X-35.1413 Y-40.2832
G01 X-35.1171 Y-40.3490
G01 X-35.0940 Y-40.4772
G01 X-35.0937 Y-41.1291
G01 X-35.1046 Y-41.2290
G01 X-35.1496 Y-41.3480
G01 X-35.2579 Y-41.5235
G01 X-35.3349 Y-41.7005
G01 X-35.4092 Y-41.9809
G01 X-35.4852 Y-42.1034
G01 X-36.5776 Y-43.2020
G01 X-36.6713 Y-43.3412
G01 X-36.7149 Y-43.4341
G01 X-36.7618 Y-43.5940
G01 X-36.7717 Y-43.6576
G01 X-36.7754 Y-43.8269
G01 X-36.7737 Y-48.8505
G01 X-36.8089 Y-49.0300
G01 X-36.8914 Y-49.1619
G01 X-36.9381 Y-49.2086
G01 X-37.0565 Y-49.2852
G01 X-37.0992 Y-49.3006
G01 X-37.2379 Y-49.3260
G01 X-42.7576 Y-49.3262
G01 X-42.8462 Y-49.3153
G01 X-42.9796 Y-49.2676
G01 X-43.0249 Y-49.2367
G01 X-43.1335 Y-49.1335
G01 X-43.2115 Y-49.0736
G01 X-43.3024 Y-49.0359
G01 X-43.3755 Y-49.0263
G01 X-45.0245 Y-49.0263
G01 X-45.0976 Y-49.0359
G01 X-45.1885 Y-49.0736
G01 X-45.2665 Y-49.1335
G01 X-45.3264 Y-49.2115
G01 X-45.3641 Y-49.3024
G01 X-45.3737 Y-49.3755
G01 X-45.3737 Y-51.0245
G01 X-45.3641 Y-51.0976
G01 X-45.3264 Y-51.1885
G01 X-45.2665 Y-51.2665
G01 X-45.1885 Y-51.3264
G01 X-45.0976 Y-51.3641
G01 X-45.0245 Y-51.3737
G01 X-43.3755 Y-51.3737
G01 X-43.3024 Y-51.3641
G01 X-43.2115 Y-51.3264
G01 X-43.1335 Y-51.2665
G01 X-43.0745 Y-51.2012
G01 X-42.9476 Y-51.1166
G01 X-42.9012 Y-51.0994
G01 X-42.7624 Y-51.0740
G01 X-36.6087 Y-51.0737
G01 X-36.5154 Y-51.0832
G01 X-36.4685 Y-51.0963
G01 X-36.3599 Y-51.1453
G01 X-36.2631 Y-51.2116
G01 X-36.0897 Y-51.2965
G01 X-35.9049 Y-51.3520
G01 X-35.7134 Y-51.3765
G01 X-35.5206 Y-51.3694
G01 X-35.3314 Y-51.3310
G01 X-35.1511 Y-51.2621
G01 X-34.9845 Y-51.1647
G01 X-34.8360 Y-51.0415
G01 X-34.7039 Y-50.8892
G01 X-34.6516 Y-50.8419
G01 X-34.5290 Y-50.7659
G01 X-34.3611 Y-50.7310
G01 X-34.3122 Y-50.7338
G01 X-34.1784 Y-50.7628
G01 X-34.0474 Y-50.8419
G01 X-33.9914 Y-50.8951
G01 X-33.9250 Y-50.9946
G01 X-33.9043 Y-51.0395
G01 X-33.8737 Y-51.2065
G01 X-33.8739 Y-54.7588
G01 X-33.8800 Y-54.8255
G01 X-33.8938 Y-54.8777
G01 X-33.9439 Y-54.9976
G01 X-34.0379 Y-55.1435
G01 X-34.1149 Y-55.3205
G01 X-34.1619 Y-55.5076
G01 X-34.1783 Y-55.7065
G01 X-34.1511 Y-55.9489
G01 X-34.0950 Y-56.1336
G01 X-34.0095 Y-56.3066
G01 X-33.9163 Y-56.4363
G01 X-33.7602 Y-56.5995
G01 X-33.6031 Y-56.7116
G01 X-33.4297 Y-56.7965
G01 X-33.2449 Y-56.8520
G01 X-33.0534 Y-56.8765
G01 X-32.8398 Y-56.8703
G01 X-32.6793 Y-56.9010
G01 X-32.6282 Y-56.9265
G01 X-32.5131 Y-57.0087
G01 X-32.4089 Y-57.1656
G01 X-32.3737 Y-57.3452
G01 X-32.3737 Y-59.9505
G01 X-32.3996 Y-60.1013
G01 X-32.4250 Y-60.1625
G01 X-32.4849 Y-60.2526
G01 X-32.5381 Y-60.3086
G01 X-32.6700 Y-60.3911
G01 X-32.8171 Y-60.4240
G01 X-33.2700 Y-60.4263
G01 X-33.3764 Y-60.4141
G01 X-33.5209 Y-60.3525
G01 X-33.5924 Y-60.3034
G01 X-33.7636 Y-60.2143
G01 X-33.9471 Y-60.1543
G01 X-34.1378 Y-60.1251
G01 X-34.3308 Y-60.1275
G01 X-34.5208 Y-60.1613
G01 X-34.7028 Y-60.2258
G01 X-34.8717 Y-60.3190
G01 X-35.0232 Y-60.4387
G01 X-35.1531 Y-60.5814
G01 X-35.2579 Y-60.7435
G01 X-35.3349 Y-60.9205
G01 X-35.3819 Y-61.1076
G01 X-35.3983 Y-61.3065
G01 X-35.3711 Y-61.5489
G01 X-35.3150 Y-61.7336
G01 X-35.2295 Y-61.9066
G01 X-35.1169 Y-62.0633
G01 X-35.0048 Y-62.1784
G01 X-34.9381 Y-62.2779
G01 X-34.9123 Y-62.3397
G01 X-34.8888 Y-62.4581
G01 X-34.8879 Y-62.5155
G01 X-34.9098 Y-62.6300
G01 X-34.9377 Y-62.7025
G01 X-35.0258 Y-62.8269
G01 X-35.1693 Y-62.9252
G01 X-35.2227 Y-62.9430
G01 X-35.3623 Y-62.9663
G01 X-37.5858 Y-62.9661
G01 X-37.6678 Y-62.9571
G01 X-37.7649 Y-62.9253
G01 X-37.9836 Y-62.8143
G01 X-38.1671 Y-62.7543
G01 X-38.3578 Y-62.7251
G01 X-38.5508 Y-62.7275
G01 X-38.7408 Y-62.7613
G01 X-38.9228 Y-62.8258
G01 X-39.0942 Y-62.9210
G01 X-39.2432 Y-63.0387
G01 X-39.3731 Y-63.1814
G01 X-39.4779 Y-63.3435
G01 X-39.5549 Y-63.5205
G01 X-39.6019 Y-63.7076
G01 X-39.6183 Y-63.9065
G01 X-39.5911 Y-64.1489
G01 X-39.5350 Y-64.3336
G01 X-39.4495 Y-64.5066
G01 X-39.3956 Y-64.5823
G01 X-39.3522 Y-64.6614
G01 X-39.3140 Y-64.8372
G01 X-39.3139 Y-68.0588
G01 X-39.3246 Y-68.1490
G01 X-39.3736 Y-68.2775
G01 X-39.4779 Y-68.4435
G01 X-39.5549 Y-68.6205
G01 X-39.6019 Y-68.8076
G01 X-39.6172 Y-69.0510
G01 X-39.5911 Y-69.2489
G01 X-39.5350 Y-69.4336
G01 X-39.4495 Y-69.6066
G01 X-39.3841 Y-69.6976
G01 X-39.3369 Y-69.7633
G01 X-39.2002 Y-69.8995
G01 X-39.0431 Y-70.0116
G01 X-38.8697 Y-70.0965
G01 X-38.6849 Y-70.1520
G01 X-38.4934 Y-70.1765
G01 X-38.3006 Y-70.1694
G01 X-38.1114 Y-70.1310
G01 X-37.9311 Y-70.0621
G01 X-37.7645 Y-69.9647
G01 X-37.6160 Y-69.8415
G01 X-37.4896 Y-69.6956
G01 X-37.3888 Y-69.5310
G01 X-37.3162 Y-69.3522
G01 X-37.2737 Y-69.1639
G01 X-37.2626 Y-68.9712
G01 X-37.2831 Y-68.7793
G01 X-37.3347 Y-68.5933
G01 X-37.4160 Y-68.4183
G01 X-37.4895 Y-68.3101
G01 X-37.5311 Y-68.2306
G01 X-37.5660 Y-68.0626
G01 X-37.5660 Y-65.1779
G01 X-37.5311 Y-65.0100
G01 X-37.4486 Y-64.8781
G01 X-37.4019 Y-64.8314
G01 X-37.2835 Y-64.7548
G01 X-37.2408 Y-64.7394
G01 X-37.1021 Y-64.7140
G01 X-35.1567 Y-64.7140
G01 X-35.0754 Y-64.7232
G01 X-35.0196 Y-64.7401
G01 X-34.9199 Y-64.7853
G01 X-34.8231 Y-64.8516
G01 X-34.6497 Y-64.9365
G01 X-34.4649 Y-64.9920
G01 X-34.2734 Y-65.0165
G01 X-34.0806 Y-65.0094
G01 X-33.8914 Y-64.9710
G01 X-33.7111 Y-64.9021
G01 X-33.5445 Y-64.8047
G01 X-33.3960 Y-64.6815
G01 X-33.2696 Y-64.5356
G01 X-33.1688 Y-64.3710
G01 X-33.0962 Y-64.1922
G01 X-33.0537 Y-64.0039
G01 X-33.0426 Y-63.8112
G01 X-33.0604 Y-63.6448
G01 X-33.1147 Y-63.4333
G01 X-33.1960 Y-63.2583
G01 X-33.3047 Y-63.0988
G01 X-33.4270 Y-62.9705
G01 X-33.5020 Y-62.8590
G01 X-33.5262 Y-62.7992
G01 X-33.5504 Y-62.6745
G01 X-33.5495 Y-62.6171
G01 X-33.5212 Y-62.4825
G01 X-33.5005 Y-62.4375
G01 X-33.4406 Y-62.3474
G01 X-33.3781 Y-62.2849
G01 X-33.2880 Y-62.2250
G01 X-33.2268 Y-62.1996
G01 X-33.0760 Y-62.1737
G01 X-28.0491 Y-62.1737
G01 X-27.9674 Y-62.1812
G01 X-27.8415 Y-62.2229
G01 X-27.8015 Y-62.2434
G01 X-27.5465 Y-62.4648
G01 X-27.4700 Y-62.5673
G01 X-27.4482 Y-62.6082
G01 X-27.4099 Y-62.7598
G01 X-27.4106 Y-62.8217
G01 X-27.4388 Y-62.9682
G01 X-27.5052 Y-63.0842
G01 X-27.6379 Y-63.2835
G01 X-27.7149 Y-63.4605
G01 X-27.7619 Y-63.6476
G01 X-27.7772 Y-63.8910
G01 X-27.7511 Y-64.0889
G01 X-27.6950 Y-64.2736
G01 X-27.6095 Y-64.4466
G01 X-27.4969 Y-64.6033
G01 X-27.3602 Y-64.7395
G01 X-27.2031 Y-64.8516
G01 X-27.0297 Y-64.9365
G01 X-26.8449 Y-64.9920
G01 X-26.6534 Y-65.0165
G01 X-26.4606 Y-65.0094
G01 X-26.2714 Y-64.9710
G01 X-26.0911 Y-64.9021
G01 X-25.8183 Y-64.7466
G01 X-25.6561 Y-64.7140
G01 X-23.4328 Y-64.7137
G01 X-23.3395 Y-64.7232
G01 X-23.2837 Y-64.7401
G01 X-23.1680 Y-64.7945
G01 X-23.0031 Y-64.9116
G01 X-22.8297 Y-64.9965
G01 X-22.6449 Y-65.0520
G01 X-22.4534 Y-65.0765
G01 X-22.2606 Y-65.0694
G01 X-22.0714 Y-65.0310
G01 X-21.8911 Y-64.9621
G01 X-21.7245 Y-64.8647
G01 X-21.5760 Y-64.7415
G01 X-21.4496 Y-64.5956
G01 X-21.3488 Y-64.4310
G01 X-21.2762 Y-64.2522
G01 X-21.2337 Y-64.0639
G01 X-21.2226 Y-63.8712
G01 X-21.2431 Y-63.6793
G01 X-21.2947 Y-63.4933
G01 X-21.3760 Y-63.3183
G01 X-21.4847 Y-63.1588
G01 X-21.6181 Y-63.0193
G01 X-21.7724 Y-62.9034
G01 X-21.9436 Y-62.8143
G01 X-22.1238 Y-62.7505
G01 X-22.2326 Y-62.6762
G01 X-22.2679 Y-62.6433
G01 X-22.3452 Y-62.5261
G01 X-22.3639 Y-62.4845
G01 X-22.3910 Y-62.3421
G01 X-22.3870 Y-62.2680
G01 X-22.3474 Y-62.1208
G01 X-22.2538 Y-61.9870
G01 X-20.7644 Y-60.5053
G01 X-20.6614 Y-60.3742
G01 X-20.5851 Y-60.2259
G01 X-20.5382 Y-60.0660
G01 X-20.5263 Y-59.9429
G01 X-20.5260 Y-58.3379
G01 X-20.4911 Y-58.1700
G01 X-20.4151 Y-58.0474
G01 X-20.3619 Y-57.9914
G01 X-20.2472 Y-57.9166
G01 X-20.2008 Y-57.8994
G01 X-20.0621 Y-57.8740
G01 X-17.6786 Y-57.8774
G01 X-17.6154 Y-57.8737
G01 X-17.4507 Y-57.8415
G01 X-17.2961 Y-57.7792
G01 X-17.2079 Y-57.7268
G01 X-17.1123 Y-57.6479
G01 X-16.4644 Y-57.0053
G01 X-16.3614 Y-56.8742
G01 X-16.2851 Y-56.7259
G01 X-16.2634 Y-56.6654
G01 X-16.2283 Y-56.5024
G01 X-16.2262 Y-55.9424
G01 X-16.2153 Y-55.8538
G01 X-16.1566 Y-55.7015
G01 X-16.0335 Y-55.5665
G01 X-15.9736 Y-55.4885
G01 X-15.9359 Y-55.3976
G01 X-15.9263 Y-55.3245
G01 X-15.9263 Y-53.6755
G01 X-15.9359 Y-53.6024
G01 X-15.9736 Y-53.5115
G01 X-16.0335 Y-53.4335
G01 X-16.1115 Y-53.3736
G01 X-16.2024 Y-53.3359
G01 X-16.2755 Y-53.3263
G01 X-17.9245 Y-53.3263
G01 X-17.9976 Y-53.3359
G01 X-18.0885 Y-53.3736
G01 X-18.1665 Y-53.4335
G01 X-18.2264 Y-53.5115
G01 X-18.2641 Y-53.6024
G01 X-18.2737 Y-53.6755
G01 X-18.2737 Y-55.3245
G01 X-18.2641 Y-55.3976
G01 X-18.2218 Y-55.5110
G01 X-18.1988 Y-55.6621
G01 X-18.2242 Y-55.8008
G01 X-18.2414 Y-55.8472
G01 X-18.3163 Y-55.9619
G01 X-18.3722 Y-56.0151
G01 X-18.4948 Y-56.0911
G01 X-18.6628 Y-56.1260
G01 X-20.4645 Y-56.1258
G01 X-20.5520 Y-56.1149
G01 X-20.6005 Y-56.1005
G01 X-20.7065 Y-56.0496
G01 X-20.7724 Y-56.0034
G01 X-20.9436 Y-55.9143
G01 X-21.1271 Y-55.8543
G01 X-21.3178 Y-55.8251
G01 X-21.5108 Y-55.8275
G01 X-21.7008 Y-55.8613
G01 X-21.8828 Y-55.9258
G01 X-22.0517 Y-56.0190
G01 X-22.2032 Y-56.1387
G01 X-22.3331 Y-56.2814
G01 X-22.4379 Y-56.4435
G01 X-22.5149 Y-56.6205
G01 X-22.5619 Y-56.8076
G01 X-22.5783 Y-57.0065
G01 X-22.5511 Y-57.2489
G01 X-22.4950 Y-57.4336
G01 X-22.4095 Y-57.6066
G01 X-22.3556 Y-57.6823
G01 X-22.3122 Y-57.7614
G01 X-22.2751 Y-57.9238
G01 X-22.2781 Y-59.3853
G01 X-22.3148 Y-59.5340
G01 X-22.4012 Y-59.6647
G01 X-23.0225 Y-60.2869
G01 X-23.1470 Y-60.3750
G01 X-23.2087 Y-60.4006
G01 X-23.3590 Y-60.4263
G01 X-25.1657 Y-60.4258
G01 X-25.2462 Y-60.4153
G01 X-25.3796 Y-60.3676
G01 X-25.4249 Y-60.3367
G01 X-25.5335 Y-60.2335
G01 X-25.6115 Y-60.1736
G01 X-25.7024 Y-60.1359
G01 X-25.7755 Y-60.1263
G01 X-27.4245 Y-60.1263
G01 X-27.4976 Y-60.1359
G01 X-27.5885 Y-60.1736
G01 X-27.6665 Y-60.2335
G01 X-27.7255 Y-60.2988
G01 X-27.8524 Y-60.3834
G01 X-27.8988 Y-60.4006
G01 X-28.0241 Y-60.4249
G01 X-30.1505 Y-60.4263
G01 X-30.2900 Y-60.4030
G01 X-30.3472 Y-60.3834
G01 X-30.4869 Y-60.2869
G01 X-30.5691 Y-60.1718
G01 X-30.6004 Y-60.1013
G01 X-30.6260 Y-59.9621
G01 X-30.6263 Y-49.8495
G01 X-30.5911 Y-49.6700
G01 X-30.4948 Y-49.5213
G01 X-30.4526 Y-49.4849
G01 X-30.3435 Y-49.4148
G01 X-30.1878 Y-49.3768
G01 X-27.1128 Y-49.3737
G01 X-27.0138 Y-49.3845
G01 X-26.9664 Y-49.3980
G01 X-26.8565 Y-49.4501
G01 X-26.7962 Y-49.4974
G01 X-26.7068 Y-49.6014
G01 X-26.6491 Y-49.7484
G01 X-26.6396 Y-49.8131
G01 X-26.6448 Y-49.9214
G01 X-26.6619 Y-50.0076
G01 X-26.6783 Y-50.2065
G01 X-26.6511 Y-50.4489
G01 X-26.5950 Y-50.6336
G01 X-26.5095 Y-50.8066
G01 X-26.3969 Y-50.9633
G01 X-26.3489 Y-51.0112
G01 X-26.2602 Y-51.0995
G01 X-26.1031 Y-51.2116
G01 X-25.9297 Y-51.2965
G01 X-25.7449 Y-51.3520
G01 X-25.5534 Y-51.3765
G01 X-25.3606 Y-51.3694
G01 X-25.1714 Y-51.3310
G01 X-24.9911 Y-51.2621
G01 X-24.7183 Y-51.1066
G01 X-24.5446 Y-51.0737
G01 X-9.6590 Y-51.0737
G01 X-9.5087 Y-51.0994
G01 X-9.4470 Y-51.1250
G01 X-9.3225 Y-51.2131
G01 X-8.1869 Y-52.3515
G01 X-8.1328 Y-52.4244
G01 X-8.1125 Y-52.4682
G01 X-8.0729 Y-52.5925
G01 X-8.0492 Y-52.7701
G01 X-7.9883 Y-52.9705
G01 X-7.8955 Y-53.1583
G01 X-7.7733 Y-53.3283
G01 X-7.6249 Y-53.4762
G01 X-7.4544 Y-53.5978
G01 X-7.2663 Y-53.6900
G01 X-7.0657 Y-53.7501
G01 X-6.8580 Y-53.7768
G01 X-6.5379 Y-53.7590
G01 X-6.3700 Y-53.7938
G01 X-6.2131 Y-53.8980
G01 X-6.1089 Y-54.0549
G01 X-6.0737 Y-54.2345
G01 X-6.0737 Y-59.6410
G01 X-6.1043 Y-59.8080
G01 X-6.1250 Y-59.8530
G01 X-6.2048 Y-59.9687
G01 X-7.0476 Y-60.8086
G01 X-7.1470 Y-60.8750
G01 X-7.2194 Y-60.9030
G01 X-7.3474 Y-60.9260
G01 X-7.6057 Y-60.9273
G01 X-7.7416 Y-60.9612
G01 X-7.8630 Y-61.0215
G01 X-7.9686 Y-61.1064
G01 X-8.0535 Y-61.2120
G01 X-8.1138 Y-61.3334
G01 X-8.1487 Y-61.4842
G01 X-8.1487 Y-62.3158
G01 X-8.1171 Y-62.4582
G01 X-8.1079 Y-62.5356
G01 X-8.1105 Y-62.5878
G01 X-8.1426 Y-62.7300
G01 X-8.2186 Y-62.8526
G01 X-8.2596 Y-62.8988
G01 X-8.3713 Y-62.9750
G01 X-8.4330 Y-63.0006
G01 X-8.5832 Y-63.0263
G01 X-11.3045 Y-63.0258
G01 X-11.3920 Y-63.0149
G01 X-11.4405 Y-63.0005
G01 X-11.5465 Y-62.9496
G01 X-11.6124 Y-62.9034
G01 X-11.7836 Y-62.8143
G01 X-11.9671 Y-62.7543
G01 X-12.1578 Y-62.7251
G01 X-12.3508 Y-62.7275
G01 X-12.5408 Y-62.7613
G01 X-12.7228 Y-62.8258
G01 X-12.8942 Y-62.9210
G01 X-13.0432 Y-63.0387
G01 X-13.1731 Y-63.1814
G01 X-13.2779 Y-63.3435
G01 X-13.3549 Y-63.5205
G01 X-13.4019 Y-63.7076
G01 X-13.4183 Y-63.9065
G01 X-13.3911 Y-64.1489
G01 X-13.3350 Y-64.3336
G01 X-13.2495 Y-64.5066
G01 X-13.1369 Y-64.6633
G01 X-13.0002 Y-64.7995
G01 X-12.8431 Y-64.9116
G01 X-12.6697 Y-64.9965
G01 X-12.4849 Y-65.0520
G01 X-12.2934 Y-65.0765
G01 X-12.1006 Y-65.0694
G01 X-11.9114 Y-65.0310
G01 X-11.7311 Y-64.9621
G01 X-11.4583 Y-64.8066
G01 X-11.2961 Y-64.7740
G01 X-7.7156 Y-64.7737
G01 X-7.5743 Y-64.7963
G01 X-7.3532 Y-64.8615
G01 X-7.2206 Y-64.8737
G01 X-6.5669 Y-64.8737
G01 X-6.4217 Y-64.8565
G01 X-6.2508 Y-64.8035
G01 X-6.0924 Y-64.7201
G01 X-5.9519 Y-64.6093
G01 X-5.8339 Y-64.4748
G01 X-5.7424 Y-64.3210
G01 X-5.6804 Y-64.1531
G01 X-5.6501 Y-63.9767
G01 X-5.6525 Y-63.7978
G01 X-5.6874 Y-63.6223
G01 X-5.7537 Y-63.4560
G01 X-5.8991 Y-63.2263
G01 X-5.9423 Y-63.0949
G01 X-5.9498 Y-63.0372
G01 X-5.9392 Y-62.9096
G01 X-5.9210 Y-62.8467
G01 X-5.8531 Y-62.7212
G01 X-5.7465 Y-62.5880
G01 X-5.6862 Y-62.4666
G01 X-5.6523 Y-62.3307
G01 X-5.6510 Y-62.0724
G01 X-5.6193 Y-61.9129
G01 X-5.5941 Y-61.8627
G01 X-5.5119 Y-61.7475
G01 X-4.5224 Y-60.7580
G01 X-4.4287 Y-60.6188
G01 X-4.3634 Y-60.4654
G01 X-4.3283 Y-60.3024
G01 X-4.3246 Y-60.1331
G01 X-4.3263 Y-41.1154
G01 X-4.3425 Y-41.0130
G01 X-4.3933 Y-40.8542
G01 X-4.4732 Y-40.7079
G01 X-4.5112 Y-40.6560
G01 X-5.3947 Y-39.7697
G01 X-5.4663 Y-39.6772
G01 X-5.4891 Y-39.6325
G01 X-5.5258 Y-39.5153
G01 X-5.5446 Y-39.3605
G01 X-5.6005 Y-39.1587
G01 X-5.6887 Y-38.9687
G01 X-5.8067 Y-38.7957
G01 X-5.9515 Y-38.6443
G01 X-6.1189 Y-38.5185
G01 X-6.3047 Y-38.4218
G01 X-6.5038 Y-38.3567
G01 X-6.7108 Y-38.3250
G01 X-6.9203 Y-38.3276
G01 X-7.1265 Y-38.3643
G01 X-7.3239 Y-38.4342
G01 X-7.5073 Y-38.5355
G01 X-7.6318 Y-38.6331
G01 X-7.7267 Y-38.6878
G01 X-7.9026 Y-38.7260
G01 X-16.7384 Y-38.7244
G01 X-16.8507 Y-38.7042
G01 X-16.9893 Y-38.6346
G01 X-17.1023 Y-38.5157
G01 X-17.1392 Y-38.4479
G01 X-17.1737 Y-38.3455
G01 X-17.1824 Y-38.2808
G01 X-17.1709 Y-38.1377
G01 X-17.1311 Y-37.9875
G01 X-17.1148 Y-37.7991
G01 X-17.1311 Y-37.6125
G01 X-17.1735 Y-37.4535
G01 X-17.2186 Y-37.4985
G01 X-17.1910 Y-37.6106
G01 X-17.1735 Y-37.7889
G01 X-17.1784 Y-37.9035
G01 X-17.1940 Y-38.0053
G01 X-17.2172 Y-38.0974
G01 X-17.2536 Y-38.1983
G01 X-17.3425 Y-38.3647
G01 X-17.4094 Y-38.4551
G01 X-17.4739 Y-38.5261
G01 X-17.5449 Y-38.5906
G01 X-17.6353 Y-38.6575
G01 X-17.8017 Y-38.7464
G01 X-17.9026 Y-38.7828
G01 X-18.0106 Y-38.8090
G01 X-18.1889 Y-38.8265
G01 X-18.3035 Y-38.8216
G01 X-18.4112 Y-38.8046
G01 X-18.5826 Y-38.7526
G01 X-18.6741 Y-38.7106
G01 X-18.7796 Y-38.6473
G01 X-18.9180 Y-38.5337
G01 X-18.9865 Y-38.4598
G01 X-19.0575 Y-38.3647
G01 X-19.1106 Y-38.2741
G01 X-19.1791 Y-38.1086
G01 X-19.2046 Y-38.0112
G01 X-19.2216 Y-37.9035
G01 X-19.2265 Y-37.7889
G01 X-19.2090 Y-37.6106
G01 X-19.1814 Y-37.4985
G01 X-19.2265 Y-37.4535
G01 X-19.2689 Y-37.6125
G01 X-19.2852 Y-37.7991
G01 X-19.2689 Y-37.9875
G01 X-19.2280 Y-38.1429
G01 X-19.2162 Y-38.2318
G01 X-19.2176 Y-38.2817
G01 X-19.2413 Y-38.4013
G01 X-19.2667 Y-38.4625
G01 X-19.3548 Y-38.5869
G01 X-19.4792 Y-38.6750
G01 X-19.5517 Y-38.7030
G01 X-19.6912 Y-38.7263
G01 X-25.1916 Y-38.7263
G01 X-25.3167 Y-38.7095
G01 X-25.4497 Y-38.6488
G01 X-25.5097 Y-38.6012
G01 X-25.6063 Y-38.4835
G01 X-25.6605 Y-38.3299
G01 X-25.6645 Y-38.2735
G01 X-25.6495 Y-38.1219
G01 X-25.5898 Y-37.9924
G01 X-25.5503 Y-37.9351
G01 X-25.5210 Y-37.8561
G01 X-25.5188 Y-37.4808
G01 X-25.5732 Y-37.4808
G01 X-25.5732 Y-37.8000
G01 X-25.5927 Y-37.8921
G01 X-25.6483 Y-37.9686
G01 X-25.6867 Y-37.9965
G01 X-25.7529 Y-38.0219
G01 X-27.4000 Y-38.0268
G01 X-27.4921 Y-38.0073
G01 X-27.5686 Y-37.9517
G01 X-27.6073 Y-37.8921
G01 X-27.6268 Y-37.8000
G01 X-27.6219 Y-36.1529
G01 X-27.5965 Y-36.0867
G01 X-27.5686 Y-36.0483
G01 X-27.4921 Y-35.9927
G01 X-27.4000 Y-35.9732
G01 X-27.0808 Y-35.9732
G01 X-27.0808 Y-35.9188
G01 X-27.4364 Y-35.9189
G01 X-27.5226 Y-35.9417
G01 X-27.6505 Y-35.9612
G01 X-27.8300 Y-35.9260
G01 X-27.9619 Y-35.8435
G01 X-28.0151 Y-35.7875
G01 X-28.0943 Y-35.6566
G01 X-28.1263 Y-35.4854
G01 X-28.1249 Y-33.7339
G01 X-28.1006 Y-33.6087
G01 X-28.0834 Y-33.5623
G01 X-28.0086 Y-33.4476
G01 X-27.9417 Y-33.3780
G01 X-27.8421 Y-33.3062
G01 X-27.7112 Y-33.2598
G01 X-27.6672 Y-33.2518
G01 X-27.5454 Y-33.2573
G01 X-27.4245 Y-33.2737
G01 X-25.7755 Y-33.2737
G01 X-25.7024 Y-33.2641
G01 X-25.6115 Y-33.2264
G01 X-25.5335 Y-33.1665
G01 X-25.4736 Y-33.0885
G01 X-25.4359 Y-32.9976
G01 X-25.4263 Y-32.9245
G01 X-25.4263 Y-31.2755
G01 X-25.4359 Y-31.2024
G01 X-25.4736 Y-31.1115
G01 X-25.5335 Y-31.0335
G01 X-25.6115 Y-30.9736
G01 X-25.7024 Y-30.9359
G01 X-25.7755 Y-30.9263
G01 X-27.4245 Y-30.9263
G01 X-27.4976 Y-30.9359
G01 X-27.5885 Y-30.9736
G01 X-27.6665 Y-31.0335
G01 X-27.6969 Y-31.0692
G01 X-27.7904 Y-31.1504
G01 X-27.8382 Y-31.1792
G01 X-27.9545 Y-31.2202
G01 X-28.1493 Y-31.2585
G01 X-28.3039 Y-31.3208
G01 X-28.4440 Y-31.4112
G01 X-28.7391 Y-31.7001
G01 X-28.8385 Y-31.7665
G01 X-28.8997 Y-31.7920
G01 X-29.0621 Y-31.8175
G01 X-29.2008 Y-31.7921
G01 X-29.2472 Y-31.7749
G01 X-29.3619 Y-31.7001
G01 X-29.3948 Y-31.6702
G01 X-29.4750 Y-31.5540
G01 X-29.5004 Y-31.4929
G01 X-29.5263 Y-31.3420
G01 X-29.5263 Y-29.0590
G01 X-29.5006 Y-28.9087
G01 X-29.4750 Y-28.8470
G01 X-29.3952 Y-28.7313
G01 X-28.9687 Y-28.3048
G01 X-28.8340 Y-28.2148
G01 X-28.6783 Y-28.1768
G01 X-26.5630 Y-28.1752
G01 X-26.4954 Y-28.1832
G01 X-26.4396 Y-28.2001
G01 X-26.3399 Y-28.2453
G01 X-26.2431 Y-28.3116
G01 X-26.0697 Y-28.3965
G01 X-25.8849 Y-28.4520
G01 X-25.6934 Y-28.4765
G01 X-25.5006 Y-28.4694
G01 X-25.3114 Y-28.4310
G01 X-25.1311 Y-28.3621
G01 X-24.9645 Y-28.2647
G01 X-24.8160 Y-28.1415
G01 X-24.6338 Y-27.9239
G01 X-24.5893 Y-27.8849
G01 X-24.4667 Y-27.8089
G01 X-24.2987 Y-27.7740
G01 X-7.7156 Y-27.7737
G01 X-7.5743 Y-27.7963
G01 X-7.3532 Y-27.8615
G01 X-7.2206 Y-27.8737
G01 X-6.5669 Y-27.8737
G01 X-6.4217 Y-27.8565
G01 X-6.2508 Y-27.8035
G01 X-6.0924 Y-27.7201
G01 X-5.9519 Y-27.6093
G01 X-5.8339 Y-27.4748
G01 X-5.7424 Y-27.3210
G01 X-5.6804 Y-27.1531
G01 X-5.6501 Y-26.9767
G01 X-5.6525 Y-26.7978
G01 X-5.6874 Y-26.6223
G01 X-5.7537 Y-26.4560
G01 X-5.8991 Y-26.2263
G01 X-5.9423 Y-26.0949
G01 X-5.9496 Y-26.0282
G01 X-5.9392 Y-25.9096
G01 X-5.9210 Y-25.8467
G01 X-5.8531 Y-25.7212
G01 X-5.7465 Y-25.5880
G01 X-5.6862 Y-25.4666
G01 X-5.6523 Y-25.3307
G01 X-5.6523 Y-24.4693
G01 X-5.6862 Y-24.3334
G01 X-5.7465 Y-24.2120
G01 X-5.8314 Y-24.1064
G01 X-5.9370 Y-24.0215
G01 X-6.0584 Y-23.9612
G01 X-6.1943 Y-23.9273
G01 X-7.5908 Y-23.9263
G01 X-7.7416 Y-23.9612
G01 X-7.8322 Y-24.0001
G01 X-7.9844 Y-24.0263
G01 X-22.3810 Y-24.0263
G01 X-22.5522 Y-23.9943
G01 X-22.6831 Y-23.9151
G01 X-24.3686 Y-22.2326
G01 X-24.4189 Y-22.1645
G01 X-24.4417 Y-22.1199
G01 X-24.5347 Y-21.7933
G01 X-24.6160 Y-21.6183
G01 X-24.7247 Y-21.4588
G01 X-24.8581 Y-21.3193
G01 X-25.1319 Y-21.1182
G01 X-25.2323 Y-20.9746
G01 X-25.2519 Y-20.9174
G01 X-25.2752 Y-20.7779
G01 X-25.2495 Y-20.6276
G01 X-25.2239 Y-20.5659
G01 X-25.1358 Y-20.4414
G01 X-23.4987 Y-18.8048
G01 X-23.3640 Y-18.7148
G01 X-23.2083 Y-18.6768
G01 X-22.1259 Y-18.6737
G01 X-21.9871 Y-18.6957
G01 X-21.9263 Y-18.7190
G01 X-21.8243 Y-18.7831
G01 X-21.7137 Y-18.8844
G01 X-21.5372 Y-19.0044
G01 X-21.3438 Y-19.0946
G01 X-21.1384 Y-19.1527
G01 X-20.9264 Y-19.1772
G01 X-20.7132 Y-19.1675
G01 X-20.5043 Y-19.1239
G01 X-20.3051 Y-19.0474
G01 X-20.1207 Y-18.9401
G01 X-19.9200 Y-18.7724
G01 X-19.8132 Y-18.7003
G01 X-19.7596 Y-18.6806
G01 X-19.6144 Y-18.6534
G01 X-19.4742 Y-18.6741
G01 X-19.4285 Y-18.6883
G01 X-19.3059 Y-18.7627
G01 X-19.1737 Y-18.8844
G01 X-18.9972 Y-19.0044
G01 X-18.8038 Y-19.0946
G01 X-18.5984 Y-19.1527
G01 X-18.3864 Y-19.1772
G01 X-18.1732 Y-19.1675
G01 X-17.9643 Y-19.1239
G01 X-17.7651 Y-19.0474
G01 X-17.4810 Y-18.8848
G01 X-17.3131 Y-18.8499
G01 X-17.1620 Y-18.8729
G01 X-17.1085 Y-18.8907
G01 X-16.9901 Y-18.9673
G01 X-16.8901 Y-19.0484
G01 X-16.8086 Y-19.0790
G01 X-16.2808 Y-19.0812
G01 X-16.2808 Y-19.0268
G01 X-16.7525 Y-19.0268
G01 X-16.8225 Y-19.0157
G01 X-16.8858 Y-18.9835
G01 X-16.9211 Y-18.9517
G01 X-16.9682 Y-18.8700
G01 X-16.9793 Y-18.8000
G01 X-16.9790 Y-16.7947
G01 X-17.3301 Y-17.1458
G01 X-17.2550 Y-17.2910
G01 X-17.2113 Y-17.4108
G01 X-17.1834 Y-17.5222
G01 X-17.1656 Y-17.6480
G01 X-17.1607 Y-17.8475
G01 X-17.1667 Y-17.9659
G01 X-17.1858 Y-18.0884
G01 X-17.2465 Y-18.2884
G01 X-17.3054 Y-18.4131
G01 X-17.3557 Y-18.4969
G01 X-17.4330 Y-18.6011
G01 X-17.5061 Y-18.6814
G01 X-17.5864 Y-18.7545
G01 X-17.6906 Y-18.8318
G01 X-17.7744 Y-18.8821
G01 X-17.8785 Y-18.9325
G01 X-17.9983 Y-18.9762
G01 X-18.1097 Y-19.0041
G01 X-18.2355 Y-19.0219
G01 X-18.3511 Y-19.0265
G01 X-18.5591 Y-19.0060
G01 X-18.6817 Y-18.9762
G01 X-18.7809 Y-18.9410
G01 X-18.8860 Y-18.8926
G01 X-19.0043 Y-18.8216
G01 X-19.1658 Y-18.6891
G01 X-19.2443 Y-18.6041
G01 X-19.3141 Y-18.5118
G01 X-19.3746 Y-18.4131
G01 X-19.4250 Y-18.3090
G01 X-19.4715 Y-18.1791
G00 X-19.4715 Y-18.1791
G01 F60.00
G01 Z-0.0750
G01 F120.00
G01 X-19.4985 Y-18.0666
G01 X-19.5190 Y-17.8586
G01 X-19.5144 Y-17.6480
G01 X-19.4966 Y-17.5222
G01 X-19.4650 Y-17.3996
G01 X-19.3851 Y-17.2065
G01 X-19.3243 Y-17.1031
G01 X-19.2470 Y-16.9989
G01 X-19.1739 Y-16.9186
G01 X-19.0936 Y-16.8455
G01 X-18.9616 Y-16.7515
G01 X-18.9081 Y-16.6741
G01 X-18.8541 Y-16.6134
G01 X-14.5266 Y-12.2859
G01 X-14.4106 Y-12.1917
G01 X-14.2961 Y-12.1306
G01 X-14.1593 Y-12.0880
G01 X-14.0125 Y-12.0729
G01 X-7.6603 Y-12.0729
G01 X-7.5233 Y-11.9362
G01 X-7.4351 Y-11.8695
G01 X-7.3344 Y-11.8080
G01 X-7.2365 Y-11.7613
G01 X-7.1330 Y-11.7236
G01 X-7.0089 Y-11.6929
G01 X-6.8111 Y-11.6735
G01 X-6.6892 Y-11.6787
G01 X-6.5752 Y-11.6959
G01 X-6.4670 Y-11.7236
G01 X-6.3635 Y-11.7613
G01 X-6.2656 Y-11.8080
G01 X-6.1798 Y-11.8594
G01 X-6.0797 Y-11.9336
G01 X-5.9336 Y-12.0797
G01 X-5.8594 Y-12.1798
G01 X-5.8080 Y-12.2656
G01 X-5.7613 Y-12.3635
G01 X-5.7236 Y-12.4670
G01 X-5.6959 Y-12.5752
G01 X-5.6787 Y-12.6892
G01 X-5.6732 Y-12.8000
G01 X-5.6778 Y-12.8993
G01 X-5.6959 Y-13.0248
G01 X-5.7188 Y-13.1164
G01 X-5.7635 Y-13.2414
G01 X-5.8594 Y-13.4202
G01 X-5.9336 Y-13.5203
G01 X-6.0032 Y-13.5968
G01 X-6.1649 Y-13.7305
G01 X-6.2788 Y-13.7988
G01 X-6.4670 Y-13.8764
G01 X-6.5752 Y-13.9041
G01 X-6.6892 Y-13.9213
G01 X-6.8111 Y-13.9265
G01 X-7.0089 Y-13.9071
G01 X-7.1330 Y-13.8764
G01 X-7.2365 Y-13.8387
G01 X-7.3344 Y-13.7920
G01 X-7.4351 Y-13.7305
G01 X-7.5233 Y-13.6638
G01 X-7.6603 Y-13.5271
G01 X-13.7113 Y-13.5271
G01 X-16.7578 Y-16.5735
G01 X-14.8475 Y-16.5732
G01 X-14.7775 Y-16.5843
G01 X-14.7142 Y-16.6165
G01 X-14.6789 Y-16.6483
G01 X-14.6510 Y-16.6867
G01 X-14.6256 Y-16.7529
G01 X-14.6207 Y-17.3192
G01 X-14.5663 Y-17.3192
G01 X-14.5663 Y-16.7648
G01 X-14.5978 Y-16.6649
G01 X-14.6458 Y-16.6002
G01 X-14.7124 Y-16.5503
G01 X-14.7914 Y-16.5210
G01 X-15.3586 Y-16.5185
G01 X-15.4979 Y-16.4929
G01 X-15.5590 Y-16.4675
G01 X-15.6913 Y-16.3712
G01 X-15.7876 Y-16.2225
G01 X-15.8225 Y-16.0546
G01 X-15.7970 Y-15.8922
G01 X-15.7715 Y-15.8310
G01 X-15.6835 Y-15.7066
G01 X-13.7900 Y-13.8131
G01 X-13.6655 Y-13.7250
G01 X-13.6038 Y-13.6994
G01 X-13.4535 Y-13.6737
G01 X-7.9114 Y-13.6739
G01 X-7.8000 Y-13.6899
G01 X-7.7438 Y-13.7091
G01 X-7.6498 Y-13.7589
G01 X-7.4544 Y-13.8978
G01 X-7.2663 Y-13.9900
G01 X-7.0657 Y-14.0501
G01 X-6.9849 Y-14.0605
G01 X-6.8580 Y-14.0768
G01 X-6.6487 Y-14.0691
G01 X-6.4434 Y-14.0273
G01 X-6.2478 Y-13.9526
G01 X-6.0669 Y-13.8469
G01 X-5.9058 Y-13.7132
G01 X-5.7686 Y-13.5548
G01 X-5.6592 Y-13.3763
G01 X-5.5804 Y-13.1822
G01 X-5.5344 Y-12.9779
G01 X-5.5223 Y-12.7688
G01 X-5.5446 Y-12.5605
G01 X-5.6005 Y-12.3587
G01 X-5.6887 Y-12.1687
G01 X-5.8067 Y-11.9957
G01 X-5.9515 Y-11.8443
G01 X-6.1189 Y-11.7185
G01 X-6.3047 Y-11.6218
G01 X-6.5038 Y-11.5567
G01 X-6.7108 Y-11.5250
G01 X-6.9203 Y-11.5276
G01 X-7.1265 Y-11.5643
G01 X-7.3239 Y-11.6342
G01 X-7.5073 Y-11.7355
G01 X-7.6318 Y-11.8331
G01 X-7.7267 Y-11.8878
G01 X-7.9026 Y-11.9260
G01 X-14.0339 Y-11.9226
G01 X-14.0971 Y-11.9263
G01 X-14.2618 Y-11.9585
G01 X-14.3583 Y-11.9933
G01 X-14.5046 Y-12.0732
G01 X-14.5565 Y-12.1112
G01 X-14.6787 Y-12.2282
G01 X-18.9756 Y-16.5222
G01 X-19.0940 Y-16.6548
G01 X-19.2473 Y-16.7799
G01 X-19.3635 Y-16.8436
G01 X-19.5305 Y-16.8742
G01 X-19.7016 Y-16.8422
G01 X-19.8419 Y-16.7564
G01 X-19.8951 Y-16.7004
G01 X-19.9711 Y-16.5779
G01 X-20.0060 Y-16.4099
G01 X-20.0063 Y-7.6595
G01 X-19.9918 Y-7.5439
G01 X-19.9385 Y-7.3532
G01 X-19.9263 Y-7.2206
G01 X-19.9263 Y-6.5669
G01 X-19.9435 Y-6.4217
G01 X-19.9965 Y-6.2508
G01 X-20.0799 Y-6.0924
G01 X-20.1907 Y-5.9519
G01 X-20.3252 Y-5.8339
G01 X-20.4790 Y-5.7424
G01 X-20.6469 Y-5.6804
G01 X-20.8233 Y-5.6501
G01 X-21.0022 Y-5.6525
G01 X-21.1777 Y-5.6874
G01 X-21.3440 Y-5.7537
G01 X-21.5737 Y-5.8991
G01 X-21.7051 Y-5.9423
G01 X-21.7628 Y-5.9498
G01 X-21.8904 Y-5.9392
G01 X-21.9533 Y-5.9210
G01 X-22.0788 Y-5.8531
G01 X-22.2120 Y-5.7465
G01 X-22.3334 Y-5.6862
G01 X-22.4693 Y-5.6523
G01 X-23.3158 Y-5.6513
G01 X-23.4666 Y-5.6862
G01 X-23.5880 Y-5.7465
G01 X-23.6936 Y-5.8314
G01 X-23.7785 Y-5.9370
G01 X-23.8388 Y-6.0584
G01 X-23.8737 Y-6.2092
G01 X-23.8737 Y-7.5908
G01 X-23.8388 Y-7.7416
G01 X-23.7999 Y-7.8322
G01 X-23.7737 Y-7.9844
G01 X-23.7737 Y-13.8410
G01 X-23.7970 Y-13.9806
G01 X-23.8148 Y-14.0340
G01 X-23.9131 Y-14.1775
G01 X-25.5558 Y-15.8197
G01 X-25.6578 Y-15.8922
G01 X-25.7660 Y-15.9345
G01 X-25.9009 Y-15.9613
G01 X-26.0828 Y-16.0258
G01 X-26.2517 Y-16.1190
G01 X-26.4032 Y-16.2387
G01 X-26.5331 Y-16.3814
G01 X-26.6379 Y-16.5435
G01 X-26.7149 Y-16.7205
G01 X-26.7619 Y-16.9076
G01 X-26.7783 Y-17.1065
G01 X-26.7511 Y-17.3489
G01 X-26.6950 Y-17.5336
G01 X-26.6130 Y-17.6995
G01 X-26.4969 Y-17.8633
G01 X-26.3602 Y-17.9995
G01 X-26.0573 Y-18.2093
G01 X-25.9542 Y-18.3574
G01 X-25.9162 Y-18.5131
G01 X-25.9154 Y-18.5828
G01 X-25.9483 Y-18.7299
G01 X-26.0308 Y-18.8618
G01 X-33.3556 Y-26.1847
G01 X-33.4586 Y-26.3158
G01 X-33.5349 Y-26.4641
G01 X-33.5566 Y-26.5246
G01 X-33.5917 Y-26.6876
G01 X-33.5968 Y-28.2678
G01 X-33.6289 Y-28.4100
G01 X-33.7049 Y-28.5326
G01 X-33.7581 Y-28.5886
G01 X-33.8728 Y-28.6634
G01 X-33.9192 Y-28.6806
G01 X-34.0579 Y-28.7060
G01 X-34.5023 Y-28.7015
G01 X-34.5530 Y-28.6892
G01 X-34.6859 Y-28.6351
G01 X-34.8184 Y-28.5129
G01 X-34.8977 Y-28.3436
G01 X-34.9071 Y-28.1682
G01 X-34.8978 Y-28.1234
G01 X-34.8551 Y-28.0083
G01 X-34.7488 Y-27.8310
G01 X-34.6762 Y-27.6522
G01 X-34.6337 Y-27.4639
G01 X-34.6226 Y-27.2712
G01 X-34.6324 Y-27.1793
G01 X-34.6431 Y-27.0793
G01 X-34.6947 Y-26.8933
G01 X-34.7760 Y-26.7183
G01 X-34.8847 Y-26.5588
G01 X-35.0181 Y-26.4193
G01 X-35.1724 Y-26.3034
G01 X-35.3436 Y-26.2143
G01 X-35.5271 Y-26.1543
G01 X-35.7178 Y-26.1251
G01 X-35.9108 Y-26.1275
G01 X-36.1008 Y-26.1613
G01 X-36.2828 Y-26.2258
G01 X-36.5761 Y-26.3922
G01 X-36.7528 Y-26.4263
G01 X-51.4450 Y-26.4263
G01 X-51.6168 Y-26.3941
G01 X-51.7469 Y-26.3152
G01 X-51.8000 Y-26.2659
G01 X-51.9335 Y-26.0810
G01 X-52.0115 Y-26.0211
G01 X-52.1024 Y-25.9834
G01 X-52.1755 Y-25.9738
G01 X-54.2245 Y-25.9738
G01 X-54.2976 Y-25.9834
G01 X-54.3885 Y-26.0211
G01 X-54.4665 Y-26.0810
G01 X-54.5264 Y-26.1590
G01 X-54.5641 Y-26.2499
G01 X-54.5737 Y-26.3230
G01 X-54.5737 Y-28.2770
G01 X-54.5431 Y-28.4905
G01 X-54.5688 Y-28.6408
G01 X-54.6002 Y-28.7118
G01 X-54.6608 Y-28.8019
G01 X-54.7074 Y-28.8486
G01 X-54.8393 Y-28.9311
G01 X-54.9746 Y-28.9619
G01 X-58.9100 Y-28.9652
G01 X-59.0433 Y-28.9385
G01 X-59.1067 Y-28.9113
G01 X-59.2047 Y-28.8433
G01 X-59.4003 Y-28.6675
G01 X-59.5835 Y-28.5474
G01 X-59.7825 Y-28.4557
G01 X-59.9927 Y-28.3945
G01 X-60.2098 Y-28.3649
G01 X-60.4288 Y-28.3678
G01 X-60.6450 Y-28.4030
G01 X-60.8536 Y-28.4698
G01 X-61.0501 Y-28.5666
G01 X-61.2300 Y-28.6915
G01 X-61.3915 Y-28.8432
G01 X-61.5027 Y-28.9173
G01 X-61.5605 Y-28.9406
G01 X-61.6992 Y-28.9660
G01 X-67.0416 Y-28.9662
G01 X-67.1624 Y-28.9476
G01 X-67.2203 Y-28.9266
G01 X-67.3286 Y-28.8623
G01 X-67.5189 Y-28.7185
G01 X-67.7047 Y-28.6218
G01 X-67.9038 Y-28.5567
G01 X-68.1108 Y-28.5250
G01 X-68.3203 Y-28.5276
G01 X-68.5265 Y-28.5643
G01 X-68.7239 Y-28.6342
G01 X-68.8914 Y-28.7267
G01 X-69.0716 Y-28.8653
G01 X-69.2126 Y-29.0202
G01 X-69.3264 Y-29.1960
G01 X-69.4099 Y-29.3881
G01 X-69.4609 Y-29.5913
G01 X-69.4786 Y-29.8065
G01 X-69.4492 Y-30.0701
G01 X-69.3883 Y-30.2705
G01 X-69.2955 Y-30.4583
G01 X-69.1733 Y-30.6283
G01 X-69.0249 Y-30.7762
G01 X-68.8544 Y-30.8978
G01 X-68.6663 Y-30.9900
G01 X-68.4657 Y-31.0501
G01 X-68.2580 Y-31.0768
G01 X-68.0487 Y-31.0691
G01 X-67.8434 Y-31.0273
G01 X-67.6478 Y-30.9526
G01 X-67.3221 Y-30.7522
G01 X-67.1462 Y-30.7140
G01 X-61.6859 Y-30.7144
G01 X-61.5408 Y-30.7471
G01 X-61.4793 Y-30.7739
G01 X-61.3765 Y-30.8517
G01 X-61.1687 Y-31.0356
G01 X-60.9824 Y-31.1509
G01 X-60.7811 Y-31.2373
G01 X-60.5693 Y-31.2931
G01 X-60.3516 Y-31.3169
G01 X-60.1327 Y-31.3083
G01 X-59.9175 Y-31.2675
G01 X-59.7107 Y-31.1953
G01 X-59.5169 Y-31.0933
G01 X-59.3402 Y-30.9638
G01 X-59.2027 Y-30.8307
G01 X-59.1034 Y-30.7646
G01 X-59.0429 Y-30.7396
G01 X-58.9171 Y-30.7151
G01 X-54.4653 Y-30.7140
G01 X-54.2945 Y-30.7499
G01 X-54.2455 Y-30.7760
G01 X-54.1405 Y-30.8525
G01 X-54.1048 Y-30.8958
G01 X-54.0368 Y-31.0073
G01 X-54.0217 Y-31.0550
G01 X-54.0006 Y-31.1882
G01 X-54.0059 Y-31.2444
G01 X-54.0460 Y-31.3923
G01 X-54.1255 Y-31.5092
G01 X-54.1738 Y-31.5588
G01 X-54.2945 Y-31.7196
G01 X-54.3881 Y-31.8992
G01 X-54.3234 Y-31.8992
G01 X-54.2318 Y-31.7306
G01 X-54.1545 Y-31.6264
G01 X-54.0891 Y-31.5542
G01 X-53.9869 Y-31.4615
G01 X-53.8131 Y-31.3454
G01 X-53.6884 Y-31.2865
G01 X-53.5892 Y-31.2513
G01 X-53.4778 Y-31.2234
G01 X-53.3520 Y-31.2056
G01 X-53.1525 Y-31.2007
G01 X-53.0259 Y-31.2077
G01 X-52.9222 Y-31.2234
G01 X-52.8108 Y-31.2513
G01 X-52.6910 Y-31.2950
G01 X-52.5031 Y-31.3957
G01 X-52.3959 Y-31.4757
G01 X-52.2455 Y-31.6264
G01 X-52.1682 Y-31.7306
G01 X-52.0766 Y-31.8992
G01 X-52.0139 Y-31.8992
G01 X-52.1219 Y-31.6942
G01 X-52.2466 Y-31.5364
G01 X-52.2997 Y-31.4820
G01 X-52.3710 Y-31.3653
G01 X-52.3934 Y-31.3025
G01 X-52.4105 Y-31.1393
G01 X-52.3776 Y-31.0013
G01 X-52.3533 Y-30.9480
G01 X-52.2829 Y-30.8511
G01 X-52.1156 Y-30.6737
G01 X-51.9956 Y-30.4972
G01 X-51.9054 Y-30.3038
G01 X-51.8473 Y-30.0984
G01 X-51.8228 Y-29.8864
G01 X-51.8325 Y-29.6732
G01 X-51.8761 Y-29.4643
G01 X-51.9526 Y-29.2651
G01 X-52.0434 Y-29.1081
G01 X-52.0843 Y-29.0062
G01 X-52.0987 Y-28.8518
G01 X-52.0899 Y-28.7871
G01 X-52.0318 Y-28.6355
G01 X-51.9348 Y-28.5208
G01 X-51.7932 Y-28.3258
G01 X-51.7564 Y-28.2914
G01 X-51.6569 Y-28.2250
G01 X-51.5845 Y-28.1970
G01 X-51.4450 Y-28.1737
G01 X-36.8485 Y-28.1740
G01 X-36.6671 Y-28.2143
G01 X-36.5240 Y-28.3124
G01 X-36.4909 Y-28.3515
G01 X-36.4202 Y-28.4671
G01 X-36.4041 Y-28.5199
G01 X-36.3838 Y-28.6549
G01 X-36.3892 Y-28.7040
G01 X-36.4244 Y-28.8419
G01 X-36.5224 Y-28.9850
G01 X-38.6356 Y-31.0947
G01 X-38.7386 Y-31.2258
G01 X-38.8149 Y-31.3741
G01 X-38.8366 Y-31.4346
G01 X-38.8717 Y-31.5976
G01 X-38.8754 Y-31.7669
G01 X-38.8737 Y-37.5410
G01 X-38.8970 Y-37.6806
G01 X-38.9250 Y-37.7530
G01 X-39.0048 Y-37.8687
G01 X-40.1313 Y-38.9952
G01 X-40.2660 Y-39.0852
G01 X-40.4217 Y-39.1232
G01 X-58.3842 Y-39.1263
G01 X-58.4607 Y-39.1199
G01 X-58.6129 Y-39.0676
G01 X-58.7313 Y-38.9726
G01 X-58.7683 Y-38.9310
G01 X-58.8178 Y-38.8447
G01 X-58.8736 Y-38.7115
G01 X-58.9335 Y-38.6335
G01 X-59.0115 Y-38.5736
G01 X-59.1024 Y-38.5359
G01 X-59.1755 Y-38.5263
G01 X-60.3661 Y-38.5249
G01 X-60.5205 Y-38.4911
G01 X-60.6524 Y-38.4086
G01 X-64.8947 Y-34.1644
G01 X-64.9420 Y-34.1224
G01 X-65.0812 Y-34.0287
G01 X-65.2346 Y-33.9634
G01 X-65.3976 Y-33.9283
G01 X-67.0834 Y-33.9263
G01 X-67.1855 Y-33.9149
G01 X-67.2339 Y-33.9005
G01 X-67.3431 Y-33.8479
G01 X-67.5189 Y-33.7185
G01 X-67.7047 Y-33.6218
G01 X-67.9038 Y-33.5567
G01 X-68.1108 Y-33.5250
G01 X-68.3203 Y-33.5276
G01 X-68.5265 Y-33.5643
G01 X-68.7239 Y-33.6342
G01 X-68.9024 Y-33.7328
G01 X-69.0716 Y-33.8653
G01 X-69.2126 Y-34.0202
G01 X-69.3264 Y-34.1960
G01 X-69.4099 Y-34.3881
G01 X-69.4609 Y-34.5913
G01 X-69.4786 Y-34.8065
G01 X-69.4492 Y-35.0701
G01 X-69.3883 Y-35.2705
G01 X-69.2955 Y-35.4583
G01 X-69.1733 Y-35.6283
G01 X-69.0249 Y-35.7762
G01 X-68.8544 Y-35.8978
G01 X-68.6663 Y-35.9900
G01 X-68.4657 Y-36.0501
G01 X-68.2580 Y-36.0768
G01 X-68.0487 Y-36.0691
G01 X-67.8434 Y-36.0273
G01 X-67.6478 Y-35.9526
G01 X-67.4669 Y-35.8469
G01 X-67.3718 Y-35.7695
G01 X-67.2739 Y-35.7122
G01 X-67.1189 Y-35.6760
G01 X-66.0474 Y-35.6740
G01 X-65.9081 Y-35.6996
G01 X-65.8470 Y-35.7250
G01 X-65.7225 Y-35.8131
G01 X-61.9131 Y-39.6225
G01 X-61.8089 Y-39.7795
G01 X-61.7740 Y-39.9474
G01 X-61.7737 Y-41.1245
G01 X-61.7641 Y-41.1976
G01 X-61.7264 Y-41.2885
G01 X-61.6665 Y-41.3665
G01 X-61.5885 Y-41.4264
G01 X-61.4361 Y-41.4921
G01 X-61.3381 Y-41.5577
G01 X-61.3012 Y-41.5921
G01 X-61.2089 Y-41.7363
G01 X-61.1740 Y-41.9042
G01 X-61.1737 Y-54.3842
G01 X-61.1879 Y-54.4897
G01 X-61.2266 Y-54.6009
G01 X-61.2570 Y-54.6507
G01 X-61.3690 Y-54.7683
G01 X-61.4591 Y-54.8196
G01 X-61.5885 Y-54.8736
G01 X-61.6665 Y-54.9335
G01 X-61.7264 Y-55.0115
G01 X-61.7641 Y-55.1024
G01 X-61.7737 Y-55.1755
G01 X-61.7740 Y-56.3526
G01 X-61.7996 Y-56.4919
G01 X-61.8250 Y-56.5530
G01 X-61.9131 Y-56.6775
G01 X-62.9225 Y-57.6869
G01 X-63.0377 Y-57.7691
G01 X-63.1081 Y-57.8004
G01 X-63.2590 Y-57.8263
G01 X-67.0979 Y-57.8258
G01 X-67.1898 Y-57.8141
G01 X-67.2435 Y-57.7961
G01 X-67.3603 Y-57.7373
G01 X-67.5189 Y-57.6185
