(G-CODE GENERATED BY FLATCAM vUnstable - www.flatcam.org - Version Date: 2022/3/1)

(Name: smd_vacuum-B_Cu.gbr_ncc_1_cnc)
(Type: G-code from Geometry)
(Units: MM)

(Created on Tuesday, 03 May 2022 at 07:14)

(This preprocessor is the default preprocessor used by FlatCAM.)
(It is made to work with MACH3 compatible motion controllers.)

(TOOL DIAMETER: 1.0 mm)
(Feedrate_XY: 120.0 mm/min)
(Feedrate_Z: 60.0 mm/min)
(Feedrate rapids 1500.0 mm/min)

(Z_Cut: -0.1 mm)
(DepthPerCut: 0.025 mm <=>4 passes)
(Z_Move: 2.0 mm)
(Z Start: None mm)
(Z End: 15.0 mm)
(X,Y End: None mm)
(Steps per circle: 16)
(Preprocessor Geometry: default)

(X range:  -73.1727 ...   -1.8273  mm)
(Y range:  -74.5727 ...   -1.8273  mm)

(Spindle Speed: 12000.0 RPM)
G21
G90
G94

G01 F120.00
G00 Z2.0000

M03 S12000.0
G01 F120.00
G00 X-5.5688 Y-5.4986
G01 F60.00
G01 Z-0.0250
G01 F120.00
G01 X-5.5629 Y-5.4720
G01 X-5.5471 Y-5.4498
G01 X-5.5240 Y-5.4355
G01 X-5.4966 Y-5.4314
G01 X-5.4512 Y-5.4515
G01 X-5.4360 Y-5.4747
G01 X-5.4312 Y-5.5014
G01 X-5.4371 Y-5.5280
G01 X-5.4529 Y-5.5502
G01 X-5.4760 Y-5.5645
G01 X-5.5034 Y-5.5686
G01 X-5.5492 Y-5.5481
G01 X-5.5640 Y-5.5253
G01 X-5.5688 Y-5.4986
G01 X-5.8415 Y-5.4928
G01 X-5.8277 Y-5.4036
G01 X-5.7909 Y-5.3210
G01 X-5.7647 Y-5.2841
G01 X-5.6988 Y-5.2223
G01 X-5.6191 Y-5.1799
G01 X-5.5273 Y-5.1593
G01 X-5.4875 Y-5.1593
G01 X-5.4104 Y-5.1704
G01 X-5.3676 Y-5.1851
G01 X-5.3272 Y-5.2054
G01 X-5.2564 Y-5.2606
G01 X-5.2264 Y-5.2956
G01 X-5.1824 Y-5.3743
G01 X-5.1606 Y-5.4619
G01 X-5.1585 Y-5.5072
G01 X-5.1723 Y-5.5964
G01 X-5.1880 Y-5.6389
G01 X-5.2353 Y-5.7159
G01 X-5.2662 Y-5.7490
G01 X-5.3396 Y-5.8016
G01 X-5.3809 Y-5.8201
G01 X-5.4727 Y-5.8407
G01 X-5.5452 Y-5.8386
G01 X-5.6324 Y-5.8149
G01 X-5.6728 Y-5.7946
G01 X-5.7440 Y-5.7390
G01 X-5.7735 Y-5.7046
G01 X-5.8176 Y-5.6257
G01 X-5.8314 Y-5.5826
G01 X-5.8415 Y-5.4928
G01 X-6.1142 Y-5.4871
G01 X-6.1071 Y-5.4060
G01 X-6.0893 Y-5.3266
G01 X-6.0612 Y-5.2501
G01 X-6.0232 Y-5.1781
G01 X-5.9761 Y-5.1117
G01 X-5.9205 Y-5.0522
G01 X-5.8576 Y-5.0005
G01 X-5.7884 Y-4.9576
G01 X-5.7141 Y-4.9242
G01 X-5.6361 Y-4.9009
G01 X-5.5487 Y-4.8871
G01 X-5.4785 Y-4.8871
G01 X-5.3389 Y-4.9072
G01 X-5.2619 Y-4.9337
G01 X-5.1891 Y-4.9701
G01 X-5.1218 Y-5.0159
G01 X-5.0616 Y-5.0697
G01 X-5.0080 Y-5.1321
G01 X-4.9637 Y-5.2003
G01 X-4.9288 Y-5.2739
G01 X-4.9039 Y-5.3514
G01 X-4.8895 Y-5.4315
G01 X-4.8858 Y-5.5129
G01 X-4.8929 Y-5.5940
G01 X-4.9107 Y-5.6734
G01 X-4.9388 Y-5.7499
G01 X-4.9768 Y-5.8219
G01 X-5.0239 Y-5.8883
G01 X-5.0795 Y-5.9478
G01 X-5.1424 Y-5.9995
G01 X-5.2116 Y-6.0424
G01 X-5.2859 Y-6.0758
G01 X-5.3639 Y-6.0991
G01 X-5.4513 Y-6.1129
G01 X-5.5215 Y-6.1129
G01 X-5.6611 Y-6.0928
G01 X-5.7381 Y-6.0663
G01 X-5.8109 Y-6.0299
G01 X-5.8782 Y-5.9841
G01 X-5.9389 Y-5.9298
G01 X-5.9919 Y-5.8680
G01 X-6.0363 Y-5.7997
G01 X-6.0712 Y-5.7261
G01 X-6.0961 Y-5.6486
G01 X-6.1105 Y-5.5685
G01 X-6.1142 Y-5.4871
G01 X-6.3869 Y-5.4814
G01 X-6.3766 Y-5.3643
G01 X-6.3510 Y-5.2495
G01 X-6.3104 Y-5.1392
G01 X-6.2556 Y-5.0352
G01 X-6.1874 Y-4.9393
G01 X-6.1073 Y-4.8533
G01 X-6.0164 Y-4.7787
G01 X-5.9165 Y-4.7167
G01 X-5.8092 Y-4.6685
G01 X-5.6965 Y-4.6350
G01 X-5.5701 Y-4.6149
G01 X-5.4695 Y-4.6149
G01 X-5.3827 Y-4.6207
G01 X-5.2674 Y-4.6439
G01 X-5.1562 Y-4.6822
G01 X-5.0511 Y-4.7349
G01 X-4.9539 Y-4.8010
G01 X-4.8669 Y-4.8788
G01 X-4.7897 Y-4.9686
G01 X-4.7256 Y-5.0672
G01 X-4.6752 Y-5.1734
G01 X-4.6393 Y-5.2854
G01 X-4.6184 Y-5.4011
G01 X-4.6131 Y-5.5186
G01 X-4.6234 Y-5.6357
G01 X-4.6490 Y-5.7505
G01 X-4.6896 Y-5.8608
G01 X-4.7444 Y-5.9648
G01 X-4.8126 Y-6.0607
G01 X-4.8927 Y-6.1467
G01 X-4.9836 Y-6.2213
G01 X-5.0835 Y-6.2833
G01 X-5.1908 Y-6.3315
G01 X-5.3035 Y-6.3650
G01 X-5.4299 Y-6.3851
G01 X-5.5305 Y-6.3851
G01 X-5.6173 Y-6.3793
G01 X-5.7326 Y-6.3561
G01 X-5.8438 Y-6.3178
G01 X-5.9489 Y-6.2651
G01 X-6.0461 Y-6.1990
G01 X-6.1338 Y-6.1207
G01 X-6.2103 Y-6.0314
G01 X-6.2744 Y-5.9328
G01 X-6.3248 Y-5.8266
G01 X-6.3607 Y-5.7146
G01 X-6.3816 Y-5.5989
G01 X-6.3869 Y-5.4814
G01 X-6.6596 Y-5.4757
G01 X-6.6462 Y-5.3226
G01 X-6.6127 Y-5.1725
G01 X-6.5596 Y-5.0282
G01 X-6.4879 Y-4.8923
G01 X-6.3988 Y-4.7669
G01 X-6.2940 Y-4.6545
G01 X-6.1752 Y-4.5569
G01 X-6.0445 Y-4.4759
G01 X-5.9043 Y-4.4129
G01 X-5.7570 Y-4.3690
G01 X-5.5943 Y-4.3432
G01 X-5.4605 Y-4.3428
G01 X-5.3466 Y-4.3503
G01 X-5.1959 Y-4.3807
G01 X-5.0505 Y-4.4308
G01 X-4.9131 Y-4.4996
G01 X-4.7859 Y-4.5860
G01 X-4.6721 Y-4.6878
G01 X-4.5713 Y-4.8052
G01 X-4.4875 Y-4.9342
G01 X-4.4216 Y-5.0730
G01 X-4.3746 Y-5.2194
G01 X-4.3474 Y-5.3707
G01 X-4.3404 Y-5.5243
G01 X-4.3538 Y-5.6774
G01 X-4.3873 Y-5.8275
G01 X-4.4404 Y-5.9718
G01 X-4.5121 Y-6.1077
G01 X-4.6012 Y-6.2331
G01 X-4.7060 Y-6.3455
G01 X-4.8248 Y-6.4431
G01 X-4.9555 Y-6.5241
G01 X-5.0957 Y-6.5871
G01 X-5.2430 Y-6.6310
G01 X-5.4057 Y-6.6568
G01 X-5.5395 Y-6.6572
G01 X-5.6534 Y-6.6497
G01 X-5.8041 Y-6.6193
G01 X-5.9495 Y-6.5692
G01 X-6.0869 Y-6.5004
G01 X-6.2141 Y-6.4140
G01 X-6.3287 Y-6.3115
G01 X-6.4287 Y-6.1948
G01 X-6.5125 Y-6.0658
G01 X-6.5784 Y-5.9270
G01 X-6.6254 Y-5.7806
G01 X-6.6526 Y-5.6293
G01 X-6.6596 Y-5.4757
G01 X-6.9323 Y-5.4700
G01 X-6.9157 Y-5.2808
G01 X-6.8743 Y-5.0955
G01 X-6.8088 Y-4.9173
G01 X-6.7202 Y-4.7493
G01 X-6.6102 Y-4.5946
G01 X-6.4807 Y-4.4557
G01 X-6.3340 Y-4.3351
G01 X-6.1726 Y-4.2351
G01 X-5.9994 Y-4.1572
G01 X-5.8174 Y-4.1030
G01 X-5.6218 Y-4.0720
G01 X-5.4514 Y-4.0706
G01 X-5.3105 Y-4.0800
G01 X-5.1244 Y-4.1175
G01 X-4.9448 Y-4.1793
G01 X-4.7751 Y-4.2644
G01 X-4.6180 Y-4.3711
G01 X-4.4773 Y-4.4969
G01 X-4.3529 Y-4.6418
G01 X-4.2494 Y-4.8011
G01 X-4.1680 Y-4.9726
G01 X-4.1099 Y-5.1534
G01 X-4.0763 Y-5.3403
G01 X-4.0677 Y-5.5300
G01 X-4.0843 Y-5.7192
G01 X-4.1257 Y-5.9045
G01 X-4.1912 Y-6.0827
G01 X-4.2798 Y-6.2507
G01 X-4.3898 Y-6.4054
G01 X-4.5193 Y-6.5443
G01 X-4.6660 Y-6.6649
G01 X-4.8274 Y-6.7649
G01 X-5.0006 Y-6.8428
G01 X-5.1826 Y-6.8970
G01 X-5.3782 Y-6.9280
G01 X-5.5486 Y-6.9294
G01 X-5.6895 Y-6.9200
G01 X-5.8756 Y-6.8825
G01 X-6.0552 Y-6.8207
G01 X-6.2249 Y-6.7356
G01 X-6.3820 Y-6.6289
G01 X-6.5236 Y-6.5023
G01 X-6.6471 Y-6.3582
G01 X-6.7506 Y-6.1989
G01 X-6.8320 Y-6.0274
G01 X-6.8901 Y-5.8466
G01 X-6.9237 Y-5.6597
G01 X-6.9323 Y-5.4700
G01 X-7.2050 Y-5.4643
G01 X-7.1853 Y-5.2391
G01 X-7.1360 Y-5.0185
G01 X-7.0579 Y-4.8064
G01 X-6.9525 Y-4.6064
G01 X-6.8216 Y-4.4222
G01 X-6.6674 Y-4.2568
G01 X-6.4927 Y-4.1134
G01 X-6.3006 Y-3.9943
G01 X-6.0944 Y-3.9016
G01 X-5.8778 Y-3.8370
G01 X-5.6494 Y-3.8008
G01 X-5.4424 Y-3.7985
G01 X-5.2745 Y-3.8096
G01 X-5.0529 Y-3.8543
G01 X-4.8391 Y-3.9279
G01 X-4.6370 Y-4.0291
G01 X-4.4501 Y-4.1562
G01 X-4.2825 Y-4.3060
G01 X-4.1345 Y-4.4784
G01 X-4.0113 Y-4.6680
G01 X-3.9144 Y-4.8722
G01 X-3.8453 Y-5.0874
G01 X-3.8053 Y-5.3099
G01 X-3.7950 Y-5.5357
G01 X-3.8147 Y-5.7609
G01 X-3.8640 Y-5.9815
G01 X-3.9421 Y-6.1936
G01 X-4.0475 Y-6.3936
G01 X-4.1784 Y-6.5778
G01 X-4.3326 Y-6.7432
G01 X-4.5073 Y-6.8866
G01 X-4.6994 Y-7.0057
G01 X-4.9056 Y-7.0984
G01 X-5.1222 Y-7.1630
G01 X-5.3506 Y-7.1992
G01 X-5.5576 Y-7.2015
G01 X-5.7255 Y-7.1904
G01 X-5.9471 Y-7.1457
G01 X-6.1609 Y-7.0721
G01 X-6.3630 Y-6.9709
G01 X-6.5499 Y-6.8438
G01 X-6.7184 Y-6.6932
G01 X-6.8655 Y-6.5216
G01 X-6.9887 Y-6.3320
G01 X-7.0856 Y-6.1278
G01 X-7.1547 Y-5.9126
G01 X-7.1947 Y-5.6901
G01 X-7.2050 Y-5.4643
G01 X-7.4777 Y-5.4586
G01 X-7.4548 Y-5.1974
G01 X-7.3976 Y-4.9415
G01 X-7.3071 Y-4.6954
G01 X-7.1848 Y-4.4635
G01 X-7.0329 Y-4.2498
G01 X-6.8541 Y-4.0580
G01 X-6.6515 Y-3.8916
G01 X-6.4287 Y-3.7534
G01 X-6.1895 Y-3.6459
G01 X-5.9383 Y-3.5710
G01 X-5.6769 Y-3.5296
G01 X-5.4334 Y-3.5263
G01 X-5.2384 Y-3.5393
G01 X-4.9814 Y-3.5911
G01 X-4.7334 Y-3.6764
G01 X-4.4990 Y-3.7938
G01 X-4.2821 Y-3.9412
G01 X-4.0867 Y-4.1160
G01 X-3.9161 Y-4.3151
G01 X-3.7733 Y-4.5350
G01 X-3.6608 Y-4.7718
G01 X-3.5806 Y-5.0214
G01 X-3.5342 Y-5.2795
G01 X-3.5223 Y-5.5414
G01 X-3.5452 Y-5.8026
G01 X-3.6024 Y-6.0585
G01 X-3.6929 Y-6.3046
G01 X-3.8152 Y-6.5365
G01 X-3.9671 Y-6.7502
G01 X-4.1459 Y-6.9420
G01 X-4.3485 Y-7.1084
G01 X-4.5713 Y-7.2466
G01 X-4.8105 Y-7.3541
G01 X-5.0617 Y-7.4290
G01 X-5.3231 Y-7.4704
G01 X-5.5666 Y-7.4737
G01 X-5.7616 Y-7.4607
G01 X-6.0186 Y-7.4089
G01 X-6.2666 Y-7.3236
G01 X-6.5010 Y-7.2062
G01 X-6.7179 Y-7.0588
G01 X-6.9133 Y-6.8840
G01 X-7.0839 Y-6.6849
G01 X-7.2267 Y-6.4650
G01 X-7.3392 Y-6.2282
G01 X-7.4194 Y-5.9786
G01 X-7.4658 Y-5.7205
G01 X-7.4777 Y-5.4586
G00 X-7.4777 Y-5.4586
G01 F60.00
G01 Z-0.0500
G01 F120.00
G01 X-7.4658 Y-5.7205
G01 X-7.4194 Y-5.9786
G01 X-7.3392 Y-6.2282
G01 X-7.2267 Y-6.4650
G01 X-7.0839 Y-6.6849
G01 X-6.9133 Y-6.8840
G01 X-6.7179 Y-7.0588
G01 X-6.5010 Y-7.2062
G01 X-6.2666 Y-7.3236
G01 X-6.0186 Y-7.4089
G01 X-5.7616 Y-7.4607
G01 X-5.5666 Y-7.4737
G01 X-5.3231 Y-7.4704
G01 X-5.0617 Y-7.4290
G01 X-4.8105 Y-7.3541
G01 X-4.5713 Y-7.2466
G01 X-4.3485 Y-7.1084
G01 X-4.1459 Y-6.9420
G01 X-3.9671 Y-6.7502
G01 X-3.8152 Y-6.5365
G01 X-3.6929 Y-6.3046
G01 X-3.6024 Y-6.0585
G01 X-3.5452 Y-5.8026
G01 X-3.5223 Y-5.5414
G01 X-3.5342 Y-5.2795
G01 X-3.5806 Y-5.0214
G01 X-3.6608 Y-4.7718
G01 X-3.7733 Y-4.5350
G01 X-3.9161 Y-4.3151
G01 X-4.0867 Y-4.1160
G01 X-4.2821 Y-3.9412
G01 X-4.4990 Y-3.7938
G01 X-4.7334 Y-3.6764
G01 X-4.9814 Y-3.5911
G01 X-5.2384 Y-3.5393
G01 X-5.4334 Y-3.5263
G01 X-5.6769 Y-3.5296
G01 X-5.9383 Y-3.5710
G01 X-6.1895 Y-3.6459
G01 X-6.4287 Y-3.7534
G01 X-6.6515 Y-3.8916
G01 X-6.8541 Y-4.0580
G01 X-7.0329 Y-4.2498
G01 X-7.1848 Y-4.4635
G01 X-7.3071 Y-4.6954
G01 X-7.3976 Y-4.9415
G01 X-7.4548 Y-5.1974
G01 X-7.4777 Y-5.4586
G01 X-7.2050 Y-5.4643
G01 X-7.1947 Y-5.6901
G01 X-7.1547 Y-5.9126
G01 X-7.0856 Y-6.1278
G01 X-6.9887 Y-6.3320
G01 X-6.8655 Y-6.5216
G01 X-6.7184 Y-6.6932
G01 X-6.5499 Y-6.8438
G01 X-6.3630 Y-6.9709
G01 X-6.1609 Y-7.0721
G01 X-5.9471 Y-7.1457
G01 X-5.7255 Y-7.1904
G01 X-5.5576 Y-7.2015
G01 X-5.3506 Y-7.1992
G01 X-5.1222 Y-7.1630
G01 X-4.9056 Y-7.0984
G01 X-4.6994 Y-7.0057
G01 X-4.5073 Y-6.8866
G01 X-4.3326 Y-6.7432
G01 X-4.1784 Y-6.5778
G01 X-4.0475 Y-6.3936
G01 X-3.9421 Y-6.1936
G01 X-3.8640 Y-5.9815
G01 X-3.8147 Y-5.7609
G01 X-3.7950 Y-5.5357
G01 X-3.8053 Y-5.3099
G01 X-3.8453 Y-5.0874
G01 X-3.9144 Y-4.8722
G01 X-4.0113 Y-4.6680
G01 X-4.1345 Y-4.4784
G01 X-4.2825 Y-4.3060
G01 X-4.4501 Y-4.1562
G01 X-4.6370 Y-4.0291
G01 X-4.8391 Y-3.9279
G01 X-5.0529 Y-3.8543
G01 X-5.2745 Y-3.8096
G01 X-5.4424 Y-3.7985
G01 X-5.6494 Y-3.8008
G01 X-5.8778 Y-3.8370
G01 X-6.0944 Y-3.9016
G01 X-6.3006 Y-3.9943
G01 X-6.4927 Y-4.1134
G01 X-6.6674 Y-4.2568
G01 X-6.8216 Y-4.4222
G01 X-6.9525 Y-4.6064
G01 X-7.0579 Y-4.8064
G01 X-7.1360 Y-5.0185
G01 X-7.1853 Y-5.2391
G01 X-7.2050 Y-5.4643
G01 X-6.9323 Y-5.4700
G01 X-6.9237 Y-5.6597
G01 X-6.8901 Y-5.8466
G01 X-6.8320 Y-6.0274
G01 X-6.7506 Y-6.1989
G01 X-6.6471 Y-6.3582
G01 X-6.5236 Y-6.5023
G01 X-6.3820 Y-6.6289
G01 X-6.2249 Y-6.7356
G01 X-6.0552 Y-6.8207
G01 X-5.8756 Y-6.8825
G01 X-5.6895 Y-6.9200
G01 X-5.5486 Y-6.9294
G01 X-5.3782 Y-6.9280
G01 X-5.1826 Y-6.8970
G01 X-5.0006 Y-6.8428
G01 X-4.8274 Y-6.7649
G01 X-4.6660 Y-6.6649
G01 X-4.5193 Y-6.5443
G01 X-4.3898 Y-6.4054
G01 X-4.2798 Y-6.2507
G01 X-4.1912 Y-6.0827
G01 X-4.1257 Y-5.9045
G01 X-4.0843 Y-5.7192
G01 X-4.0677 Y-5.5300
G01 X-4.0763 Y-5.3403
G01 X-4.1099 Y-5.1534
G01 X-4.1680 Y-4.9726
G01 X-4.2494 Y-4.8011
G01 X-4.3529 Y-4.6418
G01 X-4.4773 Y-4.4969
G01 X-4.6180 Y-4.3711
G01 X-4.7751 Y-4.2644
G01 X-4.9448 Y-4.1793
G01 X-5.1244 Y-4.1175
G01 X-5.3105 Y-4.0800
G01 X-5.4514 Y-4.0706
G01 X-5.6218 Y-4.0720
G01 X-5.8174 Y-4.1030
G01 X-5.9994 Y-4.1572
G01 X-6.1726 Y-4.2351
G01 X-6.3340 Y-4.3351
G01 X-6.4807 Y-4.4557
G01 X-6.6102 Y-4.5946
G01 X-6.7202 Y-4.7493
G01 X-6.8088 Y-4.9173
G01 X-6.8743 Y-5.0955
G01 X-6.9157 Y-5.2808
G01 X-6.9323 Y-5.4700
G01 X-6.6596 Y-5.4757
G01 X-6.6526 Y-5.6293
G01 X-6.6254 Y-5.7806
G01 X-6.5784 Y-5.9270
G01 X-6.5125 Y-6.0658
G01 X-6.4287 Y-6.1948
G01 X-6.3287 Y-6.3115
G01 X-6.2141 Y-6.4140
G01 X-6.0869 Y-6.5004
G01 X-5.9495 Y-6.5692
G01 X-5.8041 Y-6.6193
G01 X-5.6534 Y-6.6497
G01 X-5.5395 Y-6.6572
G01 X-5.4057 Y-6.6568
G01 X-5.2430 Y-6.6310
G01 X-5.0957 Y-6.5871
G01 X-4.9555 Y-6.5241
G01 X-4.8248 Y-6.4431
G01 X-4.7060 Y-6.3455
G01 X-4.6012 Y-6.2331
G01 X-4.5121 Y-6.1077
G01 X-4.4404 Y-5.9718
G01 X-4.3873 Y-5.8275
G01 X-4.3538 Y-5.6774
G01 X-4.3404 Y-5.5243
G01 X-4.3474 Y-5.3707
G01 X-4.3746 Y-5.2194
G01 X-4.4216 Y-5.0730
G01 X-4.4875 Y-4.9342
G01 X-4.5713 Y-4.8052
G01 X-4.6721 Y-4.6878
G01 X-4.7859 Y-4.5860
G01 X-4.9131 Y-4.4996
G01 X-5.0505 Y-4.4308
G01 X-5.1959 Y-4.3807
G01 X-5.3466 Y-4.3503
G01 X-5.4605 Y-4.3428
G01 X-5.5943 Y-4.3432
G01 X-5.7570 Y-4.3690
G01 X-5.9043 Y-4.4129
G01 X-6.0445 Y-4.4759
G01 X-6.1752 Y-4.5569
G01 X-6.2940 Y-4.6545
G01 X-6.3988 Y-4.7669
G01 X-6.4879 Y-4.8923
G01 X-6.5596 Y-5.0282
G01 X-6.6127 Y-5.1725
G01 X-6.6462 Y-5.3226
G01 X-6.6596 Y-5.4757
G01 X-6.3869 Y-5.4814
G01 X-6.3816 Y-5.5989
G01 X-6.3607 Y-5.7146
G01 X-6.3248 Y-5.8266
G01 X-6.2744 Y-5.9328
G01 X-6.2103 Y-6.0314
G01 X-6.1338 Y-6.1207
G01 X-6.0461 Y-6.1990
G01 X-5.9489 Y-6.2651
G01 X-5.8438 Y-6.3178
G01 X-5.7326 Y-6.3561
G01 X-5.6173 Y-6.3793
G01 X-5.5305 Y-6.3851
G01 X-5.4299 Y-6.3851
G01 X-5.3035 Y-6.3650
G01 X-5.1908 Y-6.3315
G01 X-5.0835 Y-6.2833
G01 X-4.9836 Y-6.2213
G01 X-4.8927 Y-6.1467
G01 X-4.8126 Y-6.0607
G01 X-4.7444 Y-5.9648
G01 X-4.6896 Y-5.8608
G01 X-4.6490 Y-5.7505
G01 X-4.6234 Y-5.6357
G01 X-4.6131 Y-5.5186
G01 X-4.6184 Y-5.4011
G01 X-4.6393 Y-5.2854
G01 X-4.6752 Y-5.1734
G01 X-4.7256 Y-5.0672
G01 X-4.7897 Y-4.9686
G01 X-4.8669 Y-4.8788
G01 X-4.9539 Y-4.8010
G01 X-5.0511 Y-4.7349
G01 X-5.1562 Y-4.6822
G01 X-5.2674 Y-4.6439
G01 X-5.3827 Y-4.6207
G01 X-5.4695 Y-4.6149
G01 X-5.5701 Y-4.6149
G01 X-5.6965 Y-4.6350
G01 X-5.8092 Y-4.6685
G01 X-5.9165 Y-4.7167
G01 X-6.0164 Y-4.7787
G01 X-6.1073 Y-4.8533
G01 X-6.1874 Y-4.9393
G01 X-6.2556 Y-5.0352
G01 X-6.3104 Y-5.1392
G01 X-6.3510 Y-5.2495
G01 X-6.3766 Y-5.3643
G01 X-6.3869 Y-5.4814
G01 X-6.1142 Y-5.4871
G01 X-6.1105 Y-5.5685
G01 X-6.0961 Y-5.6486
G01 X-6.0712 Y-5.7261
G01 X-6.0363 Y-5.7997
G01 X-5.9919 Y-5.8680
G01 X-5.9389 Y-5.9298
G01 X-5.8782 Y-5.9841
G01 X-5.8109 Y-6.0299
G01 X-5.7381 Y-6.0663
G01 X-5.6611 Y-6.0928
G01 X-5.5215 Y-6.1129
G01 X-5.4513 Y-6.1129
G01 X-5.3639 Y-6.0991
G01 X-5.2859 Y-6.0758
G01 X-5.2116 Y-6.0424
G01 X-5.1424 Y-5.9995
G01 X-5.0795 Y-5.9478
G01 X-5.0239 Y-5.8883
G01 X-4.9768 Y-5.8219
G01 X-4.9388 Y-5.7499
G01 X-4.9107 Y-5.6734
G01 X-4.8929 Y-5.5940
G01 X-4.8858 Y-5.5129
G01 X-4.8895 Y-5.4315
G01 X-4.9039 Y-5.3514
G01 X-4.9288 Y-5.2739
G01 X-4.9637 Y-5.2003
G01 X-5.0080 Y-5.1321
G01 X-5.0616 Y-5.0697
G01 X-5.1218 Y-5.0159
G01 X-5.1891 Y-4.9701
G01 X-5.2619 Y-4.9337
G01 X-5.3389 Y-4.9072
G01 X-5.4785 Y-4.8871
G01 X-5.5487 Y-4.8871
G01 X-5.6361 Y-4.9009
G01 X-5.7141 Y-4.9242
G01 X-5.7884 Y-4.9576
G01 X-5.8576 Y-5.0005
G01 X-5.9205 Y-5.0522
G01 X-5.9761 Y-5.1117
G01 X-6.0232 Y-5.1781
G01 X-6.0612 Y-5.2501
G01 X-6.0893 Y-5.3266
G01 X-6.1071 Y-5.4060
G01 X-6.1142 Y-5.4871
G01 X-5.8415 Y-5.4928
G01 X-5.8314 Y-5.5826
G01 X-5.8176 Y-5.6257
G01 X-5.7735 Y-5.7046
G01 X-5.7440 Y-5.7390
G01 X-5.6728 Y-5.7946
G01 X-5.6324 Y-5.8149
G01 X-5.5452 Y-5.8386
G01 X-5.4727 Y-5.8407
G01 X-5.3809 Y-5.8201
G01 X-5.3396 Y-5.8016
G01 X-5.2662 Y-5.7490
G01 X-5.2353 Y-5.7159
G01 X-5.1880 Y-5.6389
G01 X-5.1723 Y-5.5964
G01 X-5.1585 Y-5.5072
G01 X-5.1606 Y-5.4619
G01 X-5.1824 Y-5.3743
G01 X-5.2264 Y-5.2956
G01 X-5.2564 Y-5.2606
G01 X-5.3272 Y-5.2054
G01 X-5.3676 Y-5.1851
G01 X-5.4104 Y-5.1704
G01 X-5.4875 Y-5.1593
G01 X-5.5273 Y-5.1593
G01 X-5.6191 Y-5.1799
G01 X-5.6988 Y-5.2223
G01 X-5.7647 Y-5.2841
G01 X-5.7909 Y-5.3210
G01 X-5.8277 Y-5.4036
G01 X-5.8415 Y-5.4928
G01 X-5.5688 Y-5.4986
G01 X-5.5640 Y-5.5253
G01 X-5.5492 Y-5.5481
G01 X-5.5034 Y-5.5686
G01 X-5.4760 Y-5.5645
G01 X-5.4529 Y-5.5502
G01 X-5.4371 Y-5.5280
G01 X-5.4312 Y-5.5014
G01 X-5.4360 Y-5.4747
G01 X-5.4512 Y-5.4515
G01 X-5.4966 Y-5.4314
G01 X-5.5240 Y-5.4355
G01 X-5.5471 Y-5.4498
G01 X-5.5629 Y-5.4720
G01 X-5.5688 Y-5.4986
G00 X-5.5688 Y-5.4986
G01 F60.00
G01 Z-0.0750
G01 F120.00
G01 X-5.5629 Y-5.4720
G01 X-5.5471 Y-5.4498
G01 X-5.5240 Y-5.4355
G01 X-5.4966 Y-5.4314
G01 X-5.4512 Y-5.4515
G01 X-5.4360 Y-5.4747
G01 X-5.4312 Y-5.5014
G01 X-5.4371 Y-5.5280
G01 X-5.4529 Y-5.5502
G01 X-5.4760 Y-5.5645
G01 X-5.5034 Y-5.5686
G01 X-5.5492 Y-5.5481
G01 X-5.5640 Y-5.5253
G01 X-5.5688 Y-5.4986
G01 X-5.8415 Y-5.4928
G01 X-5.8277 Y-5.4036
G01 X-5.7909 Y-5.3210
G01 X-5.7647 Y-5.2841
G01 X-5.6988 Y-5.2223
G01 X-5.6191 Y-5.1799
G01 X-5.5273 Y-5.1593
G01 X-5.4875 Y-5.1593
G01 X-5.4104 Y-5.1704
G01 X-5.3676 Y-5.1851
G01 X-5.3272 Y-5.2054
G01 X-5.2564 Y-5.2606
G01 X-5.2264 Y-5.2956
G01 X-5.1824 Y-5.3743
G01 X-5.1606 Y-5.4619
G01 X-5.1585 Y-5.5072
G01 X-5.1723 Y-5.5964
G01 X-5.1880 Y-5.6389
G01 X-5.2353 Y-5.7159
G01 X-5.2662 Y-5.7490
G01 X-5.3396 Y-5.8016
G01 X-5.3809 Y-5.8201
G01 X-5.4727 Y-5.8407
G01 X-5.5452 Y-5.8386
G01 X-5.6324 Y-5.8149
G01 X-5.6728 Y-5.7946
G01 X-5.7440 Y-5.7390
G01 X-5.7735 Y-5.7046
G01 X-5.8176 Y-5.6257
G01 X-5.8314 Y-5.5826
G01 X-5.8415 Y-5.4928
G01 X-6.1142 Y-5.4871
G01 X-6.1071 Y-5.4060
G01 X-6.0893 Y-5.3266
G01 X-6.0612 Y-5.2501
G01 X-6.0232 Y-5.1781
G01 X-5.9761 Y-5.1117
G01 X-5.9205 Y-5.0522
G01 X-5.8576 Y-5.0005
G01 X-5.7884 Y-4.9576
G01 X-5.7141 Y-4.9242
G01 X-5.6361 Y-4.9009
G01 X-5.5487 Y-4.8871
G01 X-5.4785 Y-4.8871
G01 X-5.3389 Y-4.9072
G01 X-5.2619 Y-4.9337
G01 X-5.1891 Y-4.9701
G01 X-5.1218 Y-5.0159
G01 X-5.0616 Y-5.0697
G01 X-5.0080 Y-5.1321
G01 X-4.9637 Y-5.2003
G01 X-4.9288 Y-5.2739
G01 X-4.9039 Y-5.3514
G01 X-4.8895 Y-5.4315
G01 X-4.8858 Y-5.5129
G01 X-4.8929 Y-5.5940
G01 X-4.9107 Y-5.6734
G01 X-4.9388 Y-5.7499
G01 X-4.9768 Y-5.8219
G01 X-5.0239 Y-5.8883
G01 X-5.0795 Y-5.9478
G01 X-5.1424 Y-5.9995
G01 X-5.2116 Y-6.0424
G01 X-5.2859 Y-6.0758
G01 X-5.3639 Y-6.0991
G01 X-5.4513 Y-6.1129
G01 X-5.5215 Y-6.1129
G01 X-5.6611 Y-6.0928
G01 X-5.7381 Y-6.0663
G01 X-5.8109 Y-6.0299
G01 X-5.8782 Y-5.9841
G01 X-5.9389 Y-5.9298
G01 X-5.9919 Y-5.8680
G01 X-6.0363 Y-5.7997
G01 X-6.0712 Y-5.7261
G01 X-6.0961 Y-5.6486
G01 X-6.1105 Y-5.5685
G01 X-6.1142 Y-5.4871
G01 X-6.3869 Y-5.4814
G01 X-6.3766 Y-5.3643
G01 X-6.3510 Y-5.2495
G01 X-6.3104 Y-5.1392
G01 X-6.2556 Y-5.0352
G01 X-6.1874 Y-4.9393
G01 X-6.1073 Y-4.8533
G01 X-6.0164 Y-4.7787
G01 X-5.9165 Y-4.7167
G01 X-5.8092 Y-4.6685
G01 X-5.6965 Y-4.6350
G01 X-5.5701 Y-4.6149
G01 X-5.4695 Y-4.6149
G01 X-5.3827 Y-4.6207
G01 X-5.2674 Y-4.6439
G01 X-5.1562 Y-4.6822
G01 X-5.0511 Y-4.7349
G01 X-4.9539 Y-4.8010
G01 X-4.8669 Y-4.8788
G01 X-4.7897 Y-4.9686
G01 X-4.7256 Y-5.0672
G01 X-4.6752 Y-5.1734
G01 X-4.6393 Y-5.2854
G01 X-4.6184 Y-5.4011
G01 X-4.6131 Y-5.5186
G01 X-4.6234 Y-5.6357
G01 X-4.6490 Y-5.7505
G01 X-4.6896 Y-5.8608
G01 X-4.7444 Y-5.9648
G01 X-4.8126 Y-6.0607
G01 X-4.8927 Y-6.1467
G01 X-4.9836 Y-6.2213
G01 X-5.0835 Y-6.2833
G01 X-5.1908 Y-6.3315
G01 X-5.3035 Y-6.3650
G01 X-5.4299 Y-6.3851
G01 X-5.5305 Y-6.3851
G01 X-5.6173 Y-6.3793
G01 X-5.7326 Y-6.3561
G01 X-5.8438 Y-6.3178
G01 X-5.9489 Y-6.2651
G01 X-6.0461 Y-6.1990
G01 X-6.1338 Y-6.1207
G01 X-6.2103 Y-6.0314
G01 X-6.2744 Y-5.9328
G01 X-6.3248 Y-5.8266
G01 X-6.3607 Y-5.7146
G01 X-6.3816 Y-5.5989
G01 X-6.3869 Y-5.4814
G01 X-6.6596 Y-5.4757
G01 X-6.6462 Y-5.3226
G01 X-6.6127 Y-5.1725
G01 X-6.5596 Y-5.0282
G01 X-6.4879 Y-4.8923
G01 X-6.3988 Y-4.7669
G01 X-6.2940 Y-4.6545
G01 X-6.1752 Y-4.5569
G01 X-6.0445 Y-4.4759
G01 X-5.9043 Y-4.4129
G01 X-5.7570 Y-4.3690
G01 X-5.5943 Y-4.3432
G01 X-5.4605 Y-4.3428
G01 X-5.3466 Y-4.3503
G01 X-5.1959 Y-4.3807
G01 X-5.0505 Y-4.4308
G01 X-4.9131 Y-4.4996
G01 X-4.7859 Y-4.5860
G01 X-4.6721 Y-4.6878
G01 X-4.5713 Y-4.8052
G01 X-4.4875 Y-4.9342
G01 X-4.4216 Y-5.0730
G01 X-4.3746 Y-5.2194
G01 X-4.3474 Y-5.3707
G01 X-4.3404 Y-5.5243
G01 X-4.3538 Y-5.6774
G01 X-4.3873 Y-5.8275
G01 X-4.4404 Y-5.9718
G01 X-4.5121 Y-6.1077
G01 X-4.6012 Y-6.2331
G01 X-4.7060 Y-6.3455
G01 X-4.8248 Y-6.4431
G01 X-4.9555 Y-6.5241
G01 X-5.0957 Y-6.5871
G01 X-5.2430 Y-6.6310
G01 X-5.4057 Y-6.6568
G01 X-5.5395 Y-6.6572
G01 X-5.6534 Y-6.6497
G01 X-5.8041 Y-6.6193
G01 X-5.9495 Y-6.5692
G01 X-6.0869 Y-6.5004
G01 X-6.2141 Y-6.4140
G01 X-6.3287 Y-6.3115
G01 X-6.4287 Y-6.1948
G01 X-6.5125 Y-6.0658
G01 X-6.5784 Y-5.9270
G01 X-6.6254 Y-5.7806
G01 X-6.6526 Y-5.6293
G01 X-6.6596 Y-5.4757
G01 X-6.9323 Y-5.4700
G01 X-6.9157 Y-5.2808
G01 X-6.8743 Y-5.0955
G01 X-6.8088 Y-4.9173
G01 X-6.7202 Y-4.7493
G01 X-6.6102 Y-4.5946
G01 X-6.4807 Y-4.4557
G01 X-6.3340 Y-4.3351
G01 X-6.1726 Y-4.2351
G01 X-5.9994 Y-4.1572
G01 X-5.8174 Y-4.1030
G01 X-5.6218 Y-4.0720
G01 X-5.4514 Y-4.0706
G01 X-5.3105 Y-4.0800
G01 X-5.1244 Y-4.1175
G01 X-4.9448 Y-4.1793
G01 X-4.7751 Y-4.2644
G01 X-4.6180 Y-4.3711
G01 X-4.4773 Y-4.4969
G01 X-4.3529 Y-4.6418
G01 X-4.2494 Y-4.8011
G01 X-4.1680 Y-4.9726
G01 X-4.1099 Y-5.1534
G01 X-4.0763 Y-5.3403
G01 X-4.0677 Y-5.5300
G01 X-4.0843 Y-5.7192
G01 X-4.1257 Y-5.9045
G01 X-4.1912 Y-6.0827
G01 X-4.2798 Y-6.2507
G01 X-4.3898 Y-6.4054
G01 X-4.5193 Y-6.5443
G01 X-4.6660 Y-6.6649
G01 X-4.8274 Y-6.7649
G01 X-5.0006 Y-6.8428
G01 X-5.1826 Y-6.8970
G01 X-5.3782 Y-6.9280
G01 X-5.5486 Y-6.9294
G01 X-5.6895 Y-6.9200
G01 X-5.8756 Y-6.8825
G01 X-6.0552 Y-6.8207
G01 X-6.2249 Y-6.7356
G01 X-6.3820 Y-6.6289
G01 X-6.5236 Y-6.5023
G01 X-6.6471 Y-6.3582
G01 X-6.7506 Y-6.1989
G01 X-6.8320 Y-6.0274
G01 X-6.8901 Y-5.8466
G01 X-6.9237 Y-5.6597
G01 X-6.9323 Y-5.4700
G01 X-7.2050 Y-5.4643
G01 X-7.1853 Y-5.2391
G01 X-7.1360 Y-5.0185
G01 X-7.0579 Y-4.8064
G01 X-6.9525 Y-4.6064
G01 X-6.8216 Y-4.4222
G01 X-6.6674 Y-4.2568
G01 X-6.4927 Y-4.1134
G01 X-6.3006 Y-3.9943
G01 X-6.0944 Y-3.9016
G01 X-5.8778 Y-3.8370
G01 X-5.6494 Y-3.8008
G01 X-5.4424 Y-3.7985
G01 X-5.2745 Y-3.8096
G01 X-5.0529 Y-3.8543
G01 X-4.8391 Y-3.9279
G01 X-4.6370 Y-4.0291
G01 X-4.4501 Y-4.1562
G01 X-4.2825 Y-4.3060
G01 X-4.1345 Y-4.4784
G01 X-4.0113 Y-4.6680
G01 X-3.9144 Y-4.8722
G01 X-3.8453 Y-5.0874
G01 X-3.8053 Y-5.3099
G01 X-3.7950 Y-5.5357
G01 X-3.8147 Y-5.7609
G01 X-3.8640 Y-5.9815
G01 X-3.9421 Y-6.1936
G01 X-4.0475 Y-6.3936
G01 X-4.1784 Y-6.5778
G01 X-4.3326 Y-6.7432
G01 X-4.5073 Y-6.8866
G01 X-4.6994 Y-7.0057
G01 X-4.9056 Y-7.0984
G01 X-5.1222 Y-7.1630
G01 X-5.3506 Y-7.1992
G01 X-5.5576 Y-7.2015
G01 X-5.7255 Y-7.1904
G01 X-5.9471 Y-7.1457
G01 X-6.1609 Y-7.0721
G01 X-6.3630 Y-6.9709
G01 X-6.5499 Y-6.8438
G01 X-6.7184 Y-6.6932
G01 X-6.8655 Y-6.5216
G01 X-6.9887 Y-6.3320
G01 X-7.0856 Y-6.1278
G01 X-7.1547 Y-5.9126
G01 X-7.1947 Y-5.6901
G01 X-7.2050 Y-5.4643
G01 X-7.4777 Y-5.4586
G01 X-7.4548 Y-5.1974
G01 X-7.3976 Y-4.9415
G01 X-7.3071 Y-4.6954
G01 X-7.1848 Y-4.4635
G01 X-7.0329 Y-4.2498
G01 X-6.8541 Y-4.0580
G01 X-6.6515 Y-3.8916
G01 X-6.4287 Y-3.7534
G01 X-6.1895 Y-3.6459
G01 X-5.9383 Y-3.5710
G01 X-5.6769 Y-3.5296
G01 X-5.4334 Y-3.5263
G01 X-5.2384 Y-3.5393
G01 X-4.9814 Y-3.5911
G01 X-4.7334 Y-3.6764
G01 X-4.4990 Y-3.7938
G01 X-4.2821 Y-3.9412
G01 X-4.0867 Y-4.1160
G01 X-3.9161 Y-4.3151
G01 X-3.7733 Y-4.5350
G01 X-3.6608 Y-4.7718
G01 X-3.5806 Y-5.0214
G01 X-3.5342 Y-5.2795
G01 X-3.5223 Y-5.5414
G01 X-3.5452 Y-5.8026
G01 X-3.6024 Y-6.0585
G01 X-3.6929 Y-6.3046
G01 X-3.8152 Y-6.5365
G01 X-3.9671 Y-6.7502
G01 X-4.1459 Y-6.9420
G01 X-4.3485 Y-7.1084
G01 X-4.5713 Y-7.2466
G01 X-4.8105 Y-7.3541
G01 X-5.0617 Y-7.4290
G01 X-5.3231 Y-7.4704
G01 X-5.5666 Y-7.4737
G01 X-5.7616 Y-7.4607
G01 X-6.0186 Y-7.4089
G01 X-6.2666 Y-7.3236
G01 X-6.5010 Y-7.2062
G01 X-6.7179 Y-7.0588
G01 X-6.9133 Y-6.8840
G01 X-7.0839 Y-6.6849
G01 X-7.2267 Y-6.4650
G01 X-7.3392 Y-6.2282
G01 X-7.4194 Y-5.9786
G01 X-7.4658 Y-5.7205
G01 X-7.4777 Y-5.4586
G00 X-7.4777 Y-5.4586
G01 F60.00
G01 Z-0.1000
G01 F120.00
G01 X-7.4658 Y-5.7205
G01 X-7.4194 Y-5.9786
G01 X-7.3392 Y-6.2282
G01 X-7.2267 Y-6.4650
G01 X-7.0839 Y-6.6849
G01 X-6.9133 Y-6.8840
G01 X-6.7179 Y-7.0588
G01 X-6.5010 Y-7.2062
G01 X-6.2666 Y-7.3236
G01 X-6.0186 Y-7.4089
G01 X-5.7616 Y-7.4607
G01 X-5.5666 Y-7.4737
G01 X-5.3231 Y-7.4704
G01 X-5.0617 Y-7.4290
G01 X-4.8105 Y-7.3541
G01 X-4.5713 Y-7.2466
G01 X-4.3485 Y-7.1084
G01 X-4.1459 Y-6.9420
G01 X-3.9671 Y-6.7502
G01 X-3.8152 Y-6.5365
G01 X-3.6929 Y-6.3046
G01 X-3.6024 Y-6.0585
G01 X-3.5452 Y-5.8026
G01 X-3.5223 Y-5.5414
G01 X-3.5342 Y-5.2795
G01 X-3.5806 Y-5.0214
G01 X-3.6608 Y-4.7718
G01 X-3.7733 Y-4.5350
G01 X-3.9161 Y-4.3151
G01 X-4.0867 Y-4.1160
G01 X-4.2821 Y-3.9412
G01 X-4.4990 Y-3.7938
G01 X-4.7334 Y-3.6764
G01 X-4.9814 Y-3.5911
G01 X-5.2384 Y-3.5393
G01 X-5.4334 Y-3.5263
G01 X-5.6769 Y-3.5296
G01 X-5.9383 Y-3.5710
G01 X-6.1895 Y-3.6459
G01 X-6.4287 Y-3.7534
G01 X-6.6515 Y-3.8916
G01 X-6.8541 Y-4.0580
G01 X-7.0329 Y-4.2498
G01 X-7.1848 Y-4.4635
G01 X-7.3071 Y-4.6954
G01 X-7.3976 Y-4.9415
G01 X-7.4548 Y-5.1974
G01 X-7.4777 Y-5.4586
G01 X-7.2050 Y-5.4643
G01 X-7.1947 Y-5.6901
G01 X-7.1547 Y-5.9126
G01 X-7.0856 Y-6.1278
G01 X-6.9887 Y-6.3320
G01 X-6.8655 Y-6.5216
G01 X-6.7184 Y-6.6932
G01 X-6.5499 Y-6.8438
G01 X-6.3630 Y-6.9709
G01 X-6.1609 Y-7.0721
G01 X-5.9471 Y-7.1457
G01 X-5.7255 Y-7.1904
G01 X-5.5576 Y-7.2015
G01 X-5.3506 Y-7.1992
G01 X-5.1222 Y-7.1630
G01 X-4.9056 Y-7.0984
G01 X-4.6994 Y-7.0057
G01 X-4.5073 Y-6.8866
G01 X-4.3326 Y-6.7432
G01 X-4.1784 Y-6.5778
G01 X-4.0475 Y-6.3936
G01 X-3.9421 Y-6.1936
G01 X-3.8640 Y-5.9815
G01 X-3.8147 Y-5.7609
G01 X-3.7950 Y-5.5357
G01 X-3.8053 Y-5.3099
G01 X-3.8453 Y-5.0874
G01 X-3.9144 Y-4.8722
G01 X-4.0113 Y-4.6680
G01 X-4.1345 Y-4.4784
G01 X-4.2825 Y-4.3060
G01 X-4.4501 Y-4.1562
G01 X-4.6370 Y-4.0291
G01 X-4.8391 Y-3.9279
G01 X-5.0529 Y-3.8543
G01 X-5.2745 Y-3.8096
G01 X-5.4424 Y-3.7985
G01 X-5.6494 Y-3.8008
G01 X-5.8778 Y-3.8370
G01 X-6.0944 Y-3.9016
G01 X-6.3006 Y-3.9943
G01 X-6.4927 Y-4.1134
G01 X-6.6674 Y-4.2568
G01 X-6.8216 Y-4.4222
G01 X-6.9525 Y-4.6064
G01 X-7.0579 Y-4.8064
G01 X-7.1360 Y-5.0185
G01 X-7.1853 Y-5.2391
G01 X-7.2050 Y-5.4643
G01 X-6.9323 Y-5.4700
G01 X-6.9237 Y-5.6597
G01 X-6.8901 Y-5.8466
G01 X-6.8320 Y-6.0274
G01 X-6.7506 Y-6.1989
G01 X-6.6471 Y-6.3582
G01 X-6.5236 Y-6.5023
G01 X-6.3820 Y-6.6289
G01 X-6.2249 Y-6.7356
G01 X-6.0552 Y-6.8207
G01 X-5.8756 Y-6.8825
G01 X-5.6895 Y-6.9200
G01 X-5.5486 Y-6.9294
G01 X-5.3782 Y-6.9280
G01 X-5.1826 Y-6.8970
G01 X-5.0006 Y-6.8428
G01 X-4.8274 Y-6.7649
G01 X-4.6660 Y-6.6649
G01 X-4.5193 Y-6.5443
G01 X-4.3898 Y-6.4054
G01 X-4.2798 Y-6.2507
G01 X-4.1912 Y-6.0827
G01 X-4.1257 Y-5.9045
G01 X-4.0843 Y-5.7192
G01 X-4.0677 Y-5.5300
G01 X-4.0763 Y-5.3403
G01 X-4.1099 Y-5.1534
G01 X-4.1680 Y-4.9726
G01 X-4.2494 Y-4.8011
G01 X-4.3529 Y-4.6418
G01 X-4.4773 Y-4.4969
G01 X-4.6180 Y-4.3711
G01 X-4.7751 Y-4.2644
G01 X-4.9448 Y-4.1793
G01 X-5.1244 Y-4.1175
G01 X-5.3105 Y-4.0800
G01 X-5.4514 Y-4.0706
G01 X-5.6218 Y-4.0720
G01 X-5.8174 Y-4.1030
G01 X-5.9994 Y-4.1572
G01 X-6.1726 Y-4.2351
G01 X-6.3340 Y-4.3351
G01 X-6.4807 Y-4.4557
G01 X-6.6102 Y-4.5946
G01 X-6.7202 Y-4.7493
G01 X-6.8088 Y-4.9173
G01 X-6.8743 Y-5.0955
G01 X-6.9157 Y-5.2808
G01 X-6.9323 Y-5.4700
G01 X-6.6596 Y-5.4757
G01 X-6.6526 Y-5.6293
G01 X-6.6254 Y-5.7806
G01 X-6.5784 Y-5.9270
G01 X-6.5125 Y-6.0658
G01 X-6.4287 Y-6.1948
G01 X-6.3287 Y-6.3115
G01 X-6.2141 Y-6.4140
G01 X-6.0869 Y-6.5004
G01 X-5.9495 Y-6.5692
G01 X-5.8041 Y-6.6193
G01 X-5.6534 Y-6.6497
G01 X-5.5395 Y-6.6572
G01 X-5.4057 Y-6.6568
G01 X-5.2430 Y-6.6310
G01 X-5.0957 Y-6.5871
G01 X-4.9555 Y-6.5241
G01 X-4.8248 Y-6.4431
G01 X-4.7060 Y-6.3455
G01 X-4.6012 Y-6.2331
G01 X-4.5121 Y-6.1077
G01 X-4.4404 Y-5.9718
G01 X-4.3873 Y-5.8275
G01 X-4.3538 Y-5.6774
G01 X-4.3404 Y-5.5243
G01 X-4.3474 Y-5.3707
G01 X-4.3746 Y-5.2194
G01 X-4.4216 Y-5.0730
G01 X-4.4875 Y-4.9342
G01 X-4.5713 Y-4.8052
G01 X-4.6721 Y-4.6878
G01 X-4.7859 Y-4.5860
G01 X-4.9131 Y-4.4996
G01 X-5.0505 Y-4.4308
G01 X-5.1959 Y-4.3807
G01 X-5.3466 Y-4.3503
G01 X-5.4605 Y-4.3428
G01 X-5.5943 Y-4.3432
G01 X-5.7570 Y-4.3690
G01 X-5.9043 Y-4.4129
G01 X-6.0445 Y-4.4759
G01 X-6.1752 Y-4.5569
G01 X-6.2940 Y-4.6545
G01 X-6.3988 Y-4.7669
G01 X-6.4879 Y-4.8923
G01 X-6.5596 Y-5.0282
G01 X-6.6127 Y-5.1725
G01 X-6.6462 Y-5.3226
G01 X-6.6596 Y-5.4757
G01 X-6.3869 Y-5.4814
G01 X-6.3816 Y-5.5989
G01 X-6.3607 Y-5.7146
G01 X-6.3248 Y-5.8266
G01 X-6.2744 Y-5.9328
G01 X-6.2103 Y-6.0314
G01 X-6.1338 Y-6.1207
G01 X-6.0461 Y-6.1990
G01 X-5.9489 Y-6.2651
G01 X-5.8438 Y-6.3178
G01 X-5.7326 Y-6.3561
G01 X-5.6173 Y-6.3793
G01 X-5.5305 Y-6.3851
G01 X-5.4299 Y-6.3851
G01 X-5.3035 Y-6.3650
G01 X-5.1908 Y-6.3315
G01 X-5.0835 Y-6.2833
G01 X-4.9836 Y-6.2213
G01 X-4.8927 Y-6.1467
G01 X-4.8126 Y-6.0607
G01 X-4.7444 Y-5.9648
G01 X-4.6896 Y-5.8608
G01 X-4.6490 Y-5.7505
G01 X-4.6234 Y-5.6357
G01 X-4.6131 Y-5.5186
G01 X-4.6184 Y-5.4011
G01 X-4.6393 Y-5.2854
G01 X-4.6752 Y-5.1734
G01 X-4.7256 Y-5.0672
G01 X-4.7897 Y-4.9686
G01 X-4.8669 Y-4.8788
G01 X-4.9539 Y-4.8010
G01 X-5.0511 Y-4.7349
G01 X-5.1562 Y-4.6822
G01 X-5.2674 Y-4.6439
G01 X-5.3827 Y-4.6207
G01 X-5.4695 Y-4.6149
G01 X-5.5701 Y-4.6149
G01 X-5.6965 Y-4.6350
G01 X-5.8092 Y-4.6685
G01 X-5.9165 Y-4.7167
G01 X-6.0164 Y-4.7787
G01 X-6.1073 Y-4.8533
G01 X-6.1874 Y-4.9393
G01 X-6.2556 Y-5.0352
G01 X-6.3104 Y-5.1392
G01 X-6.3510 Y-5.2495
G01 X-6.3766 Y-5.3643
G01 X-6.3869 Y-5.4814
G01 X-6.1142 Y-5.4871
G01 X-6.1105 Y-5.5685
G01 X-6.0961 Y-5.6486
G01 X-6.0712 Y-5.7261
G01 X-6.0363 Y-5.7997
G01 X-5.9919 Y-5.8680
G01 X-5.9389 Y-5.9298
G01 X-5.8782 Y-5.9841
G01 X-5.8109 Y-6.0299
G01 X-5.7381 Y-6.0663
G01 X-5.6611 Y-6.0928
G01 X-5.5215 Y-6.1129
G01 X-5.4513 Y-6.1129
G01 X-5.3639 Y-6.0991
G01 X-5.2859 Y-6.0758
G01 X-5.2116 Y-6.0424
G01 X-5.1424 Y-5.9995
G01 X-5.0795 Y-5.9478
G01 X-5.0239 Y-5.8883
G01 X-4.9768 Y-5.8219
G01 X-4.9388 Y-5.7499
G01 X-4.9107 Y-5.6734
G01 X-4.8929 Y-5.5940
G01 X-4.8858 Y-5.5129
G01 X-4.8895 Y-5.4315
G01 X-4.9039 Y-5.3514
G01 X-4.9288 Y-5.2739
G01 X-4.9637 Y-5.2003
G01 X-5.0080 Y-5.1321
G01 X-5.0616 Y-5.0697
G01 X-5.1218 Y-5.0159
G01 X-5.1891 Y-4.9701
G01 X-5.2619 Y-4.9337
G01 X-5.3389 Y-4.9072
G01 X-5.4785 Y-4.8871
G01 X-5.5487 Y-4.8871
G01 X-5.6361 Y-4.9009
G01 X-5.7141 Y-4.9242
G01 X-5.7884 Y-4.9576
G01 X-5.8576 Y-5.0005
G01 X-5.9205 Y-5.0522
G01 X-5.9761 Y-5.1117
G01 X-6.0232 Y-5.1781
G01 X-6.0612 Y-5.2501
G01 X-6.0893 Y-5.3266
G01 X-6.1071 Y-5.4060
G01 X-6.1142 Y-5.4871
G01 X-5.8415 Y-5.4928
G01 X-5.8314 Y-5.5826
G01 X-5.8176 Y-5.6257
G01 X-5.7735 Y-5.7046
G01 X-5.7440 Y-5.7390
G01 X-5.6728 Y-5.7946
G01 X-5.6324 Y-5.8149
G01 X-5.5452 Y-5.8386
G01 X-5.4727 Y-5.8407
G01 X-5.3809 Y-5.8201
G01 X-5.3396 Y-5.8016
G01 X-5.2662 Y-5.7490
G01 X-5.2353 Y-5.7159
G01 X-5.1880 Y-5.6389
G01 X-5.1723 Y-5.5964
G01 X-5.1585 Y-5.5072
G01 X-5.1606 Y-5.4619
G01 X-5.1824 Y-5.3743
G01 X-5.2264 Y-5.2956
G01 X-5.2564 Y-5.2606
G01 X-5.3272 Y-5.2054
G01 X-5.3676 Y-5.1851
G01 X-5.4104 Y-5.1704
G01 X-5.4875 Y-5.1593
G01 X-5.5273 Y-5.1593
G01 X-5.6191 Y-5.1799
G01 X-5.6988 Y-5.2223
G01 X-5.7647 Y-5.2841
G01 X-5.7909 Y-5.3210
G01 X-5.8277 Y-5.4036
G01 X-5.8415 Y-5.4928
G01 X-5.5688 Y-5.4986
G01 X-5.5640 Y-5.5253
G01 X-5.5492 Y-5.5481
G01 X-5.5034 Y-5.5686
G01 X-5.4760 Y-5.5645
G01 X-5.4529 Y-5.5502
G01 X-5.4371 Y-5.5280
G01 X-5.4312 Y-5.5014
G01 X-5.4360 Y-5.4747
G01 X-5.4512 Y-5.4515
G01 X-5.4966 Y-5.4314
G01 X-5.5240 Y-5.4355
G01 X-5.5471 Y-5.4498
G01 X-5.5629 Y-5.4720
G01 X-5.5688 Y-5.4986
G00 Z2.0000
G00 X-7.2233 Y-16.6967
G01 F60.00
G01 Z-0.0250
G01 F120.00
G01 X-7.1019 Y-16.6539
G01 X-6.9124 Y-16.6202
G01 X-6.7182 Y-16.6176
G01 X-6.5262 Y-16.6469
G01 X-6.3758 Y-16.6959
G01 X-6.4202 Y-16.7403
G01 X-6.5752 Y-16.6959
G01 X-6.7007 Y-16.6778
G01 X-6.8000 Y-16.6732
G01 X-6.9215 Y-16.6800
G01 X-7.0248 Y-16.6959
G01 X-7.1798 Y-16.7403
G01 X-7.2233 Y-16.6967
G00 X-7.2233 Y-16.6967
G01 F60.00
G01 Z-0.0500
G01 F120.00
G01 X-7.1798 Y-16.7403
G01 X-7.0248 Y-16.6959
G01 X-6.9215 Y-16.6800
G01 X-6.8000 Y-16.6732
G01 X-6.7007 Y-16.6778
G01 X-6.5752 Y-16.6959
G01 X-6.4202 Y-16.7403
G01 X-6.3758 Y-16.6959
G01 X-6.5262 Y-16.6469
G01 X-6.7182 Y-16.6176
G01 X-6.9124 Y-16.6202
G01 X-7.1019 Y-16.6539
G01 X-7.2233 Y-16.6967
G00 X-7.2233 Y-16.6967
G01 F60.00
G01 Z-0.0750
G01 F120.00
G01 X-7.1019 Y-16.6539
G01 X-6.9124 Y-16.6202
G01 X-6.7182 Y-16.6176
G01 X-6.5262 Y-16.6469
G01 X-6.3758 Y-16.6959
G01 X-6.4202 Y-16.7403
G01 X-6.5752 Y-16.6959
G01 X-6.7007 Y-16.6778
G01 X-6.8000 Y-16.6732
G01 X-6.9215 Y-16.6800
G01 X-7.0248 Y-16.6959
G01 X-7.1798 Y-16.7403
G01 X-7.2233 Y-16.6967
G00 X-7.2233 Y-16.6967
G01 F60.00
G01 Z-0.1000
G01 F120.00
G01 X-7.1798 Y-16.7403
G01 X-7.0248 Y-16.6959
G01 X-6.9215 Y-16.6800
G01 X-6.8000 Y-16.6732
G01 X-6.7007 Y-16.6778
G01 X-6.5752 Y-16.6959
G01 X-6.4202 Y-16.7403
G01 X-6.3758 Y-16.6959
G01 X-6.5262 Y-16.6469
G01 X-6.7182 Y-16.6176
G01 X-6.9124 Y-16.6202
G01 X-7.1019 Y-16.6539
G01 X-7.2233 Y-16.6967
G00 Z2.0000
G00 X-7.9053 Y-18.2254
G01 F60.00
G01 Z-0.0250
G01 F120.00
G01 X-7.9586 Y-18.0496
G01 X-7.9858 Y-17.8071
G01 X-7.9691 Y-17.6056
G01 X-7.9222 Y-17.4189
G01 X-7.9038 Y-17.3762
G01 X-7.8597 Y-17.4203
G01 X-7.9041 Y-17.5752
G01 X-7.9200 Y-17.6785
G01 X-7.9268 Y-17.8000
G01 X-7.9222 Y-17.8993
G01 X-7.9041 Y-18.0248
G01 X-7.8597 Y-18.1798
G01 X-7.9053 Y-18.2254
G00 X-7.9053 Y-18.2254
G01 F60.00
G01 Z-0.0500
G01 F120.00
G01 X-7.8597 Y-18.1798
G01 X-7.9041 Y-18.0248
G01 X-7.9222 Y-17.8993
G01 X-7.9268 Y-17.8000
G01 X-7.9200 Y-17.6785
G01 X-7.9041 Y-17.5752
G01 X-7.8597 Y-17.4203
G01 X-7.9038 Y-17.3762
G01 X-7.9222 Y-17.4189
G01 X-7.9691 Y-17.6056
G01 X-7.9858 Y-17.8071
G01 X-7.9586 Y-18.0496
G01 X-7.9053 Y-18.2254
G00 X-7.9053 Y-18.2254
G01 F60.00
G01 Z-0.0750
G01 F120.00
G01 X-7.9586 Y-18.0496
G01 X-7.9858 Y-17.8071
G01 X-7.9691 Y-17.6056
G01 X-7.9222 Y-17.4189
G01 X-7.9038 Y-17.3762
G01 X-7.8597 Y-17.4203
G01 X-7.9041 Y-17.5752
G01 X-7.9200 Y-17.6785
G01 X-7.9268 Y-17.8000
G01 X-7.9222 Y-17.8993
G01 X-7.9041 Y-18.0248
G01 X-7.8597 Y-18.1798
G01 X-7.9053 Y-18.2254
G00 X-7.9053 Y-18.2254
G01 F60.00
G01 Z-0.1000
G01 F120.00
G01 X-7.8597 Y-18.1798
G01 X-7.9041 Y-18.0248
G01 X-7.9222 Y-17.8993
G01 X-7.9268 Y-17.8000
G01 X-7.9200 Y-17.6785
G01 X-7.9041 Y-17.5752
G01 X-7.8597 Y-17.4203
G01 X-7.9038 Y-17.3762
G01 X-7.9222 Y-17.4189
G01 X-7.9691 Y-17.6056
G01 X-7.9858 Y-17.8071
G01 X-7.9586 Y-18.0496
G01 X-7.9053 Y-18.2254
G00 Z2.0000
G00 X-7.2256 Y-18.9056
G01 F60.00
G01 Z-0.0250
G01 F120.00
G01 X-7.1798 Y-18.8597
G01 X-7.0248 Y-18.9041
G01 X-6.8993 Y-18.9222
G01 X-6.8000 Y-18.9268
G01 X-6.6785 Y-18.9200
G01 X-6.5752 Y-18.9041
G01 X-6.4202 Y-18.8597
G01 X-6.3770 Y-18.9029
G01 X-6.4702 Y-18.9384
G01 X-6.6588 Y-18.9767
G01 X-6.8529 Y-18.9840
G01 X-7.0456 Y-18.9595
G01 X-7.2256 Y-18.9056
G00 X-7.2256 Y-18.9056
G01 F60.00
G01 Z-0.0500
G01 F120.00
G01 X-7.0456 Y-18.9595
G01 X-6.8529 Y-18.9840
G01 X-6.6588 Y-18.9767
G01 X-6.4702 Y-18.9384
G01 X-6.3770 Y-18.9029
G01 X-6.4202 Y-18.8597
G01 X-6.5752 Y-18.9041
G01 X-6.6785 Y-18.9200
G01 X-6.8000 Y-18.9268
G01 X-6.8993 Y-18.9222
G01 X-7.0248 Y-18.9041
G01 X-7.1798 Y-18.8597
G01 X-7.2256 Y-18.9056
G00 X-7.2256 Y-18.9056
G01 F60.00
G01 Z-0.0750
G01 F120.00
G01 X-7.1798 Y-18.8597
G01 X-7.0248 Y-18.9041
G01 X-6.8993 Y-18.9222
G01 X-6.8000 Y-18.9268
G01 X-6.6785 Y-18.9200
G01 X-6.5752 Y-18.9041
G01 X-6.4202 Y-18.8597
G01 X-6.3770 Y-18.9029
G01 X-6.4702 Y-18.9384
G01 X-6.6588 Y-18.9767
G01 X-6.8529 Y-18.9840
G01 X-7.0456 Y-18.9595
G01 X-7.2256 Y-18.9056
G00 X-7.2256 Y-18.9056
G01 F60.00
G01 Z-0.1000
G01 F120.00
G01 X-7.0456 Y-18.9595
G01 X-6.8529 Y-18.9840
G01 X-6.6588 Y-18.9767
G01 X-6.4702 Y-18.9384
G01 X-6.3770 Y-18.9029
G01 X-6.4202 Y-18.8597
G01 X-6.5752 Y-18.9041
G01 X-6.6785 Y-18.9200
G01 X-6.8000 Y-18.9268
G01 X-6.8993 Y-18.9222
G01 X-7.0248 Y-18.9041
G01 X-7.1798 Y-18.8597
G01 X-7.2256 Y-18.9056
G00 Z2.0000
G00 X-5.6969 Y-18.2232
G01 F60.00
G01 Z-0.0250
G01 F120.00
G01 X-5.7403 Y-18.1798
G01 X-5.6959 Y-18.0248
G01 X-5.6800 Y-17.9215
G01 X-5.6732 Y-17.8000
G01 X-5.6778 Y-17.7007
G01 X-5.6959 Y-17.5752
G01 X-5.7403 Y-17.4202
G01 X-5.6950 Y-17.3749
G01 X-5.6360 Y-17.5771
G01 X-5.6151 Y-17.7719
G01 X-5.6265 Y-17.9658
G01 X-5.6688 Y-18.1536
G01 X-5.6969 Y-18.2232
G00 X-5.6969 Y-18.2232
G01 F60.00
G01 Z-0.0500
G01 F120.00
G01 X-5.6688 Y-18.1536
G01 X-5.6265 Y-17.9658
G01 X-5.6151 Y-17.7719
G01 X-5.6360 Y-17.5771
G01 X-5.6950 Y-17.3749
G01 X-5.7403 Y-17.4202
G01 X-5.6959 Y-17.5752
G01 X-5.6778 Y-17.7007
G01 X-5.6732 Y-17.8000
G01 X-5.6800 Y-17.9215
G01 X-5.6959 Y-18.0248
G01 X-5.7403 Y-18.1798
G01 X-5.6969 Y-18.2232
G00 X-5.6969 Y-18.2232
G01 F60.00
G01 Z-0.0750
G01 F120.00
G01 X-5.7403 Y-18.1798
G01 X-5.6959 Y-18.0248
G01 X-5.6800 Y-17.9215
G01 X-5.6732 Y-17.8000
G01 X-5.6778 Y-17.7007
G01 X-5.6959 Y-17.5752
G01 X-5.7403 Y-17.4202
G01 X-5.6950 Y-17.3749
G01 X-5.6360 Y-17.5771
G01 X-5.6151 Y-17.7719
G01 X-5.6265 Y-17.9658
G01 X-5.6688 Y-18.1536
G01 X-5.6969 Y-18.2232
G00 X-5.6969 Y-18.2232
G01 F60.00
G01 Z-0.1000
G01 F120.00
G01 X-5.6688 Y-18.1536
G01 X-5.6265 Y-17.9658
G01 X-5.6151 Y-17.7719
G01 X-5.6360 Y-17.5771
G01 X-5.6950 Y-17.3749
G01 X-5.7403 Y-17.4202
G01 X-5.6959 Y-17.5752
G01 X-5.6778 Y-17.7007
G01 X-5.6732 Y-17.8000
G01 X-5.6800 Y-17.9215
G01 X-5.6959 Y-18.0248
G01 X-5.7403 Y-18.1798
G01 X-5.6969 Y-18.2232
G00 Z2.0000
G00 X-7.8970 Y-25.8999
G01 F60.00
G01 Z-0.0250
G01 F120.00
G01 X-25.2467 Y-25.9009
G01 X-25.4363 Y-25.9203
G01 X-25.5466 Y-25.9492
G01 X-25.6776 Y-26.0023
G01 X-25.8693 Y-26.0218
G01 X-26.0224 Y-26.0587
G01 X-26.1363 Y-26.0996
G01 X-26.2551 Y-26.1560
G01 X-26.3610 Y-26.2196
G01 X-26.4698 Y-26.3008
G01 X-29.2178 Y-26.3011
G01 X-29.3222 Y-26.3086
G01 X-29.4665 Y-26.3373
G01 X-29.5722 Y-26.3728
G01 X-29.6620 Y-26.4141
G01 X-29.7752 Y-26.4833
G01 X-29.9019 Y-26.5889
G01 X-31.1564 Y-27.8476
G01 X-31.2312 Y-27.9455
G01 X-31.2922 Y-28.0509
G01 X-31.3508 Y-28.1934
G01 X-31.3826 Y-28.3196
G01 X-31.3992 Y-28.5000
G01 X-31.3992 Y-38.4077
G01 X-31.7208 Y-38.0861
G01 X-31.7208 Y-27.2039
G01 X-26.9218 Y-22.4049
G01 X-26.8776 Y-22.5936
G01 X-26.8404 Y-22.6963
G01 X-26.7914 Y-22.8010
G01 X-26.7254 Y-22.9135
G01 X-26.6592 Y-23.0047
G01 X-26.5408 Y-23.1354
G01 X-26.4648 Y-23.2034
G01 X-26.3610 Y-23.2804
G01 X-26.2582 Y-23.3424
G01 X-26.1517 Y-23.3937
G01 X-25.9935 Y-23.4496
G01 X-25.8948 Y-23.4736
G01 X-25.7598 Y-23.4933
G01 X-23.5924 Y-25.6564
G01 X-23.4945 Y-25.7312
G01 X-23.3891 Y-25.7922
G01 X-23.2466 Y-25.8508
G01 X-23.1204 Y-25.8826
G01 X-22.9400 Y-25.8992
G01 X-7.8970 Y-25.8999
G00 X-7.8970 Y-25.8999
G01 F60.00
G01 Z-0.0500
G01 F120.00
G01 X-22.9400 Y-25.8992
G01 X-23.1204 Y-25.8826
G01 X-23.2466 Y-25.8508
G01 X-23.3891 Y-25.7922
G01 X-23.4945 Y-25.7312
G01 X-23.5924 Y-25.6564
G01 X-25.7598 Y-23.4933
G01 X-25.8948 Y-23.4736
G01 X-25.9935 Y-23.4496
G01 X-26.1517 Y-23.3937
G01 X-26.2582 Y-23.3424
G01 X-26.3610 Y-23.2804
G01 X-26.4648 Y-23.2034
G01 X-26.5408 Y-23.1354
G01 X-26.6592 Y-23.0047
G01 X-26.7254 Y-22.9135
G01 X-26.7914 Y-22.8010
G01 X-26.8404 Y-22.6963
G01 X-26.8776 Y-22.5936
G01 X-26.9218 Y-22.4049
G01 X-31.7208 Y-27.2039
G01 X-31.7208 Y-38.0861
G01 X-31.3992 Y-38.4077
G01 X-31.3992 Y-28.5000
G01 X-31.3826 Y-28.3196
G01 X-31.3508 Y-28.1934
G01 X-31.2922 Y-28.0509
G01 X-31.2312 Y-27.9455
G01 X-31.1564 Y-27.8476
G01 X-29.9019 Y-26.5889
G01 X-29.7752 Y-26.4833
G01 X-29.6620 Y-26.4141
G01 X-29.5722 Y-26.3728
G01 X-29.4665 Y-26.3373
G01 X-29.3222 Y-26.3086
G01 X-29.2178 Y-26.3011
G01 X-26.4698 Y-26.3008
G01 X-26.3610 Y-26.2196
G01 X-26.2551 Y-26.1560
G01 X-26.1363 Y-26.0996
G01 X-26.0224 Y-26.0587
G01 X-25.8693 Y-26.0218
G01 X-25.6776 Y-26.0023
G01 X-25.5466 Y-25.9492
G01 X-25.4363 Y-25.9203
G01 X-25.2467 Y-25.9009
G01 X-7.8970 Y-25.8999
G00 X-7.8970 Y-25.8999
G01 F60.00
G01 Z-0.0750
G01 F120.00
G01 X-25.2467 Y-25.9009
G01 X-25.4363 Y-25.9203
G01 X-25.5466 Y-25.9492
G01 X-25.6776 Y-26.0023
G01 X-25.8693 Y-26.0218
G01 X-26.0224 Y-26.0587
G01 X-26.1363 Y-26.0996
G01 X-26.2551 Y-26.1560
G01 X-26.3610 Y-26.2196
G01 X-26.4698 Y-26.3008
G01 X-29.2178 Y-26.3011
G01 X-29.3222 Y-26.3086
G01 X-29.4665 Y-26.3373
G01 X-29.5722 Y-26.3728
G01 X-29.6620 Y-26.4141
G01 X-29.7752 Y-26.4833
G01 X-29.9019 Y-26.5889
G01 X-31.1564 Y-27.8476
G01 X-31.2312 Y-27.9455
G01 X-31.2922 Y-28.0509
G01 X-31.3508 Y-28.1934
G01 X-31.3826 Y-28.3196
G01 X-31.3992 Y-28.5000
G01 X-31.3992 Y-38.4077
G01 X-31.7208 Y-38.0861
G01 X-31.7208 Y-27.2039
G01 X-26.9218 Y-22.4049
G01 X-26.8776 Y-22.5936
G01 X-26.8404 Y-22.6963
G01 X-26.7914 Y-22.8010
G01 X-26.7254 Y-22.9135
G01 X-26.6592 Y-23.0047
G01 X-26.5408 Y-23.1354
G01 X-26.4648 Y-23.2034
G01 X-26.3610 Y-23.2804
G01 X-26.2582 Y-23.3424
G01 X-26.1517 Y-23.3937
G01 X-25.9935 Y-23.4496
G01 X-25.8948 Y-23.4736
G01 X-25.7598 Y-23.4933
G01 X-23.5924 Y-25.6564
G01 X-23.4945 Y-25.7312
G01 X-23.3891 Y-25.7922
G01 X-23.2466 Y-25.8508
G01 X-23.1204 Y-25.8826
G01 X-22.9400 Y-25.8992
G01 X-7.8970 Y-25.8999
G00 X-7.8970 Y-25.8999
G01 F60.00
G01 Z-0.1000
G01 F120.00
G01 X-22.9400 Y-25.8992
G01 X-23.1204 Y-25.8826
G01 X-23.2466 Y-25.8508
G01 X-23.3891 Y-25.7922
G01 X-23.4945 Y-25.7312
G01 X-23.5924 Y-25.6564
G01 X-25.7598 Y-23.4933
G01 X-25.8948 Y-23.4736
G01 X-25.9935 Y-23.4496
G01 X-26.1517 Y-23.3937
G01 X-26.2582 Y-23.3424
G01 X-26.3610 Y-23.2804
G01 X-26.4648 Y-23.2034
G01 X-26.5408 Y-23.1354
G01 X-26.6592 Y-23.0047
G01 X-26.7254 Y-22.9135
G01 X-26.7914 Y-22.8010
G01 X-26.8404 Y-22.6963
G01 X-26.8776 Y-22.5936
G01 X-26.9218 Y-22.4049
G01 X-31.7208 Y-27.2039
G01 X-31.7208 Y-38.0861
G01 X-31.3992 Y-38.4077
G01 X-31.3992 Y-28.5000
G01 X-31.3826 Y-28.3196
G01 X-31.3508 Y-28.1934
G01 X-31.2922 Y-28.0509
G01 X-31.2312 Y-27.9455
G01 X-31.1564 Y-27.8476
G01 X-29.9019 Y-26.5889
G01 X-29.7752 Y-26.4833
G01 X-29.6620 Y-26.4141
G01 X-29.5722 Y-26.3728
G01 X-29.4665 Y-26.3373
G01 X-29.3222 Y-26.3086
G01 X-29.2178 Y-26.3011
G01 X-26.4698 Y-26.3008
G01 X-26.3610 Y-26.2196
G01 X-26.2551 Y-26.1560
G01 X-26.1363 Y-26.0996
G01 X-26.0224 Y-26.0587
G01 X-25.8693 Y-26.0218
G01 X-25.6776 Y-26.0023
G01 X-25.5466 Y-25.9492
G01 X-25.4363 Y-25.9203
G01 X-25.2467 Y-25.9009
G01 X-7.8970 Y-25.8999
G00 Z2.0000
G00 X-7.2233 Y-33.4967
G01 F60.00
G01 Z-0.0250
G01 F120.00
G01 X-7.1019 Y-33.4539
G01 X-6.9124 Y-33.4202
G01 X-6.7182 Y-33.4176
G01 X-6.5262 Y-33.4469
G01 X-6.3758 Y-33.4959
G01 X-6.4202 Y-33.5403
G01 X-6.5752 Y-33.4959
G01 X-6.7007 Y-33.4778
G01 X-6.8000 Y-33.4732
G01 X-6.9215 Y-33.4800
G01 X-7.0248 Y-33.4959
G01 X-7.1798 Y-33.5403
G01 X-7.2233 Y-33.4967
G00 X-7.2233 Y-33.4967
G01 F60.00
G01 Z-0.0500
G01 F120.00
G01 X-7.1798 Y-33.5403
G01 X-7.0248 Y-33.4959
G01 X-6.9215 Y-33.4800
G01 X-6.8000 Y-33.4732
G01 X-6.7007 Y-33.4778
G01 X-6.5752 Y-33.4959
G01 X-6.4202 Y-33.5403
G01 X-6.3758 Y-33.4959
G01 X-6.5262 Y-33.4469
G01 X-6.7182 Y-33.4176
G01 X-6.9124 Y-33.4202
G01 X-7.1019 Y-33.4539
G01 X-7.2233 Y-33.4967
G00 X-7.2233 Y-33.4967
G01 F60.00
G01 Z-0.0750
G01 F120.00
G01 X-7.1019 Y-33.4539
G01 X-6.9124 Y-33.4202
G01 X-6.7182 Y-33.4176
G01 X-6.5262 Y-33.4469
G01 X-6.3758 Y-33.4959
G01 X-6.4202 Y-33.5403
G01 X-6.5752 Y-33.4959
G01 X-6.7007 Y-33.4778
G01 X-6.8000 Y-33.4732
G01 X-6.9215 Y-33.4800
G01 X-7.0248 Y-33.4959
G01 X-7.1798 Y-33.5403
G01 X-7.2233 Y-33.4967
G00 X-7.2233 Y-33.4967
G01 F60.00
G01 Z-0.1000
G01 F120.00
G01 X-7.1798 Y-33.5403
G01 X-7.0248 Y-33.4959
G01 X-6.9215 Y-33.4800
G01 X-6.8000 Y-33.4732
G01 X-6.7007 Y-33.4778
G01 X-6.5752 Y-33.4959
G01 X-6.4202 Y-33.5403
G01 X-6.3758 Y-33.4959
G01 X-6.5262 Y-33.4469
G01 X-6.7182 Y-33.4176
G01 X-6.9124 Y-33.4202
G01 X-7.1019 Y-33.4539
G01 X-7.2233 Y-33.4967
G00 Z2.0000
G00 X-7.9053 Y-35.0254
G01 F60.00
G01 Z-0.0250
G01 F120.00
G01 X-7.9586 Y-34.8496
G01 X-7.9858 Y-34.6071
G01 X-7.9691 Y-34.4056
G01 X-7.9222 Y-34.2189
G01 X-7.9038 Y-34.1762
G01 X-7.8597 Y-34.2203
G01 X-7.9041 Y-34.3752
G01 X-7.9200 Y-34.4785
G01 X-7.9268 Y-34.6000
G01 X-7.9222 Y-34.6993
G01 X-7.9041 Y-34.8248
G01 X-7.8597 Y-34.9798
G01 X-7.9053 Y-35.0254
G00 X-7.9053 Y-35.0254
G01 F60.00
G01 Z-0.0500
G01 F120.00
G01 X-7.8597 Y-34.9798
G01 X-7.9041 Y-34.8248
G01 X-7.9222 Y-34.6993
G01 X-7.9268 Y-34.6000
G01 X-7.9200 Y-34.4785
G01 X-7.9041 Y-34.3752
G01 X-7.8597 Y-34.2203
G01 X-7.9038 Y-34.1762
G01 X-7.9222 Y-34.2189
G01 X-7.9691 Y-34.4056
G01 X-7.9858 Y-34.6071
G01 X-7.9586 Y-34.8496
G01 X-7.9053 Y-35.0254
G00 X-7.9053 Y-35.0254
G01 F60.00
G01 Z-0.0750
G01 F120.00
G01 X-7.9586 Y-34.8496
G01 X-7.9858 Y-34.6071
G01 X-7.9691 Y-34.4056
G01 X-7.9222 Y-34.2189
G01 X-7.9038 Y-34.1762
G01 X-7.8597 Y-34.2203
G01 X-7.9041 Y-34.3752
G01 X-7.9200 Y-34.4785
G01 X-7.9268 Y-34.6000
G01 X-7.9222 Y-34.6993
G01 X-7.9041 Y-34.8248
G01 X-7.8597 Y-34.9798
G01 X-7.9053 Y-35.0254
G00 X-7.9053 Y-35.0254
G01 F60.00
G01 Z-0.1000
G01 F120.00
G01 X-7.8597 Y-34.9798
G01 X-7.9041 Y-34.8248
G01 X-7.9222 Y-34.6993
G01 X-7.9268 Y-34.6000
G01 X-7.9200 Y-34.4785
G01 X-7.9041 Y-34.3752
G01 X-7.8597 Y-34.2203
G01 X-7.9038 Y-34.1762
G01 X-7.9222 Y-34.2189
G01 X-7.9691 Y-34.4056
G01 X-7.9858 Y-34.6071
G01 X-7.9586 Y-34.8496
G01 X-7.9053 Y-35.0254
G00 Z2.0000
G00 X-7.2256 Y-35.7056
G01 F60.00
G01 Z-0.0250
G01 F120.00
G01 X-7.1798 Y-35.6597
G01 X-7.0248 Y-35.7041
G01 X-6.8993 Y-35.7222
G01 X-6.8000 Y-35.7268
G01 X-6.6785 Y-35.7200
G01 X-6.5752 Y-35.7041
G01 X-6.4202 Y-35.6597
G01 X-6.3770 Y-35.7029
G01 X-6.4702 Y-35.7384
G01 X-6.6588 Y-35.7767
G01 X-6.8529 Y-35.7840
G01 X-7.0456 Y-35.7595
G01 X-7.2256 Y-35.7056
G00 X-7.2256 Y-35.7056
G01 F60.00
G01 Z-0.0500
G01 F120.00
G01 X-7.0456 Y-35.7595
G01 X-6.8529 Y-35.7840
G01 X-6.6588 Y-35.7767
G01 X-6.4702 Y-35.7384
G01 X-6.3770 Y-35.7029
G01 X-6.4202 Y-35.6597
G01 X-6.5752 Y-35.7041
G01 X-6.6785 Y-35.7200
G01 X-6.8000 Y-35.7268
G01 X-6.8993 Y-35.7222
G01 X-7.0248 Y-35.7041
G01 X-7.1798 Y-35.6597
G01 X-7.2256 Y-35.7056
G00 X-7.2256 Y-35.7056
G01 F60.00
G01 Z-0.0750
G01 F120.00
G01 X-7.1798 Y-35.6597
G01 X-7.0248 Y-35.7041
G01 X-6.8993 Y-35.7222
G01 X-6.8000 Y-35.7268
G01 X-6.6785 Y-35.7200
G01 X-6.5752 Y-35.7041
G01 X-6.4202 Y-35.6597
G01 X-6.3770 Y-35.7029
G01 X-6.4702 Y-35.7384
G01 X-6.6588 Y-35.7767
G01 X-6.8529 Y-35.7840
G01 X-7.0456 Y-35.7595
G01 X-7.2256 Y-35.7056
G00 X-7.2256 Y-35.7056
G01 F60.00
G01 Z-0.1000
G01 F120.00
G01 X-7.0456 Y-35.7595
G01 X-6.8529 Y-35.7840
G01 X-6.6588 Y-35.7767
G01 X-6.4702 Y-35.7384
G01 X-6.3770 Y-35.7029
G01 X-6.4202 Y-35.6597
G01 X-6.5752 Y-35.7041
G01 X-6.6785 Y-35.7200
G01 X-6.8000 Y-35.7268
G01 X-6.8993 Y-35.7222
G01 X-7.0248 Y-35.7041
G01 X-7.1798 Y-35.6597
G01 X-7.2256 Y-35.7056
G00 Z2.0000
G00 X-5.6969 Y-35.0232
G01 F60.00
G01 Z-0.0250
G01 F120.00
G01 X-5.7403 Y-34.9798
G01 X-5.6959 Y-34.8248
G01 X-5.6800 Y-34.7215
G01 X-5.6732 Y-34.6000
G01 X-5.6778 Y-34.5007
G01 X-5.6959 Y-34.3752
G01 X-5.7403 Y-34.2202
G01 X-5.6950 Y-34.1749
G01 X-5.6360 Y-34.3771
G01 X-5.6151 Y-34.5719
G01 X-5.6265 Y-34.7658
G01 X-5.6688 Y-34.9536
G01 X-5.6969 Y-35.0232
G00 X-5.6969 Y-35.0232
G01 F60.00
G01 Z-0.0500
G01 F120.00
G01 X-5.6688 Y-34.9536
G01 X-5.6265 Y-34.7658
G01 X-5.6151 Y-34.5719
G01 X-5.6360 Y-34.3771
G01 X-5.6950 Y-34.1749
G01 X-5.7403 Y-34.2202
G01 X-5.6959 Y-34.3752
G01 X-5.6778 Y-34.5007
G01 X-5.6732 Y-34.6000
G01 X-5.6800 Y-34.7215
G01 X-5.6959 Y-34.8248
G01 X-5.7403 Y-34.9798
G01 X-5.6969 Y-35.0232
G00 X-5.6969 Y-35.0232
G01 F60.00
G01 Z-0.0750
G01 F120.00
G01 X-5.7403 Y-34.9798
G01 X-5.6959 Y-34.8248
G01 X-5.6800 Y-34.7215
G01 X-5.6732 Y-34.6000
G01 X-5.6778 Y-34.5007
G01 X-5.6959 Y-34.3752
G01 X-5.7403 Y-34.2202
G01 X-5.6950 Y-34.1749
G01 X-5.6360 Y-34.3771
G01 X-5.6151 Y-34.5719
G01 X-5.6265 Y-34.7658
G01 X-5.6688 Y-34.9536
G01 X-5.6969 Y-35.0232
G00 X-5.6969 Y-35.0232
G01 F60.00
G01 Z-0.1000
G01 F120.00
G01 X-5.6688 Y-34.9536
G01 X-5.6265 Y-34.7658
G01 X-5.6151 Y-34.5719
G01 X-5.6360 Y-34.3771
G01 X-5.6950 Y-34.1749
G01 X-5.7403 Y-34.2202
G01 X-5.6959 Y-34.3752
G01 X-5.6778 Y-34.5007
G01 X-5.6732 Y-34.6000
G01 X-5.6800 Y-34.7215
G01 X-5.6959 Y-34.8248
G01 X-5.7403 Y-34.9798
G01 X-5.6969 Y-35.0232
G00 Z2.0000
G00 X-11.8794 Y-43.3214
G01 F60.00
G01 Z-0.0250
G01 F120.00
G01 X-8.9250 Y-43.3210
G01 X-8.9227 Y-43.9695
G01 X-9.1562 Y-44.1199
G01 X-9.4275 Y-44.3259
G01 X-9.6764 Y-44.5497
G01 X-9.8806 Y-44.7647
G01 X-11.8794 Y-44.7751
G01 X-11.8794 Y-43.3214
G01 X-12.1516 Y-43.0492
G01 X-8.6538 Y-43.0488
G01 X-8.6500 Y-44.1256
G01 X-8.9512 Y-44.3090
G01 X-9.2487 Y-44.5312
G01 X-9.5149 Y-44.7725
G01 X-9.7625 Y-45.0438
G01 X-12.1516 Y-45.0487
G01 X-12.1516 Y-43.0492
G01 X-12.4238 Y-42.7771
G01 X-8.4423 Y-42.7766
G01 X-8.3818 Y-42.8067
G01 X-8.3773 Y-44.2912
G01 X-8.5437 Y-44.3779
G01 X-8.7440 Y-44.4984
G01 X-9.0649 Y-44.7324
G01 X-9.3570 Y-44.9999
G01 X-9.5147 Y-45.1724
G01 X-9.6309 Y-45.3156
G01 X-12.4238 Y-45.3214
G01 X-12.4238 Y-42.7771
G01 X-12.6959 Y-42.5050
G01 X-8.3750 Y-42.5044
G01 X-8.1057 Y-42.6350
G01 X-8.1046 Y-44.4645
G01 X-8.3402 Y-44.5770
G01 X-8.5429 Y-44.6938
G01 X-8.6894 Y-44.7898
G01 X-8.8853 Y-44.9372
G01 X-9.0676 Y-45.0976
G01 X-9.1945 Y-45.2239
G01 X-9.3535 Y-45.4032
G01 X-9.4949 Y-45.5892
G01 X-12.6959 Y-45.5941
G01 X-12.6959 Y-42.5050
G01 X-12.9681 Y-42.2329
G01 X-8.3035 Y-42.2323
G01 X-8.0392 Y-42.3665
G01 X-7.8337 Y-42.4491
G01 X-7.8323 Y-44.6504
G01 X-8.0236 Y-44.7263
G01 X-8.2663 Y-44.8464
G01 X-8.4867 Y-44.9806
G01 X-8.6981 Y-45.1359
G01 X-8.9139 Y-45.3268
G01 X-9.0798 Y-45.5023
G01 X-9.1996 Y-45.6478
G01 X-9.3506 Y-45.8612
G01 X-12.9681 Y-45.8667
G01 X-12.9681 Y-42.2329
G01 X-13.2402 Y-41.9607
G01 X-8.2284 Y-41.9601
G01 X-8.0819 Y-42.0438
G01 X-7.8889 Y-42.1357
G01 X-7.5600 Y-42.2528
G01 X-7.5600 Y-44.8472
G01 X-7.8311 Y-44.9402
G01 X-8.0808 Y-45.0556
G01 X-8.3128 Y-45.1920
G01 X-8.5199 Y-45.3419
G01 X-8.7315 Y-45.5290
G01 X-8.9085 Y-45.7197
G01 X-9.0726 Y-45.9346
G01 X-9.1985 Y-46.1358
G01 X-13.2402 Y-46.1393
G01 X-13.2402 Y-41.9607
G01 X-13.5124 Y-41.6886
G01 X-8.1520 Y-41.6879
G01 X-7.9642 Y-41.7982
G01 X-7.7528 Y-41.8978
G01 X-7.5303 Y-41.9779
G01 X-7.3203 Y-42.0324
G01 X-7.2878 Y-42.0648
G01 X-7.2878 Y-45.0608
G01 X-7.5440 Y-45.1263
G01 X-7.8107 Y-45.2275
G01 X-7.9716 Y-45.3057
G01 X-8.1189 Y-45.3916
G01 X-8.3383 Y-45.5455
G01 X-8.5489 Y-45.7310
G01 X-8.7282 Y-45.9284
G01 X-8.8865 Y-46.1458
G01 X-9.0340 Y-46.4078
G01 X-13.5124 Y-46.4117
G01 X-13.5124 Y-41.6886
G01 X-13.7846 Y-41.4165
G01 X-8.0687 Y-41.4157
G01 X-7.8626 Y-41.5438
G01 X-7.6487 Y-41.6464
G01 X-7.4243 Y-41.7255
G01 X-7.1868 Y-41.7810
G01 X-7.0157 Y-41.9521
G01 X-7.0157 Y-45.2952
G01 X-7.2912 Y-45.3403
G01 X-7.4492 Y-45.3819
G01 X-7.6287 Y-45.4455
G01 X-7.8787 Y-45.5652
G01 X-8.0264 Y-45.6550
G01 X-8.1595 Y-45.7514
G01 X-8.3712 Y-45.9382
G01 X-8.5486 Y-46.1405
G01 X-8.6450 Y-46.2736
G01 X-8.7348 Y-46.4213
G01 X-8.8579 Y-46.6798
G01 X-13.7846 Y-46.6841
G01 X-13.7846 Y-41.4165
G01 X-14.0567 Y-41.1444
G01 X-7.9791 Y-41.1436
G01 X-7.8742 Y-41.2194
G01 X-7.7490 Y-41.2954
G01 X-7.5440 Y-41.3952
G01 X-7.3286 Y-41.4697
G01 X-7.1864 Y-41.5044
G01 X-7.0577 Y-41.5252
G01 X-6.7435 Y-41.8394
G01 X-6.7435 Y-45.5582
G01 X-7.0269 Y-45.5703
G01 X-7.1864 Y-45.5956
G01 X-7.3606 Y-45.6394
G01 X-7.5370 Y-45.7019
G01 X-7.6763 Y-45.7660
G01 X-7.9171 Y-45.9105
G01 X-8.0455 Y-46.0084
G01 X-8.1788 Y-46.1307
G01 X-8.2975 Y-46.2616
G01 X-8.3950 Y-46.3905
G01 X-8.5359 Y-46.6277
G01 X-8.6028 Y-46.7748
G01 X-8.6656 Y-46.9565
G01 X-14.0567 Y-46.9565
G01 X-14.0567 Y-41.1444
G01 X-14.3289 Y-40.8722
G01 X-7.8840 Y-40.8714
G01 X-7.7044 Y-41.0049
G01 X-7.5831 Y-41.0762
G01 X-7.4405 Y-41.1435
G01 X-7.2952 Y-41.1960
G01 X-7.1576 Y-41.2320
G01 X-6.9325 Y-41.2655
G01 X-6.4714 Y-41.7266
G01 X-6.4714 Y-45.8616
G01 X-6.6421 Y-45.8364
G01 X-6.8067 Y-45.8290
G01 X-6.9712 Y-45.8377
G01 X-7.1304 Y-45.8620
G01 X-7.2870 Y-45.9014
G01 X-7.4405 Y-45.9565
G01 X-7.5890 Y-46.0269
G01 X-7.7388 Y-46.1176
G01 X-7.8634 Y-46.2109
G01 X-7.9863 Y-46.3231
G01 X-8.0926 Y-46.4408
G01 X-8.1986 Y-46.5855
G01 X-8.2762 Y-46.7169
G01 X-8.3510 Y-46.8784
G01 X-8.4044 Y-47.0330
G01 X-8.4481 Y-47.2286
G01 X-14.3289 Y-47.2286
G01 X-14.3289 Y-40.8722
G01 X-14.6195 Y-40.6001
G01 X-7.7788 Y-40.5992
G01 X-7.6883 Y-40.6807
G01 X-7.5766 Y-40.7636
G01 X-7.4587 Y-40.8341
G01 X-7.3346 Y-40.8928
G01 X-7.2058 Y-40.9388
G01 X-7.0743 Y-40.9717
G01 X-6.9443 Y-40.9914
G01 X-6.8144 Y-40.9987
G01 X-6.1992 Y-41.6139
G01 X-6.1992 Y-46.2378
G01 X-6.3859 Y-46.1638
G01 X-6.5416 Y-46.1253
G01 X-6.6873 Y-46.1060
G01 X-6.8067 Y-46.1011
G01 X-6.9196 Y-46.1064
G01 X-7.0743 Y-46.1283
G01 X-7.2219 Y-46.1664
G01 X-7.3577 Y-46.2175
G01 X-7.4587 Y-46.2659
G01 X-7.5623 Y-46.3272
G01 X-7.6883 Y-46.4193
G01 X-7.8061 Y-46.5285
G01 X-7.9491 Y-46.7028
G01 X-8.0277 Y-46.8295
G01 X-8.0928 Y-46.9654
G01 X-8.1417 Y-47.1041
G01 X-8.1763 Y-47.2512
G01 X-8.1927 Y-47.3690
G01 X-8.1987 Y-47.4856
G01 X-8.2139 Y-47.5008
G01 X-14.6188 Y-47.5008
G01 X-14.6010 Y-47.3655
G01 X-14.6010 Y-40.7345
G01 X-14.6195 Y-40.6001
G01 X-11.6073 Y-43.5935
G01 X-9.1962 Y-43.5932
G01 X-9.1954 Y-43.8180
G01 X-9.3756 Y-43.9426
G01 X-9.6119 Y-44.1253
G01 X-9.8326 Y-44.3226
G01 X-10.0015 Y-44.4931
G01 X-11.6073 Y-44.5015
G01 X-11.6073 Y-43.5935
G01 X-11.3351 Y-43.8656
G01 X-9.7240 Y-43.8654
G01 X-9.8942 Y-44.0101
G01 X-10.1165 Y-44.2195
G01 X-11.3351 Y-44.2276
G01 X-11.3351 Y-43.8656
G00 X-11.3351 Y-43.8656
G01 F60.00
G01 Z-0.0500
G01 F120.00
G01 X-11.3351 Y-44.2276
G01 X-10.1165 Y-44.2195
G01 X-9.8942 Y-44.0101
G01 X-9.7240 Y-43.8654
G01 X-11.3351 Y-43.8656
G01 X-11.6073 Y-43.5935
G01 X-11.6073 Y-44.5015
G01 X-10.0015 Y-44.4931
G01 X-9.8326 Y-44.3226
G01 X-9.6119 Y-44.1253
G01 X-9.3756 Y-43.9426
G01 X-9.1954 Y-43.8180
G01 X-9.1962 Y-43.5932
G01 X-11.6073 Y-43.5935
G01 X-14.6195 Y-40.6001
G01 X-14.6010 Y-40.7345
G01 X-14.6010 Y-47.3655
G01 X-14.6188 Y-47.5008
G01 X-8.2139 Y-47.5008
G01 X-8.1987 Y-47.4856
G01 X-8.1927 Y-47.3690
G01 X-8.1763 Y-47.2512
G01 X-8.1417 Y-47.1041
G01 X-8.0928 Y-46.9654
G01 X-8.0277 Y-46.8295
G01 X-7.9491 Y-46.7028
G01 X-7.8061 Y-46.5285
G01 X-7.6883 Y-46.4193
G01 X-7.5623 Y-46.3272
G01 X-7.4587 Y-46.2659
G01 X-7.3577 Y-46.2175
G01 X-7.2219 Y-46.1664
G01 X-7.0743 Y-46.1283
G01 X-6.9196 Y-46.1064
G01 X-6.8067 Y-46.1011
G01 X-6.6873 Y-46.1060
G01 X-6.5416 Y-46.1253
G01 X-6.3859 Y-46.1638
G01 X-6.1992 Y-46.2378
G01 X-6.1992 Y-41.6139
G01 X-6.8144 Y-40.9987
G01 X-6.9443 Y-40.9914
G01 X-7.0743 Y-40.9717
G01 X-7.2058 Y-40.9388
G01 X-7.3346 Y-40.8928
G01 X-7.4587 Y-40.8341
G01 X-7.5766 Y-40.7636
G01 X-7.6883 Y-40.6807
G01 X-7.7788 Y-40.5992
G01 X-14.6195 Y-40.6001
G01 X-14.3289 Y-40.8722
G01 X-14.3289 Y-47.2286
G01 X-8.4481 Y-47.2286
G01 X-8.4044 Y-47.0330
G01 X-8.3510 Y-46.8784
G01 X-8.2762 Y-46.7169
G01 X-8.1986 Y-46.5855
G01 X-8.0926 Y-46.4408
G01 X-7.9863 Y-46.3231
G01 X-7.8634 Y-46.2109
G01 X-7.7388 Y-46.1176
G01 X-7.5890 Y-46.0269
G01 X-7.4405 Y-45.9565
G01 X-7.2870 Y-45.9014
G01 X-7.1304 Y-45.8620
G01 X-6.9712 Y-45.8377
G01 X-6.8067 Y-45.8290
G01 X-6.6421 Y-45.8364
G01 X-6.4714 Y-45.8616
G01 X-6.4714 Y-41.7266
G01 X-6.9325 Y-41.2655
G01 X-7.1576 Y-41.2320
G01 X-7.2952 Y-41.1960
G01 X-7.4405 Y-41.1435
G01 X-7.5831 Y-41.0762
G01 X-7.7044 Y-41.0049
G01 X-7.8840 Y-40.8714
G01 X-14.3289 Y-40.8722
G01 X-14.0567 Y-41.1444
G01 X-14.0567 Y-46.9565
G01 X-8.6656 Y-46.9565
G01 X-8.6028 Y-46.7748
G01 X-8.5359 Y-46.6277
G01 X-8.3950 Y-46.3905
G01 X-8.2975 Y-46.2616
G01 X-8.1788 Y-46.1307
G01 X-8.0455 Y-46.0084
G01 X-7.9171 Y-45.9105
G01 X-7.6763 Y-45.7660
G01 X-7.5370 Y-45.7019
G01 X-7.3606 Y-45.6394
G01 X-7.1864 Y-45.5956
G01 X-7.0269 Y-45.5703
G01 X-6.7435 Y-45.5582
G01 X-6.7435 Y-41.8394
G01 X-7.0577 Y-41.5252
G01 X-7.1864 Y-41.5044
G01 X-7.3286 Y-41.4697
G01 X-7.5440 Y-41.3952
G01 X-7.7490 Y-41.2954
G01 X-7.8742 Y-41.2194
G01 X-7.9791 Y-41.1436
G01 X-14.0567 Y-41.1444
G01 X-13.7846 Y-41.4165
G01 X-13.7846 Y-46.6841
G01 X-8.8579 Y-46.6798
G01 X-8.7348 Y-46.4213
G01 X-8.6450 Y-46.2736
G01 X-8.5486 Y-46.1405
G01 X-8.3712 Y-45.9382
G01 X-8.1595 Y-45.7514
G01 X-8.0264 Y-45.6550
G01 X-7.8787 Y-45.5652
G01 X-7.6287 Y-45.4455
G01 X-7.4492 Y-45.3819
G01 X-7.2912 Y-45.3403
G01 X-7.0157 Y-45.2952
G01 X-7.0157 Y-41.9521
G01 X-7.1868 Y-41.7810
G01 X-7.4243 Y-41.7255
G01 X-7.6487 Y-41.6464
G01 X-7.8626 Y-41.5438
G01 X-8.0687 Y-41.4157
G01 X-13.7846 Y-41.4165
G01 X-13.5124 Y-41.6886
G01 X-13.5124 Y-46.4117
G01 X-9.0340 Y-46.4078
G01 X-8.8865 Y-46.1458
G01 X-8.7282 Y-45.9284
G01 X-8.5489 Y-45.7310
G01 X-8.3383 Y-45.5455
G01 X-8.1189 Y-45.3916
G01 X-7.9716 Y-45.3057
G01 X-7.8107 Y-45.2275
G01 X-7.5440 Y-45.1263
G01 X-7.2878 Y-45.0608
G01 X-7.2878 Y-42.0648
G01 X-7.3203 Y-42.0324
G01 X-7.5303 Y-41.9779
G01 X-7.7528 Y-41.8978
G01 X-7.9642 Y-41.7982
G01 X-8.1520 Y-41.6879
G01 X-13.5124 Y-41.6886
G01 X-13.2402 Y-41.9607
G01 X-13.2402 Y-46.1393
G01 X-9.1985 Y-46.1358
G01 X-9.0726 Y-45.9346
G01 X-8.9085 Y-45.7197
G01 X-8.7315 Y-45.5290
G01 X-8.5199 Y-45.3419
G01 X-8.3128 Y-45.1920
G01 X-8.0808 Y-45.0556
G01 X-7.8311 Y-44.9402
G01 X-7.5600 Y-44.8472
G01 X-7.5600 Y-42.2528
G01 X-7.8889 Y-42.1357
G01 X-8.0819 Y-42.0438
G01 X-8.2284 Y-41.9601
G01 X-13.2402 Y-41.9607
G01 X-12.9681 Y-42.2329
G01 X-12.9681 Y-45.8667
G01 X-9.3506 Y-45.8612
G01 X-9.1996 Y-45.6478
G01 X-9.0798 Y-45.5023
G01 X-8.9139 Y-45.3268
G01 X-8.6981 Y-45.1359
G01 X-8.4867 Y-44.9806
G01 X-8.2663 Y-44.8464
G01 X-8.0236 Y-44.7263
G01 X-7.8323 Y-44.6504
G01 X-7.8337 Y-42.4491
G01 X-8.0392 Y-42.3665
G01 X-8.3035 Y-42.2323
G01 X-12.9681 Y-42.2329
G01 X-12.6959 Y-42.5050
G01 X-12.6959 Y-45.5941
G01 X-9.4949 Y-45.5892
G01 X-9.3535 Y-45.4032
G01 X-9.1945 Y-45.2239
G01 X-9.0676 Y-45.0976
G01 X-8.8853 Y-44.9372
G01 X-8.6894 Y-44.7898
G01 X-8.5429 Y-44.6938
G01 X-8.3402 Y-44.5770
G01 X-8.1046 Y-44.4645
G01 X-8.1057 Y-42.6350
G01 X-8.3750 Y-42.5044
G01 X-12.6959 Y-42.5050
G01 X-12.4238 Y-42.7771
G01 X-12.4238 Y-45.3214
G01 X-9.6309 Y-45.3156
G01 X-9.5147 Y-45.1724
G01 X-9.3570 Y-44.9999
G01 X-9.0649 Y-44.7324
G01 X-8.7440 Y-44.4984
G01 X-8.5437 Y-44.3779
G01 X-8.3773 Y-44.2912
G01 X-8.3818 Y-42.8067
G01 X-8.4423 Y-42.7766
G01 X-12.4238 Y-42.7771
G01 X-12.1516 Y-43.0492
G01 X-12.1516 Y-45.0487
G01 X-9.7625 Y-45.0438
G01 X-9.5149 Y-44.7725
G01 X-9.2487 Y-44.5312
G01 X-8.9512 Y-44.3090
G01 X-8.6500 Y-44.1256
G01 X-8.6538 Y-43.0488
G01 X-12.1516 Y-43.0492
G01 X-11.8794 Y-43.3214
G01 X-11.8794 Y-44.7751
G01 X-9.8806 Y-44.7647
G01 X-9.6764 Y-44.5497
G01 X-9.4275 Y-44.3259
G01 X-9.1562 Y-44.1199
G01 X-8.9227 Y-43.9695
G01 X-8.9250 Y-43.3210
G01 X-11.8794 Y-43.3214
G00 X-11.8794 Y-43.3214
G01 F60.00
G01 Z-0.0750
G01 F120.00
G01 X-8.9250 Y-43.3210
G01 X-8.9227 Y-43.9695
G01 X-9.1562 Y-44.1199
G01 X-9.4275 Y-44.3259
G01 X-9.6764 Y-44.5497
G01 X-9.8806 Y-44.7647
G01 X-11.8794 Y-44.7751
G01 X-11.8794 Y-43.3214
G01 X-12.1516 Y-43.0492
G01 X-8.6538 Y-43.0488
G01 X-8.6500 Y-44.1256
G01 X-8.9512 Y-44.3090
G01 X-9.2487 Y-44.5312
G01 X-9.5149 Y-44.7725
G01 X-9.7625 Y-45.0438
G01 X-12.1516 Y-45.0487
G01 X-12.1516 Y-43.0492
G01 X-12.4238 Y-42.7771
G01 X-8.4423 Y-42.7766
G01 X-8.3818 Y-42.8067
G01 X-8.3773 Y-44.2912
G01 X-8.5437 Y-44.3779
G01 X-8.7440 Y-44.4984
G01 X-9.0649 Y-44.7324
G01 X-9.3570 Y-44.9999
G01 X-9.5147 Y-45.1724
G01 X-9.6309 Y-45.3156
G01 X-12.4238 Y-45.3214
G01 X-12.4238 Y-42.7771
G01 X-12.6959 Y-42.5050
G01 X-8.3750 Y-42.5044
G01 X-8.1057 Y-42.6350
G01 X-8.1046 Y-44.4645
G01 X-8.3402 Y-44.5770
G01 X-8.5429 Y-44.6938
G01 X-8.6894 Y-44.7898
G01 X-8.8853 Y-44.9372
G01 X-9.0676 Y-45.0976
G01 X-9.1945 Y-45.2239
G01 X-9.3535 Y-45.4032
G01 X-9.4949 Y-45.5892
G01 X-12.6959 Y-45.5941
G01 X-12.6959 Y-42.5050
G01 X-12.9681 Y-42.2329
G01 X-8.3035 Y-42.2323
G01 X-8.0392 Y-42.3665
G01 X-7.8337 Y-42.4491
G01 X-7.8323 Y-44.6504
G01 X-8.0236 Y-44.7263
G01 X-8.2663 Y-44.8464
G01 X-8.4867 Y-44.9806
G01 X-8.6981 Y-45.1359
G01 X-8.9139 Y-45.3268
G01 X-9.0798 Y-45.5023
G01 X-9.1996 Y-45.6478
G01 X-9.3506 Y-45.8612
G01 X-12.9681 Y-45.8667
G01 X-12.9681 Y-42.2329
G01 X-13.2402 Y-41.9607
G01 X-8.2284 Y-41.9601
G01 X-8.0819 Y-42.0438
G01 X-7.8889 Y-42.1357
G01 X-7.5600 Y-42.2528
G01 X-7.5600 Y-44.8472
G01 X-7.8311 Y-44.9402
G01 X-8.0808 Y-45.0556
G01 X-8.3128 Y-45.1920
G01 X-8.5199 Y-45.3419
G01 X-8.7315 Y-45.5290
G01 X-8.9085 Y-45.7197
G01 X-9.0726 Y-45.9346
G01 X-9.1985 Y-46.1358
G01 X-13.2402 Y-46.1393
G01 X-13.2402 Y-41.9607
G01 X-13.5124 Y-41.6886
G01 X-8.1520 Y-41.6879
G01 X-7.9642 Y-41.7982
G01 X-7.7528 Y-41.8978
G01 X-7.5303 Y-41.9779
G01 X-7.3203 Y-42.0324
G01 X-7.2878 Y-42.0648
G01 X-7.2878 Y-45.0608
G01 X-7.5440 Y-45.1263
G01 X-7.8107 Y-45.2275
G01 X-7.9716 Y-45.3057
G01 X-8.1189 Y-45.3916
G01 X-8.3383 Y-45.5455
G01 X-8.5489 Y-45.7310
G01 X-8.7282 Y-45.9284
G01 X-8.8865 Y-46.1458
G01 X-9.0340 Y-46.4078
G01 X-13.5124 Y-46.4117
G01 X-13.5124 Y-41.6886
G01 X-13.7846 Y-41.4165
G01 X-8.0687 Y-41.4157
G01 X-7.8626 Y-41.5438
G01 X-7.6487 Y-41.6464
G01 X-7.4243 Y-41.7255
G01 X-7.1868 Y-41.7810
G01 X-7.0157 Y-41.9521
G01 X-7.0157 Y-45.2952
G01 X-7.2912 Y-45.3403
G01 X-7.4492 Y-45.3819
G01 X-7.6287 Y-45.4455
G01 X-7.8787 Y-45.5652
G01 X-8.0264 Y-45.6550
G01 X-8.1595 Y-45.7514
G01 X-8.3712 Y-45.9382
G01 X-8.5486 Y-46.1405
G01 X-8.6450 Y-46.2736
G01 X-8.7348 Y-46.4213
G01 X-8.8579 Y-46.6798
G01 X-13.7846 Y-46.6841
G01 X-13.7846 Y-41.4165
G01 X-14.0567 Y-41.1444
G01 X-7.9791 Y-41.1436
G01 X-7.8742 Y-41.2194
G01 X-7.7490 Y-41.2954
G01 X-7.5440 Y-41.3952
G01 X-7.3286 Y-41.4697
G01 X-7.1864 Y-41.5044
G01 X-7.0577 Y-41.5252
G01 X-6.7435 Y-41.8394
G01 X-6.7435 Y-45.5582
G01 X-7.0269 Y-45.5703
G01 X-7.1864 Y-45.5956
G01 X-7.3606 Y-45.6394
G01 X-7.5370 Y-45.7019
G01 X-7.6763 Y-45.7660
G01 X-7.9171 Y-45.9105
G01 X-8.0455 Y-46.0084
G01 X-8.1788 Y-46.1307
G01 X-8.2975 Y-46.2616
G01 X-8.3950 Y-46.3905
G01 X-8.5359 Y-46.6277
G01 X-8.6028 Y-46.7748
G01 X-8.6656 Y-46.9565
G01 X-14.0567 Y-46.9565
G01 X-14.0567 Y-41.1444
G01 X-14.3289 Y-40.8722
G01 X-7.8840 Y-40.8714
G01 X-7.7044 Y-41.0049
G01 X-7.5831 Y-41.0762
G01 X-7.4405 Y-41.1435
G01 X-7.2952 Y-41.1960
G01 X-7.1576 Y-41.2320
G01 X-6.9325 Y-41.2655
G01 X-6.4714 Y-41.7266
G01 X-6.4714 Y-45.8616
G01 X-6.6421 Y-45.8364
G01 X-6.8067 Y-45.8290
G01 X-6.9712 Y-45.8377
G01 X-7.1304 Y-45.8620
G01 X-7.2870 Y-45.9014
G01 X-7.4405 Y-45.9565
G01 X-7.5890 Y-46.0269
G01 X-7.7388 Y-46.1176
G01 X-7.8634 Y-46.2109
G01 X-7.9863 Y-46.3231
G01 X-8.0926 Y-46.4408
G01 X-8.1986 Y-46.5855
G01 X-8.2762 Y-46.7169
G01 X-8.3510 Y-46.8784
G01 X-8.4044 Y-47.0330
G01 X-8.4481 Y-47.2286
G01 X-14.3289 Y-47.2286
G01 X-14.3289 Y-40.8722
G01 X-14.6195 Y-40.6001
G01 X-7.7788 Y-40.5992
G01 X-7.6883 Y-40.6807
G01 X-7.5766 Y-40.7636
G01 X-7.4587 Y-40.8341
G01 X-7.3346 Y-40.8928
G01 X-7.2058 Y-40.9388
G01 X-7.0743 Y-40.9717
G01 X-6.9443 Y-40.9914
G01 X-6.8144 Y-40.9987
G01 X-6.1992 Y-41.6139
G01 X-6.1992 Y-46.2378
G01 X-6.3859 Y-46.1638
G01 X-6.5416 Y-46.1253
G01 X-6.6873 Y-46.1060
G01 X-6.8067 Y-46.1011
G01 X-6.9196 Y-46.1064
G01 X-7.0743 Y-46.1283
G01 X-7.2219 Y-46.1664
G01 X-7.3577 Y-46.2175
G01 X-7.4587 Y-46.2659
G01 X-7.5623 Y-46.3272
G01 X-7.6883 Y-46.4193
G01 X-7.8061 Y-46.5285
G01 X-7.9491 Y-46.7028
G01 X-8.0277 Y-46.8295
G01 X-8.0928 Y-46.9654
G01 X-8.1417 Y-47.1041
G01 X-8.1763 Y-47.2512
G01 X-8.1927 Y-47.3690
G01 X-8.1987 Y-47.4856
G01 X-8.2139 Y-47.5008
G01 X-14.6188 Y-47.5008
G01 X-14.6010 Y-47.3655
G01 X-14.6010 Y-40.7345
G01 X-14.6195 Y-40.6001
G01 X-11.6073 Y-43.5935
G01 X-9.1962 Y-43.5932
G01 X-9.1954 Y-43.8180
G01 X-9.3756 Y-43.9426
G01 X-9.6119 Y-44.1253
G01 X-9.8326 Y-44.3226
G01 X-10.0015 Y-44.4931
G01 X-11.6073 Y-44.5015
G01 X-11.6073 Y-43.5935
G01 X-11.3351 Y-43.8656
G01 X-9.7240 Y-43.8654
G01 X-9.8942 Y-44.0101
G01 X-10.1165 Y-44.2195
G01 X-11.3351 Y-44.2276
G01 X-11.3351 Y-43.8656
G00 X-11.3351 Y-43.8656
G01 F60.00
G01 Z-0.1000
G01 F120.00
G01 X-11.3351 Y-44.2276
G01 X-10.1165 Y-44.2195
G01 X-9.8942 Y-44.0101
G01 X-9.7240 Y-43.8654
G01 X-11.3351 Y-43.8656
G01 X-11.6073 Y-43.5935
G01 X-11.6073 Y-44.5015
G01 X-10.0015 Y-44.4931
G01 X-9.8326 Y-44.3226
G01 X-9.6119 Y-44.1253
G01 X-9.3756 Y-43.9426
G01 X-9.1954 Y-43.8180
G01 X-9.1962 Y-43.5932
G01 X-11.6073 Y-43.5935
G01 X-14.6195 Y-40.6001
G01 X-14.6010 Y-40.7345
G01 X-14.6010 Y-47.3655
G01 X-14.6188 Y-47.5008
G01 X-8.2139 Y-47.5008
G01 X-8.1987 Y-47.4856
G01 X-8.1927 Y-47.3690
G01 X-8.1763 Y-47.2512
G01 X-8.1417 Y-47.1041
G01 X-8.0928 Y-46.9654
G01 X-8.0277 Y-46.8295
G01 X-7.9491 Y-46.7028
G01 X-7.8061 Y-46.5285
G01 X-7.6883 Y-46.4193
G01 X-7.5623 Y-46.3272
G01 X-7.4587 Y-46.2659
G01 X-7.3577 Y-46.2175
G01 X-7.2219 Y-46.1664
G01 X-7.0743 Y-46.1283
G01 X-6.9196 Y-46.1064
G01 X-6.8067 Y-46.1011
G01 X-6.6873 Y-46.1060
G01 X-6.5416 Y-46.1253
G01 X-6.3859 Y-46.1638
G01 X-6.1992 Y-46.2378
G01 X-6.1992 Y-41.6139
G01 X-6.8144 Y-40.9987
G01 X-6.9443 Y-40.9914
G01 X-7.0743 Y-40.9717
G01 X-7.2058 Y-40.9388
G01 X-7.3346 Y-40.8928
G01 X-7.4587 Y-40.8341
G01 X-7.5766 Y-40.7636
G01 X-7.6883 Y-40.6807
G01 X-7.7788 Y-40.5992
G01 X-14.6195 Y-40.6001
G01 X-14.3289 Y-40.8722
G01 X-14.3289 Y-47.2286
G01 X-8.4481 Y-47.2286
G01 X-8.4044 Y-47.0330
G01 X-8.3510 Y-46.8784
G01 X-8.2762 Y-46.7169
G01 X-8.1986 Y-46.5855
G01 X-8.0926 Y-46.4408
G01 X-7.9863 Y-46.3231
G01 X-7.8634 Y-46.2109
G01 X-7.7388 Y-46.1176
G01 X-7.5890 Y-46.0269
G01 X-7.4405 Y-45.9565
G01 X-7.2870 Y-45.9014
G01 X-7.1304 Y-45.8620
G01 X-6.9712 Y-45.8377
G01 X-6.8067 Y-45.8290
G01 X-6.6421 Y-45.8364
G01 X-6.4714 Y-45.8616
G01 X-6.4714 Y-41.7266
G01 X-6.9325 Y-41.2655
G01 X-7.1576 Y-41.2320
G01 X-7.2952 Y-41.1960
G01 X-7.4405 Y-41.1435
G01 X-7.5831 Y-41.0762
G01 X-7.7044 Y-41.0049
G01 X-7.8840 Y-40.8714
G01 X-14.3289 Y-40.8722
G01 X-14.0567 Y-41.1444
G01 X-14.0567 Y-46.9565
G01 X-8.6656 Y-46.9565
G01 X-8.6028 Y-46.7748
G01 X-8.5359 Y-46.6277
G01 X-8.3950 Y-46.3905
G01 X-8.2975 Y-46.2616
G01 X-8.1788 Y-46.1307
G01 X-8.0455 Y-46.0084
G01 X-7.9171 Y-45.9105
G01 X-7.6763 Y-45.7660
G01 X-7.5370 Y-45.7019
G01 X-7.3606 Y-45.6394
G01 X-7.1864 Y-45.5956
G01 X-7.0269 Y-45.5703
G01 X-6.7435 Y-45.5582
G01 X-6.7435 Y-41.8394
G01 X-7.0577 Y-41.5252
G01 X-7.1864 Y-41.5044
G01 X-7.3286 Y-41.4697
G01 X-7.5440 Y-41.3952
G01 X-7.7490 Y-41.2954
G01 X-7.8742 Y-41.2194
G01 X-7.9791 Y-41.1436
G01 X-14.0567 Y-41.1444
G01 X-13.7846 Y-41.4165
G01 X-13.7846 Y-46.6841
G01 X-8.8579 Y-46.6798
G01 X-8.7348 Y-46.4213
G01 X-8.6450 Y-46.2736
G01 X-8.5486 Y-46.1405
G01 X-8.3712 Y-45.9382
G01 X-8.1595 Y-45.7514
G01 X-8.0264 Y-45.6550
G01 X-7.8787 Y-45.5652
G01 X-7.6287 Y-45.4455
G01 X-7.4492 Y-45.3819
G01 X-7.2912 Y-45.3403
G01 X-7.0157 Y-45.2952
G01 X-7.0157 Y-41.9521
G01 X-7.1868 Y-41.7810
G01 X-7.4243 Y-41.7255
G01 X-7.6487 Y-41.6464
G01 X-7.8626 Y-41.5438
G01 X-8.0687 Y-41.4157
G01 X-13.7846 Y-41.4165
G01 X-13.5124 Y-41.6886
G01 X-13.5124 Y-46.4117
G01 X-9.0340 Y-46.4078
G01 X-8.8865 Y-46.1458
G01 X-8.7282 Y-45.9284
G01 X-8.5489 Y-45.7310
G01 X-8.3383 Y-45.5455
G01 X-8.1189 Y-45.3916
G01 X-7.9716 Y-45.3057
G01 X-7.8107 Y-45.2275
G01 X-7.5440 Y-45.1263
G01 X-7.2878 Y-45.0608
G01 X-7.2878 Y-42.0648
G01 X-7.3203 Y-42.0324
G01 X-7.5303 Y-41.9779
G01 X-7.7528 Y-41.8978
G01 X-7.9642 Y-41.7982
G01 X-8.1520 Y-41.6879
G01 X-13.5124 Y-41.6886
G01 X-13.2402 Y-41.9607
G01 X-13.2402 Y-46.1393
G01 X-9.1985 Y-46.1358
G01 X-9.0726 Y-45.9346
G01 X-8.9085 Y-45.7197
G01 X-8.7315 Y-45.5290
G01 X-8.5199 Y-45.3419
G01 X-8.3128 Y-45.1920
G01 X-8.0808 Y-45.0556
G01 X-7.8311 Y-44.9402
G01 X-7.5600 Y-44.8472
G01 X-7.5600 Y-42.2528
G01 X-7.8889 Y-42.1357
G01 X-8.0819 Y-42.0438
G01 X-8.2284 Y-41.9601
G01 X-13.2402 Y-41.9607
G01 X-12.9681 Y-42.2329
G01 X-12.9681 Y-45.8667
G01 X-9.3506 Y-45.8612
G01 X-9.1996 Y-45.6478
G01 X-9.0798 Y-45.5023
G01 X-8.9139 Y-45.3268
G01 X-8.6981 Y-45.1359
G01 X-8.4867 Y-44.9806
G01 X-8.2663 Y-44.8464
G01 X-8.0236 Y-44.7263
G01 X-7.8323 Y-44.6504
G01 X-7.8337 Y-42.4491
G01 X-8.0392 Y-42.3665
G01 X-8.3035 Y-42.2323
G01 X-12.9681 Y-42.2329
G01 X-12.6959 Y-42.5050
G01 X-12.6959 Y-45.5941
G01 X-9.4949 Y-45.5892
G01 X-9.3535 Y-45.4032
G01 X-9.1945 Y-45.2239
G01 X-9.0676 Y-45.0976
G01 X-8.8853 Y-44.9372
G01 X-8.6894 Y-44.7898
G01 X-8.5429 Y-44.6938
G01 X-8.3402 Y-44.5770
G01 X-8.1046 Y-44.4645
G01 X-8.1057 Y-42.6350
G01 X-8.3750 Y-42.5044
G01 X-12.6959 Y-42.5050
G01 X-12.4238 Y-42.7771
G01 X-12.4238 Y-45.3214
G01 X-9.6309 Y-45.3156
G01 X-9.5147 Y-45.1724
G01 X-9.3570 Y-44.9999
G01 X-9.0649 Y-44.7324
G01 X-8.7440 Y-44.4984
G01 X-8.5437 Y-44.3779
G01 X-8.3773 Y-44.2912
G01 X-8.3818 Y-42.8067
G01 X-8.4423 Y-42.7766
G01 X-12.4238 Y-42.7771
G01 X-12.1516 Y-43.0492
G01 X-12.1516 Y-45.0487
G01 X-9.7625 Y-45.0438
G01 X-9.5149 Y-44.7725
G01 X-9.2487 Y-44.5312
G01 X-8.9512 Y-44.3090
G01 X-8.6500 Y-44.1256
G01 X-8.6538 Y-43.0488
G01 X-12.1516 Y-43.0492
G01 X-11.8794 Y-43.3214
G01 X-11.8794 Y-44.7751
G01 X-9.8806 Y-44.7647
G01 X-9.6764 Y-44.5497
G01 X-9.4275 Y-44.3259
G01 X-9.1562 Y-44.1199
G01 X-8.9227 Y-43.9695
G01 X-8.9250 Y-43.3210
G01 X-11.8794 Y-43.3214
G00 Z2.0000
G00 X-16.6192 Y-45.9112
G01 F60.00
G01 Z-0.0250
G01 F120.00
G01 X-16.5573 Y-45.9401
G01 X-16.4024 Y-46.0486
G01 X-16.2686 Y-46.1824
G01 X-16.1601 Y-46.3373
G01 X-16.1312 Y-46.3992
G01 X-16.1928 Y-46.3992
G01 X-16.2527 Y-46.3004
G01 X-16.3739 Y-46.1539
G01 X-16.5204 Y-46.0327
G01 X-16.6192 Y-45.9728
G01 X-16.6192 Y-45.9112
G00 X-16.6192 Y-45.9112
G01 F60.00
G01 Z-0.0500
G01 F120.00
G01 X-16.6192 Y-45.9728
G01 X-16.5204 Y-46.0327
G01 X-16.3739 Y-46.1539
G01 X-16.2527 Y-46.3004
G01 X-16.1928 Y-46.3992
G01 X-16.1312 Y-46.3992
G01 X-16.1601 Y-46.3373
G01 X-16.2686 Y-46.1824
G01 X-16.4024 Y-46.0486
G01 X-16.5573 Y-45.9401
G01 X-16.6192 Y-45.9112
G00 X-16.6192 Y-45.9112
G01 F60.00
G01 Z-0.0750
G01 F120.00
G01 X-16.5573 Y-45.9401
G01 X-16.4024 Y-46.0486
G01 X-16.2686 Y-46.1824
G01 X-16.1601 Y-46.3373
G01 X-16.1312 Y-46.3992
G01 X-16.1928 Y-46.3992
G01 X-16.2527 Y-46.3004
G01 X-16.3739 Y-46.1539
G01 X-16.5204 Y-46.0327
G01 X-16.6192 Y-45.9728
G01 X-16.6192 Y-45.9112
G00 X-16.6192 Y-45.9112
G01 F60.00
G01 Z-0.1000
G01 F120.00
G01 X-16.6192 Y-45.9728
G01 X-16.5204 Y-46.0327
G01 X-16.3739 Y-46.1539
G01 X-16.2527 Y-46.3004
G01 X-16.1928 Y-46.3992
G01 X-16.1312 Y-46.3992
G01 X-16.1601 Y-46.3373
G01 X-16.2686 Y-46.1824
G01 X-16.4024 Y-46.0486
G01 X-16.5573 Y-45.9401
G01 X-16.6192 Y-45.9112
G00 Z2.0000
G00 X-18.0688 Y-46.3992
G01 F60.00
G01 Z-0.0250
G01 F120.00
G01 X-18.0399 Y-46.3373
G01 X-17.9314 Y-46.1824
G01 X-17.7976 Y-46.0486
G01 X-17.6427 Y-45.9401
G01 X-17.5808 Y-45.9112
G01 X-17.5808 Y-45.9728
G01 X-17.6796 Y-46.0327
G01 X-17.8261 Y-46.1539
G01 X-17.9473 Y-46.3004
G01 X-18.0072 Y-46.3992
G01 X-18.0688 Y-46.3992
G00 X-18.0688 Y-46.3992
G01 F60.00
G01 Z-0.0500
G01 F120.00
G01 X-18.0072 Y-46.3992
G01 X-17.9473 Y-46.3004
G01 X-17.8261 Y-46.1539
G01 X-17.6796 Y-46.0327
G01 X-17.5808 Y-45.9728
G01 X-17.5808 Y-45.9112
G01 X-17.6427 Y-45.9401
G01 X-17.7976 Y-46.0486
G01 X-17.9314 Y-46.1824
G01 X-18.0399 Y-46.3373
G01 X-18.0688 Y-46.3992
G00 X-18.0688 Y-46.3992
G01 F60.00
G01 Z-0.0750
G01 F120.00
G01 X-18.0399 Y-46.3373
G01 X-17.9314 Y-46.1824
G01 X-17.7976 Y-46.0486
G01 X-17.6427 Y-45.9401
G01 X-17.5808 Y-45.9112
G01 X-17.5808 Y-45.9728
G01 X-17.6796 Y-46.0327
G01 X-17.8261 Y-46.1539
G01 X-17.9473 Y-46.3004
G01 X-18.0072 Y-46.3992
G01 X-18.0688 Y-46.3992
G00 X-18.0688 Y-46.3992
G01 F60.00
G01 Z-0.1000
G01 F120.00
G01 X-18.0072 Y-46.3992
G01 X-17.9473 Y-46.3004
G01 X-17.8261 Y-46.1539
G01 X-17.6796 Y-46.0327
G01 X-17.5808 Y-45.9728
G01 X-17.5808 Y-45.9112
G01 X-17.6427 Y-45.9401
G01 X-17.7976 Y-46.0486
G01 X-17.9314 Y-46.1824
G01 X-18.0399 Y-46.3373
G01 X-18.0688 Y-46.3992
G00 Z2.0000
G00 X-16.5944 Y-47.7729
G01 F60.00
G01 Z-0.0250
G01 F120.00
G01 X-16.4574 Y-47.6806
G01 X-16.3739 Y-47.6061
G01 X-16.2527 Y-47.4596
G01 X-16.1928 Y-47.3608
G01 X-16.0945 Y-47.3608
G01 X-16.0939 Y-47.4209
G01 X-16.0764 Y-47.4845
G01 X-16.0217 Y-47.5830
G01 X-15.9819 Y-47.6275
G01 X-15.8579 Y-47.6986
G01 X-15.7684 Y-47.7172
G01 X-15.2260 Y-47.7183
G01 X-15.1621 Y-47.7091
G01 X-15.0658 Y-47.6788
G01 X-15.0085 Y-47.6422
G01 X-14.9243 Y-47.5460
G01 X-14.8898 Y-47.4661
G01 X-14.8732 Y-47.3655
G01 X-14.8746 Y-40.7095
G01 X-14.9090 Y-40.5833
G01 X-14.9596 Y-40.5060
G01 X-15.0713 Y-40.4175
G01 X-15.1901 Y-40.3846
G01 X-16.7779 Y-40.3820
G01 X-16.9262 Y-40.4212
G01 X-16.9702 Y-40.4471
G01 X-17.0055 Y-40.4800
G01 X-17.0677 Y-40.5540
G01 X-17.0951 Y-40.6086
G01 X-17.1179 Y-40.7140
G01 X-17.1188 Y-40.8192
G01 X-17.1732 Y-40.8192
G01 X-17.1754 Y-40.4685
G01 X-17.2027 Y-40.3881
G01 X-17.2533 Y-40.3271
G01 X-7.6603 Y-40.3271
G01 X-7.5233 Y-40.4638
G01 X-7.4351 Y-40.5305
G01 X-7.3344 Y-40.5920
G01 X-7.2287 Y-40.6420
G01 X-7.1247 Y-40.6790
G01 X-7.0089 Y-40.7071
G01 X-6.8993 Y-40.7222
G01 X-6.7058 Y-40.7224
G01 X-5.9270 Y-41.5012
G01 X-5.9270 Y-46.7876
G01 X-6.0032 Y-46.7032
G01 X-6.0767 Y-46.6362
G01 X-6.1834 Y-46.5571
G01 X-6.2656 Y-46.5080
G01 X-6.3713 Y-46.4580
G01 X-6.5693 Y-46.3973
G01 X-6.7007 Y-46.3778
G01 X-6.8000 Y-46.3732
G01 X-6.9108 Y-46.3787
G01 X-7.1164 Y-46.4188
G01 X-7.2365 Y-46.4613
G01 X-7.4166 Y-46.5571
G01 X-7.5133 Y-46.6277
G01 X-7.6044 Y-46.7113
G01 X-7.7357 Y-46.8722
G01 X-7.7920 Y-46.9656
G01 X-7.8365 Y-47.0586
G01 X-7.8812 Y-47.1836
G01 X-7.9213 Y-47.3892
G01 X-7.9224 Y-47.5942
G01 X-8.1012 Y-47.7729
G01 X-16.5944 Y-47.7729
G00 X-16.5944 Y-47.7729
G01 F60.00
G01 Z-0.0500
G01 F120.00
G01 X-8.1012 Y-47.7729
G01 X-7.9224 Y-47.5942
G01 X-7.9213 Y-47.3892
G01 X-7.8812 Y-47.1836
G01 X-7.8365 Y-47.0586
G01 X-7.7920 Y-46.9656
G01 X-7.7357 Y-46.8722
G01 X-7.6044 Y-46.7113
G01 X-7.5133 Y-46.6277
G01 X-7.4166 Y-46.5571
G01 X-7.2365 Y-46.4613
G01 X-7.1164 Y-46.4188
G01 X-6.9108 Y-46.3787
G01 X-6.8000 Y-46.3732
G01 X-6.7007 Y-46.3778
G01 X-6.5693 Y-46.3973
G01 X-6.3713 Y-46.4580
G01 X-6.2656 Y-46.5080
G01 X-6.1834 Y-46.5571
G01 X-6.0767 Y-46.6362
G01 X-6.0032 Y-46.7032
G01 X-5.9270 Y-46.7876
G01 X-5.9270 Y-41.5012
G01 X-6.7058 Y-40.7224
G01 X-6.8993 Y-40.7222
G01 X-7.0089 Y-40.7071
G01 X-7.1247 Y-40.6790
G01 X-7.2287 Y-40.6420
G01 X-7.3344 Y-40.5920
G01 X-7.4351 Y-40.5305
G01 X-7.5233 Y-40.4638
G01 X-7.6603 Y-40.3271
G01 X-17.2533 Y-40.3271
G01 X-17.2027 Y-40.3881
G01 X-17.1754 Y-40.4685
G01 X-17.1732 Y-40.8192
G01 X-17.1188 Y-40.8192
G01 X-17.1179 Y-40.7140
G01 X-17.0951 Y-40.6086
G01 X-17.0677 Y-40.5540
G01 X-17.0055 Y-40.4800
G01 X-16.9702 Y-40.4471
G01 X-16.9262 Y-40.4212
G01 X-16.7779 Y-40.3820
G01 X-15.1901 Y-40.3846
G01 X-15.0713 Y-40.4175
G01 X-14.9596 Y-40.5060
G01 X-14.9090 Y-40.5833
G01 X-14.8746 Y-40.7095
G01 X-14.8732 Y-47.3655
G01 X-14.8898 Y-47.4661
G01 X-14.9243 Y-47.5460
G01 X-15.0085 Y-47.6422
G01 X-15.0658 Y-47.6788
G01 X-15.1621 Y-47.7091
G01 X-15.2260 Y-47.7183
G01 X-15.7684 Y-47.7172
G01 X-15.8579 Y-47.6986
G01 X-15.9819 Y-47.6275
G01 X-16.0217 Y-47.5830
G01 X-16.0764 Y-47.4845
G01 X-16.0939 Y-47.4209
G01 X-16.0945 Y-47.3608
G01 X-16.1928 Y-47.3608
G01 X-16.2527 Y-47.4596
G01 X-16.3739 Y-47.6061
G01 X-16.4574 Y-47.6806
G01 X-16.5944 Y-47.7729
G00 X-16.5944 Y-47.7729
G01 F60.00
G01 Z-0.0750
G01 F120.00
G01 X-16.4574 Y-47.6806
G01 X-16.3739 Y-47.6061
G01 X-16.2527 Y-47.4596
G01 X-16.1928 Y-47.3608
G01 X-16.0945 Y-47.3608
G01 X-16.0939 Y-47.4209
G01 X-16.0764 Y-47.4845
G01 X-16.0217 Y-47.5830
G01 X-15.9819 Y-47.6275
G01 X-15.8579 Y-47.6986
G01 X-15.7684 Y-47.7172
G01 X-15.2260 Y-47.7183
G01 X-15.1621 Y-47.7091
G01 X-15.0658 Y-47.6788
G01 X-15.0085 Y-47.6422
G01 X-14.9243 Y-47.5460
G01 X-14.8898 Y-47.4661
G01 X-14.8732 Y-47.3655
G01 X-14.8746 Y-40.7095
G01 X-14.9090 Y-40.5833
G01 X-14.9596 Y-40.5060
G01 X-15.0713 Y-40.4175
G01 X-15.1901 Y-40.3846
G01 X-16.7779 Y-40.3820
G01 X-16.9262 Y-40.4212
G01 X-16.9702 Y-40.4471
G01 X-17.0055 Y-40.4800
G01 X-17.0677 Y-40.5540
G01 X-17.0951 Y-40.6086
G01 X-17.1179 Y-40.7140
G01 X-17.1188 Y-40.8192
G01 X-17.1732 Y-40.8192
G01 X-17.1754 Y-40.4685
G01 X-17.2027 Y-40.3881
G01 X-17.2533 Y-40.3271
G01 X-7.6603 Y-40.3271
G01 X-7.5233 Y-40.4638
G01 X-7.4351 Y-40.5305
G01 X-7.3344 Y-40.5920
G01 X-7.2287 Y-40.6420
G01 X-7.1247 Y-40.6790
G01 X-7.0089 Y-40.7071
G01 X-6.8993 Y-40.7222
G01 X-6.7058 Y-40.7224
G01 X-5.9270 Y-41.5012
G01 X-5.9270 Y-46.7876
G01 X-6.0032 Y-46.7032
G01 X-6.0767 Y-46.6362
G01 X-6.1834 Y-46.5571
G01 X-6.2656 Y-46.5080
G01 X-6.3713 Y-46.4580
G01 X-6.5693 Y-46.3973
G01 X-6.7007 Y-46.3778
G01 X-6.8000 Y-46.3732
G01 X-6.9108 Y-46.3787
G01 X-7.1164 Y-46.4188
G01 X-7.2365 Y-46.4613
G01 X-7.4166 Y-46.5571
G01 X-7.5133 Y-46.6277
G01 X-7.6044 Y-46.7113
G01 X-7.7357 Y-46.8722
G01 X-7.7920 Y-46.9656
G01 X-7.8365 Y-47.0586
G01 X-7.8812 Y-47.1836
G01 X-7.9213 Y-47.3892
G01 X-7.9224 Y-47.5942
G01 X-8.1012 Y-47.7729
G01 X-16.5944 Y-47.7729
G00 X-16.5944 Y-47.7729
G01 F60.00
G01 Z-0.1000
G01 F120.00
G01 X-8.1012 Y-47.7729
G01 X-7.9224 Y-47.5942
G01 X-7.9213 Y-47.3892
G01 X-7.8812 Y-47.1836
G01 X-7.8365 Y-47.0586
G01 X-7.7920 Y-46.9656
G01 X-7.7357 Y-46.8722
G01 X-7.6044 Y-46.7113
G01 X-7.5133 Y-46.6277
G01 X-7.4166 Y-46.5571
G01 X-7.2365 Y-46.4613
G01 X-7.1164 Y-46.4188
G01 X-6.9108 Y-46.3787
G01 X-6.8000 Y-46.3732
G01 X-6.7007 Y-46.3778
G01 X-6.5693 Y-46.3973
G01 X-6.3713 Y-46.4580
G01 X-6.2656 Y-46.5080
G01 X-6.1834 Y-46.5571
G01 X-6.0767 Y-46.6362
G01 X-6.0032 Y-46.7032
G01 X-5.9270 Y-46.7876
G01 X-5.9270 Y-41.5012
G01 X-6.7058 Y-40.7224
G01 X-6.8993 Y-40.7222
G01 X-7.0089 Y-40.7071
G01 X-7.1247 Y-40.6790
G01 X-7.2287 Y-40.6420
G01 X-7.3344 Y-40.5920
G01 X-7.4351 Y-40.5305
G01 X-7.5233 Y-40.4638
G01 X-7.6603 Y-40.3271
G01 X-17.2533 Y-40.3271
G01 X-17.2027 Y-40.3881
G01 X-17.1754 Y-40.4685
G01 X-17.1732 Y-40.8192
G01 X-17.1188 Y-40.8192
G01 X-17.1179 Y-40.7140
G01 X-17.0951 Y-40.6086
G01 X-17.0677 Y-40.5540
G01 X-17.0055 Y-40.4800
G01 X-16.9702 Y-40.4471
G01 X-16.9262 Y-40.4212
G01 X-16.7779 Y-40.3820
G01 X-15.1901 Y-40.3846
G01 X-15.0713 Y-40.4175
G01 X-14.9596 Y-40.5060
G01 X-14.9090 Y-40.5833
G01 X-14.8746 Y-40.7095
G01 X-14.8732 Y-47.3655
G01 X-14.8898 Y-47.4661
G01 X-14.9243 Y-47.5460
G01 X-15.0085 Y-47.6422
G01 X-15.0658 Y-47.6788
G01 X-15.1621 Y-47.7091
G01 X-15.2260 Y-47.7183
G01 X-15.7684 Y-47.7172
G01 X-15.8579 Y-47.6986
G01 X-15.9819 Y-47.6275
G01 X-16.0217 Y-47.5830
G01 X-16.0764 Y-47.4845
G01 X-16.0939 Y-47.4209
G01 X-16.0945 Y-47.3608
G01 X-16.1928 Y-47.3608
G01 X-16.2527 Y-47.4596
G01 X-16.3739 Y-47.6061
G01 X-16.4574 Y-47.6806
G01 X-16.5944 Y-47.7729
G00 Z2.0000
G00 X-20.9732 Y-47.7729
G01 F60.00
G01 Z-0.0250
G01 F120.00
G01 X-20.8278 Y-47.6926
G01 X-20.6820 Y-47.5737
G01 X-20.5994 Y-47.4826
G01 X-20.4928 Y-47.3208
G01 X-20.4077 Y-47.3208
G01 X-20.4145 Y-47.3824
G01 X-20.4059 Y-47.4441
G01 X-20.3615 Y-47.5487
G01 X-20.3309 Y-47.5949
G01 X-20.2921 Y-47.6306
G01 X-20.1904 Y-47.6938
G01 X-20.1433 Y-47.7086
G01 X-20.0628 Y-47.7183
G01 X-18.4097 Y-47.7139
G01 X-18.2834 Y-47.6738
G01 X-18.2146 Y-47.6200
G01 X-18.1581 Y-47.5539
G01 X-18.1292 Y-47.5027
G01 X-18.1030 Y-47.3608
G01 X-18.0072 Y-47.3608
G01 X-17.9473 Y-47.4596
G01 X-17.8261 Y-47.6061
G01 X-17.7426 Y-47.6806
G01 X-17.6056 Y-47.7729
G01 X-20.9732 Y-47.7729
G00 X-20.9732 Y-47.7729
G01 F60.00
G01 Z-0.0500
G01 F120.00
G01 X-17.6056 Y-47.7729
G01 X-17.7426 Y-47.6806
G01 X-17.8261 Y-47.6061
G01 X-17.9473 Y-47.4596
G01 X-18.0072 Y-47.3608
G01 X-18.1030 Y-47.3608
G01 X-18.1292 Y-47.5027
G01 X-18.1581 Y-47.5539
G01 X-18.2146 Y-47.6200
G01 X-18.2834 Y-47.6738
G01 X-18.4097 Y-47.7139
G01 X-20.0628 Y-47.7183
G01 X-20.1433 Y-47.7086
G01 X-20.1904 Y-47.6938
G01 X-20.2921 Y-47.6306
G01 X-20.3309 Y-47.5949
G01 X-20.3615 Y-47.5487
G01 X-20.4059 Y-47.4441
G01 X-20.4145 Y-47.3824
G01 X-20.4077 Y-47.3208
G01 X-20.4928 Y-47.3208
G01 X-20.5994 Y-47.4826
G01 X-20.6820 Y-47.5737
G01 X-20.8278 Y-47.6926
G01 X-20.9732 Y-47.7729
G00 X-20.9732 Y-47.7729
G01 F60.00
G01 Z-0.0750
G01 F120.00
G01 X-20.8278 Y-47.6926
G01 X-20.6820 Y-47.5737
G01 X-20.5994 Y-47.4826
G01 X-20.4928 Y-47.3208
G01 X-20.4077 Y-47.3208
G01 X-20.4145 Y-47.3824
G01 X-20.4059 Y-47.4441
G01 X-20.3615 Y-47.5487
G01 X-20.3309 Y-47.5949
G01 X-20.2921 Y-47.6306
G01 X-20.1904 Y-47.6938
G01 X-20.1433 Y-47.7086
G01 X-20.0628 Y-47.7183
G01 X-18.4097 Y-47.7139
G01 X-18.2834 Y-47.6738
G01 X-18.2146 Y-47.6200
G01 X-18.1581 Y-47.5539
G01 X-18.1292 Y-47.5027
G01 X-18.1030 Y-47.3608
G01 X-18.0072 Y-47.3608
G01 X-17.9473 Y-47.4596
G01 X-17.8261 Y-47.6061
G01 X-17.7426 Y-47.6806
G01 X-17.6056 Y-47.7729
G01 X-20.9732 Y-47.7729
G00 X-20.9732 Y-47.7729
G01 F60.00
G01 Z-0.1000
G01 F120.00
G01 X-17.6056 Y-47.7729
G01 X-17.7426 Y-47.6806
G01 X-17.8261 Y-47.6061
G01 X-17.9473 Y-47.4596
G01 X-18.0072 Y-47.3608
G01 X-18.1030 Y-47.3608
G01 X-18.1292 Y-47.5027
G01 X-18.1581 Y-47.5539
G01 X-18.2146 Y-47.6200
G01 X-18.2834 Y-47.6738
G01 X-18.4097 Y-47.7139
G01 X-20.0628 Y-47.7183
G01 X-20.1433 Y-47.7086
G01 X-20.1904 Y-47.6938
G01 X-20.2921 Y-47.6306
G01 X-20.3309 Y-47.5949
G01 X-20.3615 Y-47.5487
G01 X-20.4059 Y-47.4441
G01 X-20.4145 Y-47.3824
G01 X-20.4077 Y-47.3208
G01 X-20.4928 Y-47.3208
G01 X-20.5994 Y-47.4826
G01 X-20.6820 Y-47.5737
G01 X-20.8278 Y-47.6926
G01 X-20.9732 Y-47.7729
G00 Z2.0000
G00 X-20.9192 Y-45.8712
G01 F60.00
G01 Z-0.0250
G01 F120.00
G01 X-20.8573 Y-45.9001
G01 X-20.7024 Y-46.0086
G01 X-20.5686 Y-46.1424
G01 X-20.4601 Y-46.2973
G01 X-20.4312 Y-46.3592
G01 X-20.4928 Y-46.3592
G01 X-20.5527 Y-46.2604
G01 X-20.6739 Y-46.1139
G01 X-20.8204 Y-45.9927
G01 X-20.9192 Y-45.9328
G01 X-20.9192 Y-45.8712
G00 X-20.9192 Y-45.8712
G01 F60.00
G01 Z-0.0500
G01 F120.00
G01 X-20.9192 Y-45.9328
G01 X-20.8204 Y-45.9927
G01 X-20.6739 Y-46.1139
G01 X-20.5527 Y-46.2604
G01 X-20.4928 Y-46.3592
G01 X-20.4312 Y-46.3592
G01 X-20.4601 Y-46.2973
G01 X-20.5686 Y-46.1424
G01 X-20.7024 Y-46.0086
G01 X-20.8573 Y-45.9001
G01 X-20.9192 Y-45.8712
G00 X-20.9192 Y-45.8712
G01 F60.00
G01 Z-0.0750
G01 F120.00
G01 X-20.8573 Y-45.9001
G01 X-20.7024 Y-46.0086
G01 X-20.5686 Y-46.1424
G01 X-20.4601 Y-46.2973
G01 X-20.4312 Y-46.3592
G01 X-20.4928 Y-46.3592
G01 X-20.5527 Y-46.2604
G01 X-20.6739 Y-46.1139
G01 X-20.8204 Y-45.9927
G01 X-20.9192 Y-45.9328
G01 X-20.9192 Y-45.8712
G00 X-20.9192 Y-45.8712
G01 F60.00
G01 Z-0.1000
G01 F120.00
G01 X-20.9192 Y-45.9328
G01 X-20.8204 Y-45.9927
G01 X-20.6739 Y-46.1139
G01 X-20.5527 Y-46.2604
G01 X-20.4928 Y-46.3592
G01 X-20.4312 Y-46.3592
G01 X-20.4601 Y-46.2973
G01 X-20.5686 Y-46.1424
G01 X-20.7024 Y-46.0086
G01 X-20.8573 Y-45.9001
G01 X-20.9192 Y-45.8712
G00 Z2.0000
G00 X-22.3688 Y-46.3592
G01 F60.00
G01 Z-0.0250
G01 F120.00
G01 X-22.3399 Y-46.2973
G01 X-22.2314 Y-46.1424
G01 X-22.0976 Y-46.0086
G01 X-21.9427 Y-45.9001
G01 X-21.8808 Y-45.8712
G01 X-21.8808 Y-45.9328
G01 X-21.9796 Y-45.9927
G01 X-22.1261 Y-46.1139
G01 X-22.2473 Y-46.2604
G01 X-22.3072 Y-46.3592
G01 X-22.3688 Y-46.3592
G00 X-22.3688 Y-46.3592
G01 F60.00
G01 Z-0.0500
G01 F120.00
G01 X-22.3072 Y-46.3592
G01 X-22.2473 Y-46.2604
G01 X-22.1261 Y-46.1139
G01 X-21.9796 Y-45.9927
G01 X-21.8808 Y-45.9328
G01 X-21.8808 Y-45.8712
G01 X-21.9427 Y-45.9001
G01 X-22.0976 Y-46.0086
G01 X-22.2314 Y-46.1424
G01 X-22.3399 Y-46.2973
G01 X-22.3688 Y-46.3592
G00 X-22.3688 Y-46.3592
G01 F60.00
G01 Z-0.0750
G01 F120.00
G01 X-22.3399 Y-46.2973
G01 X-22.2314 Y-46.1424
G01 X-22.0976 Y-46.0086
G01 X-21.9427 Y-45.9001
G01 X-21.8808 Y-45.8712
G01 X-21.8808 Y-45.9328
G01 X-21.9796 Y-45.9927
G01 X-22.1261 Y-46.1139
G01 X-22.2473 Y-46.2604
G01 X-22.3072 Y-46.3592
G01 X-22.3688 Y-46.3592
G00 X-22.3688 Y-46.3592
G01 F60.00
G01 Z-0.1000
G01 F120.00
G01 X-22.3072 Y-46.3592
G01 X-22.2473 Y-46.2604
G01 X-22.1261 Y-46.1139
G01 X-21.9796 Y-45.9927
G01 X-21.8808 Y-45.9328
G01 X-21.8808 Y-45.8712
G01 X-21.9427 Y-45.9001
G01 X-22.0976 Y-46.0086
G01 X-22.2314 Y-46.1424
G01 X-22.3399 Y-46.2973
G01 X-22.3688 Y-46.3592
G00 Z2.0000
G00 X-26.1192 Y-45.5888
G01 F60.00
G01 Z-0.0250
G01 F120.00
G01 X-26.1192 Y-45.5272
G01 X-26.0204 Y-45.4673
G01 X-25.8739 Y-45.3461
G01 X-25.7527 Y-45.1996
G01 X-25.6928 Y-45.1008
G01 X-25.6312 Y-45.1008
G01 X-25.6601 Y-45.1627
G01 X-25.7686 Y-45.3176
G01 X-25.9024 Y-45.4514
G01 X-26.0573 Y-45.5599
G01 X-26.1192 Y-45.5888
G00 X-26.1192 Y-45.5888
G01 F60.00
G01 Z-0.0500
G01 F120.00
G01 X-26.0573 Y-45.5599
G01 X-25.9024 Y-45.4514
G01 X-25.7686 Y-45.3176
G01 X-25.6601 Y-45.1627
G01 X-25.6312 Y-45.1008
G01 X-25.6928 Y-45.1008
G01 X-25.7527 Y-45.1996
G01 X-25.8739 Y-45.3461
G01 X-26.0204 Y-45.4673
G01 X-26.1192 Y-45.5272
G01 X-26.1192 Y-45.5888
G00 X-26.1192 Y-45.5888
G01 F60.00
G01 Z-0.0750
G01 F120.00
G01 X-26.1192 Y-45.5272
G01 X-26.0204 Y-45.4673
G01 X-25.8739 Y-45.3461
G01 X-25.7527 Y-45.1996
G01 X-25.6928 Y-45.1008
G01 X-25.6312 Y-45.1008
G01 X-25.6601 Y-45.1627
G01 X-25.7686 Y-45.3176
G01 X-25.9024 Y-45.4514
G01 X-26.0573 Y-45.5599
G01 X-26.1192 Y-45.5888
G00 X-26.1192 Y-45.5888
G01 F60.00
G01 Z-0.1000
G01 F120.00
G01 X-26.0573 Y-45.5599
G01 X-25.9024 Y-45.4514
G01 X-25.7686 Y-45.3176
G01 X-25.6601 Y-45.1627
G01 X-25.6312 Y-45.1008
G01 X-25.6928 Y-45.1008
G01 X-25.7527 Y-45.1996
G01 X-25.8739 Y-45.3461
G01 X-26.0204 Y-45.4673
G01 X-26.1192 Y-45.5272
G01 X-26.1192 Y-45.5888
G00 Z2.0000
G00 X-27.5688 Y-45.1008
G01 F60.00
G01 Z-0.0250
G01 F120.00
G01 X-27.5072 Y-45.1008
G01 X-27.4473 Y-45.1996
G01 X-27.3261 Y-45.3461
G01 X-27.1796 Y-45.4673
G01 X-27.0808 Y-45.5272
G01 X-27.0808 Y-45.5888
G01 X-27.1427 Y-45.5599
G01 X-27.2976 Y-45.4514
G01 X-27.4314 Y-45.3176
G01 X-27.5399 Y-45.1627
G01 X-27.5688 Y-45.1008
G00 X-27.5688 Y-45.1008
G01 F60.00
G01 Z-0.0500
G01 F120.00
G01 X-27.5399 Y-45.1627
G01 X-27.4314 Y-45.3176
G01 X-27.2976 Y-45.4514
G01 X-27.1427 Y-45.5599
G01 X-27.0808 Y-45.5888
G01 X-27.0808 Y-45.5272
G01 X-27.1796 Y-45.4673
G01 X-27.3261 Y-45.3461
G01 X-27.4473 Y-45.1996
G01 X-27.5072 Y-45.1008
G01 X-27.5688 Y-45.1008
G00 X-27.5688 Y-45.1008
G01 F60.00
G01 Z-0.0750
G01 F120.00
G01 X-27.5072 Y-45.1008
G01 X-27.4473 Y-45.1996
G01 X-27.3261 Y-45.3461
G01 X-27.1796 Y-45.4673
G01 X-27.0808 Y-45.5272
G01 X-27.0808 Y-45.5888
G01 X-27.1427 Y-45.5599
G01 X-27.2976 Y-45.4514
G01 X-27.4314 Y-45.3176
G01 X-27.5399 Y-45.1627
G01 X-27.5688 Y-45.1008
G00 X-27.5688 Y-45.1008
G01 F60.00
G01 Z-0.1000
G01 F120.00
G01 X-27.5399 Y-45.1627
G01 X-27.4314 Y-45.3176
G01 X-27.2976 Y-45.4514
G01 X-27.1427 Y-45.5599
G01 X-27.0808 Y-45.5888
G01 X-27.0808 Y-45.5272
G01 X-27.1796 Y-45.4673
G01 X-27.3261 Y-45.3461
G01 X-27.4473 Y-45.1996
G01 X-27.5072 Y-45.1008
G01 X-27.5688 Y-45.1008
G00 Z2.0000
G00 X-26.3284 Y-43.3500
G01 F60.00
G01 Z-0.0250
G01 F120.00
G01 X-26.2176 Y-43.3213
G01 X-26.0805 Y-43.2702
G01 X-25.9664 Y-43.2135
G01 X-25.7990 Y-43.1019
G01 X-25.7990 Y-43.3419
G01 X-25.8506 Y-43.3933
G01 X-25.9390 Y-43.5029
G01 X-26.1131 Y-43.4159
G01 X-26.3284 Y-43.3500
G00 X-26.3284 Y-43.3500
G01 F60.00
G01 Z-0.0500
G01 F120.00
G01 X-26.1131 Y-43.4159
G01 X-25.9390 Y-43.5029
G01 X-25.8506 Y-43.3933
G01 X-25.7990 Y-43.3419
G01 X-25.7990 Y-43.1019
G01 X-25.9664 Y-43.2135
G01 X-26.0805 Y-43.2702
G01 X-26.2176 Y-43.3213
G01 X-26.3284 Y-43.3500
G00 X-26.3284 Y-43.3500
G01 F60.00
G01 Z-0.0750
G01 F120.00
G01 X-26.2176 Y-43.3213
G01 X-26.0805 Y-43.2702
G01 X-25.9664 Y-43.2135
G01 X-25.7990 Y-43.1019
G01 X-25.7990 Y-43.3419
G01 X-25.8506 Y-43.3933
G01 X-25.9390 Y-43.5029
G01 X-26.1131 Y-43.4159
G01 X-26.3284 Y-43.3500
G00 X-26.3284 Y-43.3500
G01 F60.00
G01 Z-0.1000
G01 F120.00
G01 X-26.1131 Y-43.4159
G01 X-25.9390 Y-43.5029
G01 X-25.8506 Y-43.3933
G01 X-25.7990 Y-43.3419
G01 X-25.7990 Y-43.1019
G01 X-25.9664 Y-43.2135
G01 X-26.0805 Y-43.2702
G01 X-26.2176 Y-43.3213
G01 X-26.3284 Y-43.3500
G00 Z2.0000
G00 X-25.7990 Y-41.0581
G01 F60.00
G01 Z-0.0250
G01 F120.00
G01 X-25.7985 Y-40.7142
G01 X-25.7812 Y-40.5992
G01 X-25.8492 Y-40.5992
G01 X-25.9849 Y-40.6840
G01 X-26.0959 Y-40.7371
G01 X-26.2176 Y-40.7813
G01 X-26.3284 Y-40.8100
G01 X-26.2176 Y-40.8387
G01 X-26.0805 Y-40.8898
G01 X-25.9664 Y-40.9465
G01 X-25.7990 Y-41.0581
G01 X-26.9824 Y-40.7813
G01 X-27.0963 Y-40.7404
G01 X-27.2064 Y-40.6887
G01 X-27.3210 Y-40.6205
G01 X-27.4298 Y-40.5392
G01 X-27.4477 Y-40.5392
G01 X-27.1040 Y-40.8829
G01 X-26.9824 Y-40.8387
G01 X-26.8716 Y-40.8100
G00 X-26.8716 Y-40.8100
G01 F60.00
G01 Z-0.0500
G01 F120.00
G01 X-26.9824 Y-40.8387
G01 X-27.1040 Y-40.8829
G01 X-27.4477 Y-40.5392
G01 X-27.4298 Y-40.5392
G01 X-27.3210 Y-40.6205
G01 X-27.2064 Y-40.6887
G01 X-27.0963 Y-40.7404
G01 X-26.9824 Y-40.7813
G01 X-25.7990 Y-41.0581
G01 X-25.9664 Y-40.9465
G01 X-26.0805 Y-40.8898
G01 X-26.2176 Y-40.8387
G01 X-26.3284 Y-40.8100
G01 X-26.2176 Y-40.7813
G01 X-26.0959 Y-40.7371
G01 X-25.9849 Y-40.6840
G01 X-25.8492 Y-40.5992
G01 X-25.7812 Y-40.5992
G01 X-25.7985 Y-40.7142
G01 X-25.7990 Y-41.0581
G00 X-25.7990 Y-41.0581
G01 F60.00
G01 Z-0.0750
G01 F120.00
G01 X-25.7985 Y-40.7142
G01 X-25.7812 Y-40.5992
G01 X-25.8492 Y-40.5992
G01 X-25.9849 Y-40.6840
G01 X-26.0959 Y-40.7371
G01 X-26.2176 Y-40.7813
G01 X-26.3284 Y-40.8100
G01 X-26.2176 Y-40.8387
G01 X-26.0805 Y-40.8898
G01 X-25.9664 Y-40.9465
G01 X-25.7990 Y-41.0581
G01 X-26.9824 Y-40.7813
G01 X-27.0963 Y-40.7404
G01 X-27.2064 Y-40.6887
G01 X-27.3210 Y-40.6205
G01 X-27.4298 Y-40.5392
G01 X-27.4477 Y-40.5392
G01 X-27.1040 Y-40.8829
G01 X-26.9824 Y-40.8387
G01 X-26.8716 Y-40.8100
G00 X-26.8716 Y-40.8100
G01 F60.00
G01 Z-0.1000
G01 F120.00
G01 X-26.9824 Y-40.8387
G01 X-27.1040 Y-40.8829
G01 X-27.4477 Y-40.5392
G01 X-27.4298 Y-40.5392
G01 X-27.3210 Y-40.6205
G01 X-27.2064 Y-40.6887
G01 X-27.0963 Y-40.7404
G01 X-26.9824 Y-40.7813
G01 X-25.7990 Y-41.0581
G01 X-25.9664 Y-40.9465
G01 X-26.0805 Y-40.8898
G01 X-26.2176 Y-40.8387
G01 X-26.3284 Y-40.8100
G01 X-26.2176 Y-40.7813
G01 X-26.0959 Y-40.7371
G01 X-25.9849 Y-40.6840
G01 X-25.8492 Y-40.5992
G01 X-25.7812 Y-40.5992
G01 X-25.7985 Y-40.7142
G01 X-25.7990 Y-41.0581
G00 Z2.0000
G00 X-26.2167 Y-38.2990
G01 F60.00
G01 Z-0.0250
G01 F120.00
G01 X-25.9368 Y-38.2990
G01 X-25.9308 Y-38.3642
G01 X-25.9130 Y-38.4385
G01 X-26.0834 Y-38.3485
G01 X-26.2167 Y-38.2990
G00 X-26.2167 Y-38.2990
G01 F60.00
G01 Z-0.0500
G01 F120.00
G01 X-26.0834 Y-38.3485
G01 X-25.9130 Y-38.4385
G01 X-25.9308 Y-38.3642
G01 X-25.9368 Y-38.2990
G01 X-26.2167 Y-38.2990
G00 X-26.2167 Y-38.2990
G01 F60.00
G01 Z-0.0750
G01 F120.00
G01 X-25.9368 Y-38.2990
G01 X-25.9308 Y-38.3642
G01 X-25.9130 Y-38.4385
G01 X-26.0834 Y-38.3485
G01 X-26.2167 Y-38.2990
G00 X-26.2167 Y-38.2990
G01 F60.00
G01 Z-0.1000
G01 F120.00
G01 X-26.0834 Y-38.3485
G01 X-25.9130 Y-38.4385
G01 X-25.9308 Y-38.3642
G01 X-25.9368 Y-38.2990
G01 X-26.2167 Y-38.2990
G00 Z2.0000
G00 X-26.1192 Y-35.9188
G01 F60.00
G01 Z-0.0250
G01 F120.00
G01 X-25.7439 Y-35.9210
G01 X-25.6649 Y-35.9503
G01 X-25.6002 Y-35.9983
G01 X-25.5503 Y-36.0649
G01 X-25.5210 Y-36.1439
G01 X-25.5188 Y-36.5192
G01 X-25.5732 Y-36.5192
G01 X-25.5754 Y-36.1685
G01 X-25.5975 Y-36.0979
G01 X-25.6358 Y-36.0436
G01 X-25.6979 Y-35.9975
G01 X-25.7685 Y-35.9754
G01 X-26.1192 Y-35.9732
G01 X-26.1192 Y-35.9188
G00 X-26.1192 Y-35.9188
G01 F60.00
G01 Z-0.0500
G01 F120.00
G01 X-26.1192 Y-35.9732
G01 X-25.7685 Y-35.9754
G01 X-25.6979 Y-35.9975
G01 X-25.6358 Y-36.0436
G01 X-25.5975 Y-36.0979
G01 X-25.5754 Y-36.1685
G01 X-25.5732 Y-36.5192
G01 X-25.5188 Y-36.5192
G01 X-25.5210 Y-36.1439
G01 X-25.5503 Y-36.0649
G01 X-25.6002 Y-35.9983
G01 X-25.6649 Y-35.9503
G01 X-25.7439 Y-35.9210
G01 X-26.1192 Y-35.9188
G00 X-26.1192 Y-35.9188
G01 F60.00
G01 Z-0.0750
G01 F120.00
G01 X-25.7439 Y-35.9210
G01 X-25.6649 Y-35.9503
G01 X-25.6002 Y-35.9983
G01 X-25.5503 Y-36.0649
G01 X-25.5210 Y-36.1439
G01 X-25.5188 Y-36.5192
G01 X-25.5732 Y-36.5192
G01 X-25.5754 Y-36.1685
G01 X-25.5975 Y-36.0979
G01 X-25.6358 Y-36.0436
G01 X-25.6979 Y-35.9975
G01 X-25.7685 Y-35.9754
G01 X-26.1192 Y-35.9732
G01 X-26.1192 Y-35.9188
G00 X-26.1192 Y-35.9188
G01 F60.00
G01 Z-0.1000
G01 F120.00
G01 X-26.1192 Y-35.9732
G01 X-25.7685 Y-35.9754
G01 X-25.6979 Y-35.9975
G01 X-25.6358 Y-36.0436
G01 X-25.5975 Y-36.0979
G01 X-25.5754 Y-36.1685
G01 X-25.5732 Y-36.5192
G01 X-25.5188 Y-36.5192
G01 X-25.5210 Y-36.1439
G01 X-25.5503 Y-36.0649
G01 X-25.6002 Y-35.9983
G01 X-25.6649 Y-35.9503
G01 X-25.7439 Y-35.9210
G01 X-26.1192 Y-35.9188
G00 Z2.0000
G00 X-28.0008 Y-36.1443
G01 F60.00
G01 Z-0.0250
G01 F120.00
G01 X-27.8988 Y-36.1904
G01 X-27.8986 Y-37.8169
G01 X-27.8840 Y-37.9210
G01 X-27.8532 Y-38.0087
G01 X-27.8039 Y-38.0929
G01 X-27.7310 Y-38.1733
G01 X-27.6520 Y-38.2306
G01 X-27.5534 Y-38.2747
G01 X-27.4169 Y-38.2986
G01 X-26.9833 Y-38.2990
G01 X-27.0963 Y-38.3396
G01 X-27.2151 Y-38.3960
G01 X-27.3210 Y-38.4596
G01 X-27.4298 Y-38.5408
G01 X-27.6461 Y-38.5408
G01 X-28.0008 Y-38.1861
G01 X-28.0008 Y-36.1443
G00 X-28.0008 Y-36.1443
G01 F60.00
G01 Z-0.0500
G01 F120.00
G01 X-28.0008 Y-38.1861
G01 X-27.6461 Y-38.5408
G01 X-27.4298 Y-38.5408
G01 X-27.3210 Y-38.4596
G01 X-27.2151 Y-38.3960
G01 X-27.0963 Y-38.3396
G01 X-26.9833 Y-38.2990
G01 X-27.4169 Y-38.2986
G01 X-27.5534 Y-38.2747
G01 X-27.6520 Y-38.2306
G01 X-27.7310 Y-38.1733
G01 X-27.8039 Y-38.0929
G01 X-27.8532 Y-38.0087
G01 X-27.8840 Y-37.9210
G01 X-27.8986 Y-37.8169
G01 X-27.8988 Y-36.1904
G01 X-28.0008 Y-36.1443
G00 X-28.0008 Y-36.1443
G01 F60.00
G01 Z-0.0750
G01 F120.00
G01 X-27.8988 Y-36.1904
G01 X-27.8986 Y-37.8169
G01 X-27.8840 Y-37.9210
G01 X-27.8532 Y-38.0087
G01 X-27.8039 Y-38.0929
G01 X-27.7310 Y-38.1733
G01 X-27.6520 Y-38.2306
G01 X-27.5534 Y-38.2747
G01 X-27.4169 Y-38.2986
G01 X-26.9833 Y-38.2990
G01 X-27.0963 Y-38.3396
G01 X-27.2151 Y-38.3960
G01 X-27.3210 Y-38.4596
G01 X-27.4298 Y-38.5408
G01 X-27.6461 Y-38.5408
G01 X-28.0008 Y-38.1861
G01 X-28.0008 Y-36.1443
G00 X-28.0008 Y-36.1443
G01 F60.00
G01 Z-0.1000
G01 F120.00
G01 X-28.0008 Y-38.1861
G01 X-27.6461 Y-38.5408
G01 X-27.4298 Y-38.5408
G01 X-27.3210 Y-38.4596
G01 X-27.2151 Y-38.3960
G01 X-27.0963 Y-38.3396
G01 X-26.9833 Y-38.2990
G01 X-27.4169 Y-38.2986
G01 X-27.5534 Y-38.2747
G01 X-27.6520 Y-38.2306
G01 X-27.7310 Y-38.1733
G01 X-27.8039 Y-38.0929
G01 X-27.8532 Y-38.0087
G01 X-27.8840 Y-37.9210
G01 X-27.8986 Y-37.8169
G01 X-27.8988 Y-36.1904
G01 X-28.0008 Y-36.1443
G00 Z2.0000
G00 X-29.4006 Y-32.0010
G01 F60.00
G01 Z-0.0250
G01 F120.00
G01 X-29.3392 Y-32.0319
G01 X-29.2687 Y-32.0556
G01 X-29.4006 Y-32.1875
G01 X-29.4006 Y-32.0010
G00 X-29.4006 Y-32.0010
G01 F60.00
G01 Z-0.0500
G01 F120.00
G01 X-29.4006 Y-32.1875
G01 X-29.2687 Y-32.0556
G01 X-29.3392 Y-32.0319
G01 X-29.4006 Y-32.0010
G00 X-29.4006 Y-32.0010
G01 F60.00
G01 Z-0.0750
G01 F120.00
G01 X-29.3392 Y-32.0319
G01 X-29.2687 Y-32.0556
G01 X-29.4006 Y-32.1875
G01 X-29.4006 Y-32.0010
G00 X-29.4006 Y-32.0010
G01 F60.00
G01 Z-0.1000
G01 F120.00
G01 X-29.4006 Y-32.1875
G01 X-29.2687 Y-32.0556
G01 X-29.3392 Y-32.0319
G01 X-29.4006 Y-32.0010
G00 Z2.0000
G00 X-33.4470 Y-32.7747
G01 F60.00
G01 Z-0.0250
G01 F120.00
G01 X-33.4470 Y-35.1988
G01 X-34.2214 Y-35.9732
G01 X-34.3235 Y-35.9784
G01 X-34.4253 Y-35.9940
G01 X-34.6026 Y-36.0474
G01 X-34.7137 Y-36.0999
G01 X-34.8751 Y-36.2094
G01 X-34.9537 Y-36.2820
G01 X-35.0673 Y-36.4204
G01 X-35.1256 Y-36.5160
G01 X-35.1729 Y-36.6183
G01 X-35.1729 Y-34.0812
G01 X-34.2186 Y-33.1268
G01 X-34.1165 Y-33.1216
G01 X-34.0147 Y-33.1060
G01 X-33.9226 Y-33.0828
G01 X-33.8217 Y-33.0464
G01 X-33.7379 Y-33.0066
G01 X-33.6404 Y-32.9473
G01 X-33.5602 Y-32.8865
G01 X-33.4470 Y-32.7747
G00 X-33.4470 Y-32.7747
G01 F60.00
G01 Z-0.0500
G01 F120.00
G01 X-33.5602 Y-32.8865
G01 X-33.6404 Y-32.9473
G01 X-33.7379 Y-33.0066
G01 X-33.8217 Y-33.0464
G01 X-33.9226 Y-33.0828
G01 X-34.0147 Y-33.1060
G01 X-34.1165 Y-33.1216
G01 X-34.2186 Y-33.1268
G01 X-35.1729 Y-34.0812
G01 X-35.1729 Y-36.6183
G01 X-35.1256 Y-36.5160
G01 X-35.0673 Y-36.4204
G01 X-34.9537 Y-36.2820
G01 X-34.8751 Y-36.2094
G01 X-34.7137 Y-36.0999
G01 X-34.6026 Y-36.0474
G01 X-34.4253 Y-35.9940
G01 X-34.3235 Y-35.9784
G01 X-34.2214 Y-35.9732
G01 X-33.4470 Y-35.1988
G01 X-33.4470 Y-32.7747
G00 X-33.4470 Y-32.7747
G01 F60.00
G01 Z-0.0750
G01 F120.00
G01 X-33.4470 Y-35.1988
G01 X-34.2214 Y-35.9732
G01 X-34.3235 Y-35.9784
G01 X-34.4253 Y-35.9940
G01 X-34.6026 Y-36.0474
G01 X-34.7137 Y-36.0999
G01 X-34.8751 Y-36.2094
G01 X-34.9537 Y-36.2820
G01 X-35.0673 Y-36.4204
G01 X-35.1256 Y-36.5160
G01 X-35.1729 Y-36.6183
G01 X-35.1729 Y-34.0812
G01 X-34.2186 Y-33.1268
G01 X-34.1165 Y-33.1216
G01 X-34.0147 Y-33.1060
G01 X-33.9226 Y-33.0828
G01 X-33.8217 Y-33.0464
G01 X-33.7379 Y-33.0066
G01 X-33.6404 Y-32.9473
G01 X-33.5602 Y-32.8865
G01 X-33.4470 Y-32.7747
G00 X-33.4470 Y-32.7747
G01 F60.00
G01 Z-0.1000
G01 F120.00
G01 X-33.5602 Y-32.8865
G01 X-33.6404 Y-32.9473
G01 X-33.7379 Y-33.0066
G01 X-33.8217 Y-33.0464
G01 X-33.9226 Y-33.0828
G01 X-34.0147 Y-33.1060
G01 X-34.1165 Y-33.1216
G01 X-34.2186 Y-33.1268
G01 X-35.1729 Y-34.0812
G01 X-35.1729 Y-36.6183
G01 X-35.1256 Y-36.5160
G01 X-35.0673 Y-36.4204
G01 X-34.9537 Y-36.2820
G01 X-34.8751 Y-36.2094
G01 X-34.7137 Y-36.0999
G01 X-34.6026 Y-36.0474
G01 X-34.4253 Y-35.9940
G01 X-34.3235 Y-35.9784
G01 X-34.2214 Y-35.9732
G01 X-33.4470 Y-35.1988
G01 X-33.4470 Y-32.7747
G00 Z2.0000
G00 X-34.3564 Y-34.9535
G01 F60.00
G01 Z-0.0250
G01 F120.00
G01 X-34.3564 Y-34.4193
G01 X-34.2635 Y-34.3264
G01 X-34.2635 Y-34.8606
G01 X-34.3564 Y-34.9535
G01 X-34.6285 Y-35.4836
G01 X-34.6286 Y-34.3066
G01 X-33.9914 Y-33.6694
G01 X-33.9914 Y-34.9734
G01 X-34.4673 Y-35.4494
G01 X-34.6285 Y-35.4836
G01 X-34.9006 Y-35.8946
G01 X-34.9008 Y-34.1939
G01 X-34.1002 Y-33.3933
G01 X-33.9427 Y-33.3686
G01 X-33.8376 Y-33.3413
G01 X-33.7192 Y-33.2985
G01 X-33.7192 Y-35.0861
G01 X-34.3398 Y-35.7067
G01 X-34.4748 Y-35.7264
G01 X-34.6136 Y-35.7624
G01 X-34.7366 Y-35.8085
G01 X-34.9006 Y-35.8946
G00 X-34.9006 Y-35.8946
G01 F60.00
G01 Z-0.0500
G01 F120.00
G01 X-34.7366 Y-35.8085
G01 X-34.6136 Y-35.7624
G01 X-34.4748 Y-35.7264
G01 X-34.3398 Y-35.7067
G01 X-33.7192 Y-35.0861
G01 X-33.7192 Y-33.2985
G01 X-33.8376 Y-33.3413
G01 X-33.9427 Y-33.3686
G01 X-34.1002 Y-33.3933
G01 X-34.9008 Y-34.1939
G01 X-34.9006 Y-35.8946
G01 X-34.6285 Y-35.4836
G01 X-34.4673 Y-35.4494
G01 X-33.9914 Y-34.9734
G01 X-33.9914 Y-33.6694
G01 X-34.6286 Y-34.3066
G01 X-34.6285 Y-35.4836
G01 X-34.3564 Y-34.9535
G01 X-34.2635 Y-34.8606
G01 X-34.2635 Y-34.3264
G01 X-34.3564 Y-34.4193
G01 X-34.3564 Y-34.9535
G00 X-34.3564 Y-34.9535
G01 F60.00
G01 Z-0.0750
G01 F120.00
G01 X-34.3564 Y-34.4193
G01 X-34.2635 Y-34.3264
G01 X-34.2635 Y-34.8606
G01 X-34.3564 Y-34.9535
G01 X-34.6285 Y-35.4836
G01 X-34.6286 Y-34.3066
G01 X-33.9914 Y-33.6694
G01 X-33.9914 Y-34.9734
G01 X-34.4673 Y-35.4494
G01 X-34.6285 Y-35.4836
G01 X-34.9006 Y-35.8946
G01 X-34.9008 Y-34.1939
G01 X-34.1002 Y-33.3933
G01 X-33.9427 Y-33.3686
G01 X-33.8376 Y-33.3413
G01 X-33.7192 Y-33.2985
G01 X-33.7192 Y-35.0861
G01 X-34.3398 Y-35.7067
G01 X-34.4748 Y-35.7264
G01 X-34.6136 Y-35.7624
G01 X-34.7366 Y-35.8085
G01 X-34.9006 Y-35.8946
G00 X-34.9006 Y-35.8946
G01 F60.00
G01 Z-0.1000
G01 F120.00
G01 X-34.7366 Y-35.8085
G01 X-34.6136 Y-35.7624
G01 X-34.4748 Y-35.7264
G01 X-34.3398 Y-35.7067
G01 X-33.7192 Y-35.0861
G01 X-33.7192 Y-33.2985
G01 X-33.8376 Y-33.3413
G01 X-33.9427 Y-33.3686
G01 X-34.1002 Y-33.3933
G01 X-34.9008 Y-34.1939
G01 X-34.9006 Y-35.8946
G01 X-34.6285 Y-35.4836
G01 X-34.4673 Y-35.4494
G01 X-33.9914 Y-34.9734
G01 X-33.9914 Y-33.6694
G01 X-34.6286 Y-34.3066
G01 X-34.6285 Y-35.4836
G01 X-34.3564 Y-34.9535
G01 X-34.2635 Y-34.8606
G01 X-34.2635 Y-34.3264
G01 X-34.3564 Y-34.4193
G01 X-34.3564 Y-34.9535
G00 Z2.0000
G00 X-35.1729 Y-37.3817
G01 F60.00
G01 Z-0.0250
G01 F120.00
G01 X-35.1201 Y-37.4937
G01 X-35.0106 Y-37.6551
G01 X-34.8798 Y-37.7865
G01 X-34.7922 Y-37.8526
G01 X-34.6941 Y-37.9106
G01 X-34.5174 Y-37.9828
G01 X-34.4094 Y-38.0090
G01 X-34.2214 Y-38.0268
G01 X-32.2271 Y-40.0212
G01 X-32.2271 Y-55.0253
G01 X-32.2729 Y-54.9750
G01 X-32.2729 Y-45.8400
G01 X-32.2778 Y-45.7577
G01 X-32.3013 Y-45.6397
G01 X-32.3578 Y-45.4992
G01 X-32.4453 Y-45.3703
G01 X-33.1932 Y-44.6186
G01 X-33.2110 Y-44.4306
G01 X-33.2372 Y-44.3226
G01 X-33.2759 Y-44.2169
G01 X-33.3603 Y-44.0589
G01 X-33.4294 Y-43.9649
G01 X-33.5020 Y-43.8863
G01 X-33.6404 Y-43.7727
G01 X-33.7459 Y-43.7094
G01 X-33.8295 Y-43.6704
G01 X-33.9327 Y-43.6344
G01 X-34.0306 Y-43.6110
G01 X-34.2089 Y-43.5935
G01 X-34.3235 Y-43.5984
G01 X-34.4253 Y-43.6140
G01 X-34.6026 Y-43.6674
G01 X-34.7021 Y-43.7134
G01 X-34.7922 Y-43.7674
G01 X-34.9461 Y-43.8939
G01 X-35.0726 Y-44.0478
G01 X-35.1256 Y-44.1360
G01 X-35.1729 Y-44.2383
G01 X-35.1729 Y-44.0612
G01 X-34.2186 Y-43.1068
G01 X-34.0306 Y-43.0890
G01 X-33.9226 Y-43.0628
G01 X-33.7459 Y-42.9906
G01 X-33.6478 Y-42.9326
G01 X-33.5602 Y-42.8665
G01 X-33.4294 Y-42.7351
G01 X-33.3603 Y-42.6411
G01 X-33.2704 Y-42.4705
G01 X-33.2344 Y-42.3673
G01 X-33.1995 Y-42.1917
G01 X-33.1932 Y-42.0800
G01 X-33.1984 Y-41.9765
G01 X-33.2372 Y-41.7826
G01 X-33.3094 Y-41.6059
G01 X-33.3727 Y-41.5004
G01 X-33.4929 Y-41.3550
G01 X-33.4929 Y-40.2650
G01 X-33.4194 Y-40.1826
G01 X-33.3199 Y-40.0337
G01 X-33.2704 Y-39.9305
G01 X-33.2372 Y-39.8374
G01 X-33.2140 Y-39.7453
G01 X-33.1973 Y-39.6295
G01 X-33.1935 Y-39.5289
G01 X-33.2110 Y-39.3506
G01 X-33.2409 Y-39.2314
G01 X-33.3134 Y-39.0579
G01 X-33.3727 Y-38.9604
G01 X-33.4939 Y-38.8139
G01 X-33.6478 Y-38.6874
G01 X-33.7360 Y-38.6344
G01 X-33.8295 Y-38.5904
G01 X-34.0147 Y-38.5340
G01 X-34.1165 Y-38.5184
G01 X-34.2186 Y-38.5132
G01 X-35.1729 Y-37.5588
G01 X-35.1729 Y-37.3817
G00 X-35.1729 Y-37.3817
G01 F60.00
G01 Z-0.0500
G01 F120.00
G01 X-35.1729 Y-37.5588
G01 X-34.2186 Y-38.5132
G01 X-34.1165 Y-38.5184
G01 X-34.0147 Y-38.5340
G01 X-33.8295 Y-38.5904
G01 X-33.7360 Y-38.6344
G01 X-33.6478 Y-38.6874
G01 X-33.4939 Y-38.8139
G01 X-33.3727 Y-38.9604
G01 X-33.3134 Y-39.0579
G01 X-33.2409 Y-39.2314
G01 X-33.2110 Y-39.3506
G01 X-33.1935 Y-39.5289
G01 X-33.1973 Y-39.6295
G01 X-33.2140 Y-39.7453
G01 X-33.2372 Y-39.8374
G01 X-33.2704 Y-39.9305
G01 X-33.3199 Y-40.0337
G01 X-33.4194 Y-40.1826
G01 X-33.4929 Y-40.2650
G01 X-33.4929 Y-41.3550
G01 X-33.3727 Y-41.5004
G01 X-33.3094 Y-41.6059
G01 X-33.2372 Y-41.7826
G01 X-33.1984 Y-41.9765
G01 X-33.1932 Y-42.0800
