(G-CODE GENERATED BY FLATCAM vUnstable - www.flatcam.org - Version Date: 2022/3/1)

(Name: smd_vacuum_0.8mm.drl_cnc)
(Type: G-code from Excellon)
(Units: MM)

(Created on Tuesday, 03 May 2022 at 07:17)

(This preprocessor is the default preprocessor used by FlatCAM.)
(It is made to work with MACH3 compatible motion controllers.)


(TOOLS DIAMETER: )
(Tool: 1 -> Dia: 0.7493)

(FEEDRATE Z: )
(Tool: 1 -> Feedrate: 90.0)

(FEEDRATE RAPIDS: )
(Tool: 1 -> Feedrate Rapids: 1500)

(Z_CUT: )
(Tool: 1 -> Z_Cut: -2.0)

(Tools Offset: )
(Tool: 1 -> Offset Z: 0.0)

(Z_MOVE: )
(Tool: 1 -> Z_Move: 2)

(Z Start: None mm)
(Z End: 22.0 mm)
(X,Y End: 0.0000, 0.0000 mm)
(Steps per circle: 16)
(Preprocessor Excellon: default)

(X range:  -49.0004 ...   -6.5265  mm)
(Y range:  -69.3991 ...   -6.5265  mm)

(Spindle Speed: 12000 RPM)
G21
G90
G94

G01 F90.00
G00 Z2.0000
M03 S12000
G00 X-6.9012 Y-24.8996
G01 Z-2.0000
G01 Z0
G00 Z2.0000
G00 X-48.6004 Y-68.9991
G01 Z-2.0000
G01 Z0
G00 Z2.0000
G00 X-48.6004 Y-63.8988
G01 Z-2.0000
G01 Z0
G00 Z2.0000
G00 X-47.7012 Y-50.2006
G01 Z-2.0000
G01 Z0
G00 Z2.0000
G00 X-44.2011 Y-50.2006
G01 Z-2.0000
G01 Z0
G00 Z2.0000
G00 X-38.4404 Y-68.9991
G01 Z-2.0000
G01 Z0
G00 Z2.0000
G00 X-38.4404 Y-63.8988
G01 Z-2.0000
G01 Z0
G00 Z2.0000
G00 X-38.0009 Y-55.6997
G01 Z-2.0000
G01 Z0
G00 Z2.0000
G00 X-35.7988 Y-27.2999
G01 Z-2.0000
G01 Z0
G00 Z2.0000
G00 X-35.7988 Y-22.1996
G01 Z-2.0000
G01 Z0
G00 Z2.0000
G00 X-35.7607 Y-17.0993
G01 Z-2.0000
G01 Z0
G00 Z2.0000
G00 X-35.6591 Y-50.2006
G01 Z-2.0000
G01 Z0
G00 Z2.0000
G00 X-34.2189 Y-63.8404
G01 Z-2.0000
G01 Z0
G00 Z2.0000
G00 X-34.2189 Y-61.3004
G01 Z-2.0000
G01 Z0
G00 Z2.0000
G00 X-34.2189 Y-44.6202
G01 Z-2.0000
G01 Z0
G00 Z2.0000
G00 X-34.2189 Y-42.0802
G01 Z-2.0000
G01 Z0
G00 Z2.0000
G00 X-34.2189 Y-39.5402
G01 Z-2.0000
G01 Z0
G00 Z2.0000
G00 X-34.2189 Y-37.0002
G01 Z-2.0000
G01 Z0
G00 Z2.0000
G00 X-34.2189 Y-32.1005
G01 Z-2.0000
G01 Z0
G00 Z2.0000
G00 X-32.9997 Y-55.6997
G01 Z-2.0000
G01 Z0
G00 Z2.0000
G00 X-26.5989 Y-63.8404
G01 Z-2.0000
G01 Z0
G00 Z2.0000
G00 X-26.5989 Y-61.3004
G01 Z-2.0000
G01 Z0
G00 Z2.0000
G00 X-26.5989 Y-44.6202
G01 Z-2.0000
G01 Z0
G00 Z2.0000
G00 X-26.5989 Y-42.0802
G01 Z-2.0000
G01 Z0
G00 Z2.0000
G00 X-26.5989 Y-39.5402
G01 Z-2.0000
G01 Z0
G00 Z2.0000
G00 X-26.5989 Y-37.0002
G01 Z-2.0000
G01 Z0
G00 Z2.0000
G00 X-26.5989 Y-32.1005
G01 Z-2.0000
G01 Z0
G00 Z2.0000
G00 X-25.6388 Y-27.2999
G01 Z-2.0000
G01 Z0
G00 Z2.0000
G00 X-25.6388 Y-22.1996
G01 Z-2.0000
G01 Z0
G00 Z2.0000
G00 X-25.6007 Y-17.0993
G01 Z-2.0000
G01 Z0
G00 Z2.0000
G00 X-25.4991 Y-50.2006
G01 Z-2.0000
G01 Z0
G00 Z2.0000
G00 X-22.4003 Y-63.8988
G01 Z-2.0000
G01 Z0
G00 Z2.0000
G00 X-21.3995 Y-57.0001
G01 Z-2.0000
G01 Z0
G00 Z2.0000
G00 X-21.3995 Y-46.8401
G01 Z-2.0000
G01 Z0
G00 Z2.0000
G00 X-18.1991 Y-41.3004
G01 Z-2.0000
G01 Z0
G00 Z2.0000
G00 X-18.1991 Y-37.8003
G01 Z-2.0000
G01 Z0
G00 Z2.0000
G00 X-17.0993 Y-54.5008
G01 Z-2.0000
G01 Z0
G00 Z2.0000
G00 X-17.0993 Y-46.8808
G01 Z-2.0000
G01 Z0
G00 Z2.0000
G00 X-12.2403 Y-63.8988
G01 Z-2.0000
G01 Z0
G00 Z2.0000
G00 X-22.9006 Y-6.9012
G01 Z-2.0000
G01 Z0
G00 Z2.0000
G00 X-20.8991 Y-6.9012
G01 Z-2.0000
G01 Z0
G00 Z2.0000
G00 X-6.9012 Y-63.8988
G01 Z-2.0000
G01 Z0
G00 Z2.0000
G00 X-6.9012 Y-61.8998
G01 Z-2.0000
G01 Z0
G00 Z2.0000
G00 X-6.9012 Y-26.9011
G01 Z-2.0000
G01 Z0
G00 Z2.0000
M05
G00 Z22.00
G00 X0.0 Y0.0


