(G-CODE GENERATED BY FLATCAM vUnstable - www.flatcam.org - Version Date: 2022/3/1)

(Name: smd_vacuum_1.1mm.drl_cnc)
(Type: G-code from Excellon)
(Units: MM)

(Created on Tuesday, 03 May 2022 at 07:19)

(This preprocessor is the default preprocessor used by FlatCAM.)
(It is made to work with MACH3 compatible motion controllers.)


(TOOLS DIAMETER: )
(Tool: 1 -> Dia: 0.7493)

(FEEDRATE Z: )
(Tool: 1 -> Feedrate: 90.0)

(FEEDRATE RAPIDS: )
(Tool: 1 -> Feedrate Rapids: 1500)

(Z_CUT: )
(Tool: 1 -> Z_Cut: -2.0)

(Tools Offset: )
(Tool: 1 -> Offset Z: 0.0)

(Z_MOVE: )
(Tool: 1 -> Z_Move: 2)

(Z Start: None mm)
(Z End: 22.0 mm)
(X,Y End: 0.0000, 0.0000 mm)
(Steps per circle: 16)
(Preprocessor Excellon: default)

(X range:  -68.7489 ...   -6.2497  mm)
(Y range:  -69.5287 ...  -12.2491  mm)

(Spindle Speed: 300 RPM)
G21
G90
G94

G01 F90.00
G00 Z2.0000
M03 S300
G00 X-6.7996 Y-12.7991
G01 Z-2.0000
G01 Z0
G00 Z2.0000
G00 X-68.1990 Y-63.7007
G01 Z-2.0000
G01 Z0
G00 Z2.0000
G00 X-68.1990 Y-58.6994
G01 Z-2.0000
G01 Z0
G00 Z2.0000
G00 X-68.1990 Y-34.8005
G01 Z-2.0000
G01 Z0
G00 Z2.0000
G00 X-68.1990 Y-29.7993
G01 Z-2.0000
G01 Z0
G00 Z2.0000
G00 X-60.2996 Y-66.4591
G01 Z-2.0000
G01 Z0
G00 Z2.0000
G00 X-60.2996 Y-56.2991
G01 Z-2.0000
G01 Z0
G00 Z2.0000
G00 X-60.2996 Y-39.9999
G01 Z-2.0000
G01 Z0
G00 Z2.0000
G00 X-60.2996 Y-29.8399
G01 Z-2.0000
G01 Z0
G00 Z2.0000
G00 X-53.2003 Y-68.9788
G01 Z-2.0000
G01 Z0
G00 Z2.0000
G00 X-53.2003 Y-66.4388
G01 Z-2.0000
G01 Z0
G00 Z2.0000
G00 X-53.2003 Y-63.8988
G01 Z-2.0000
G01 Z0
G00 Z2.0000
G00 X-53.2003 Y-32.3799
G01 Z-2.0000
G01 Z0
G00 Z2.0000
G00 X-53.2003 Y-29.8399
G01 Z-2.0000
G01 Z0
G00 Z2.0000
G00 X-53.2003 Y-27.2999
G01 Z-2.0000
G01 Z0
G00 Z2.0000
G00 X-20.8788 Y-17.8003
G01 Z-2.0000
G01 Z0
G00 Z2.0000
G00 X-18.3388 Y-17.8003
G01 Z-2.0000
G01 Z0
G00 Z2.0000
G00 X-15.7988 Y-17.8003
G01 Z-2.0000
G01 Z0
G00 Z2.0000
G00 X-6.7996 Y-52.4993
G01 Z-2.0000
G01 Z0
G00 Z2.0000
G00 X-6.7996 Y-47.5005
G01 Z-2.0000
G01 Z0
G00 Z2.0000
G00 X-6.7996 Y-39.6011
G01 Z-2.0000
G01 Z0
G00 Z2.0000
G00 X-6.7996 Y-34.5999
G01 Z-2.0000
G01 Z0
G00 Z2.0000
G00 X-6.7996 Y-17.8003
G01 Z-2.0000
G01 Z0
G00 Z2.0000
M05
G00 Z22.00
G00 X0.0 Y0.0


