(G-CODE GENERATED BY FLATCAM vUnstable - www.flatcam.org - Version Date: 2022/3/1)

(Name: smd_vacuum_3.2mm.drl_exc_cnc_cnc)
(Type: G-code from Geometry)
(Units: MM)

(Created on Tuesday, 03 May 2022 at 07:20)

(This preprocessor is the default preprocessor used by FlatCAM.)
(It is made to work with MACH3 compatible motion controllers.)

(TOOL DIAMETER: 1.0 mm)
(Feedrate_XY: 120.0 mm/min)
(Feedrate_Z: 60.0 mm/min)
(Feedrate rapids 1500.0 mm/min)

(Z_Cut: -2.0 mm)
(DepthPerCut: 0.5 mm <=>4 passes)
(Z_Move: 2.0 mm)
(Z Start: None mm)
(Z End: 22.0 mm)
(X,Y End: 0.0000, 0.0000 mm)
(Steps per circle: 16)
(Preprocessor Geometry: default)

(X range:  -71.0997 ...   -3.8989  mm)
(Y range:  -72.4992 ...   -3.8989  mm)

(Spindle Speed: 12000.0 RPM)
G21
G90
G94

G01 F120.00
G00 Z2.0000

M03 S12000.0
G01 F120.00
G00 X-4.3995 Y-5.4991
G01 F60.00
G01 Z-0.5000
G01 F120.00
G01 X-4.4048 Y-5.6069
G01 X-4.4206 Y-5.7136
G01 X-4.4469 Y-5.8183
G01 X-4.4832 Y-5.9199
G01 X-4.5293 Y-6.0174
G01 X-4.5848 Y-6.1100
G01 X-4.6491 Y-6.1967
G01 X-4.7216 Y-6.2766
G01 X-4.8015 Y-6.3491
G01 X-4.8882 Y-6.4134
G01 X-4.9808 Y-6.4689
G01 X-5.0783 Y-6.5150
G01 X-5.1799 Y-6.5513
G01 X-5.2846 Y-6.5776
G01 X-5.3913 Y-6.5934
G01 X-5.4991 Y-6.5987
G01 X-5.6069 Y-6.5934
G01 X-5.7136 Y-6.5776
G01 X-5.8183 Y-6.5513
G01 X-5.9199 Y-6.5150
G01 X-6.0174 Y-6.4689
G01 X-6.1100 Y-6.4134
G01 X-6.1967 Y-6.3491
G01 X-6.2766 Y-6.2766
G01 X-6.3491 Y-6.1967
G01 X-6.4134 Y-6.1100
G01 X-6.4689 Y-6.0174
G01 X-6.5150 Y-5.9199
G01 X-6.5513 Y-5.8183
G01 X-6.5776 Y-5.7136
G01 X-6.5934 Y-5.6069
G01 X-6.5987 Y-5.4991
G01 X-6.5934 Y-5.3913
G01 X-6.5776 Y-5.2846
G01 X-6.5513 Y-5.1799
G01 X-6.5150 Y-5.0783
G01 X-6.4689 Y-4.9808
G01 X-6.4134 Y-4.8882
G01 X-6.3491 Y-4.8015
G01 X-6.2766 Y-4.7216
G01 X-6.1967 Y-4.6491
G01 X-6.1100 Y-4.5848
G01 X-6.0174 Y-4.5293
G01 X-5.9199 Y-4.4832
G01 X-5.8183 Y-4.4469
G01 X-5.7136 Y-4.4206
G01 X-5.6069 Y-4.4048
G01 X-5.4991 Y-4.3995
G01 X-5.3913 Y-4.4048
G01 X-5.2846 Y-4.4206
G01 X-5.1799 Y-4.4469
G01 X-5.0783 Y-4.4832
G01 X-4.9808 Y-4.5293
G01 X-4.8882 Y-4.5848
G01 X-4.8015 Y-4.6491
G01 X-4.7216 Y-4.7216
G01 X-4.6491 Y-4.8015
G01 X-4.5848 Y-4.8882
G01 X-4.5293 Y-4.9808
G01 X-4.4832 Y-5.0783
G01 X-4.4469 Y-5.1799
G01 X-4.4206 Y-5.2846
G01 X-4.4048 Y-5.3913
G01 X-4.3995 Y-5.4991
G00 X-4.3995 Y-5.4991
G01 F60.00
G01 Z-1.0000
G01 F120.00
G01 X-4.4048 Y-5.6069
G01 X-4.4206 Y-5.7136
G01 X-4.4469 Y-5.8183
G01 X-4.4832 Y-5.9199
G01 X-4.5293 Y-6.0174
G01 X-4.5848 Y-6.1100
G01 X-4.6491 Y-6.1967
G01 X-4.7216 Y-6.2766
G01 X-4.8015 Y-6.3491
G01 X-4.8882 Y-6.4134
G01 X-4.9808 Y-6.4689
G01 X-5.0783 Y-6.5150
G01 X-5.1799 Y-6.5513
G01 X-5.2846 Y-6.5776
G01 X-5.3913 Y-6.5934
G01 X-5.4991 Y-6.5987
G01 X-5.6069 Y-6.5934
G01 X-5.7136 Y-6.5776
G01 X-5.8183 Y-6.5513
G01 X-5.9199 Y-6.5150
G01 X-6.0174 Y-6.4689
G01 X-6.1100 Y-6.4134
G01 X-6.1967 Y-6.3491
G01 X-6.2766 Y-6.2766
G01 X-6.3491 Y-6.1967
G01 X-6.4134 Y-6.1100
G01 X-6.4689 Y-6.0174
G01 X-6.5150 Y-5.9199
G01 X-6.5513 Y-5.8183
G01 X-6.5776 Y-5.7136
G01 X-6.5934 Y-5.6069
G01 X-6.5987 Y-5.4991
G01 X-6.5934 Y-5.3913
G01 X-6.5776 Y-5.2846
G01 X-6.5513 Y-5.1799
G01 X-6.5150 Y-5.0783
G01 X-6.4689 Y-4.9808
G01 X-6.4134 Y-4.8882
G01 X-6.3491 Y-4.8015
G01 X-6.2766 Y-4.7216
G01 X-6.1967 Y-4.6491
G01 X-6.1100 Y-4.5848
G01 X-6.0174 Y-4.5293
G01 X-5.9199 Y-4.4832
G01 X-5.8183 Y-4.4469
G01 X-5.7136 Y-4.4206
G01 X-5.6069 Y-4.4048
G01 X-5.4991 Y-4.3995
G01 X-5.3913 Y-4.4048
G01 X-5.2846 Y-4.4206
G01 X-5.1799 Y-4.4469
G01 X-5.0783 Y-4.4832
G01 X-4.9808 Y-4.5293
G01 X-4.8882 Y-4.5848
G01 X-4.8015 Y-4.6491
G01 X-4.7216 Y-4.7216
G01 X-4.6491 Y-4.8015
G01 X-4.5848 Y-4.8882
G01 X-4.5293 Y-4.9808
G01 X-4.4832 Y-5.0783
G01 X-4.4469 Y-5.1799
G01 X-4.4206 Y-5.2846
G01 X-4.4048 Y-5.3913
G01 X-4.3995 Y-5.4991
G00 X-4.3995 Y-5.4991
G01 F60.00
G01 Z-1.5000
G01 F120.00
G01 X-4.4048 Y-5.6069
G01 X-4.4206 Y-5.7136
G01 X-4.4469 Y-5.8183
G01 X-4.4832 Y-5.9199
G01 X-4.5293 Y-6.0174
G01 X-4.5848 Y-6.1100
G01 X-4.6491 Y-6.1967
G01 X-4.7216 Y-6.2766
G01 X-4.8015 Y-6.3491
G01 X-4.8882 Y-6.4134
G01 X-4.9808 Y-6.4689
G01 X-5.0783 Y-6.5150
G01 X-5.1799 Y-6.5513
G01 X-5.2846 Y-6.5776
G01 X-5.3913 Y-6.5934
G01 X-5.4991 Y-6.5987
G01 X-5.6069 Y-6.5934
G01 X-5.7136 Y-6.5776
G01 X-5.8183 Y-6.5513
G01 X-5.9199 Y-6.5150
G01 X-6.0174 Y-6.4689
G01 X-6.1100 Y-6.4134
G01 X-6.1967 Y-6.3491
G01 X-6.2766 Y-6.2766
G01 X-6.3491 Y-6.1967
G01 X-6.4134 Y-6.1100
G01 X-6.4689 Y-6.0174
G01 X-6.5150 Y-5.9199
G01 X-6.5513 Y-5.8183
G01 X-6.5776 Y-5.7136
G01 X-6.5934 Y-5.6069
G01 X-6.5987 Y-5.4991
G01 X-6.5934 Y-5.3913
G01 X-6.5776 Y-5.2846
G01 X-6.5513 Y-5.1799
G01 X-6.5150 Y-5.0783
G01 X-6.4689 Y-4.9808
G01 X-6.4134 Y-4.8882
G01 X-6.3491 Y-4.8015
G01 X-6.2766 Y-4.7216
G01 X-6.1967 Y-4.6491
G01 X-6.1100 Y-4.5848
G01 X-6.0174 Y-4.5293
G01 X-5.9199 Y-4.4832
G01 X-5.8183 Y-4.4469
G01 X-5.7136 Y-4.4206
G01 X-5.6069 Y-4.4048
G01 X-5.4991 Y-4.3995
G01 X-5.3913 Y-4.4048
G01 X-5.2846 Y-4.4206
G01 X-5.1799 Y-4.4469
G01 X-5.0783 Y-4.4832
G01 X-4.9808 Y-4.5293
G01 X-4.8882 Y-4.5848
G01 X-4.8015 Y-4.6491
G01 X-4.7216 Y-4.7216
G01 X-4.6491 Y-4.8015
G01 X-4.5848 Y-4.8882
G01 X-4.5293 Y-4.9808
G01 X-4.4832 Y-5.0783
G01 X-4.4469 Y-5.1799
G01 X-4.4206 Y-5.2846
G01 X-4.4048 Y-5.3913
G01 X-4.3995 Y-5.4991
G00 X-4.3995 Y-5.4991
G01 F60.00
G01 Z-2.0000
G01 F120.00
G01 X-4.4048 Y-5.6069
G01 X-4.4206 Y-5.7136
G01 X-4.4469 Y-5.8183
G01 X-4.4832 Y-5.9199
G01 X-4.5293 Y-6.0174
G01 X-4.5848 Y-6.1100
G01 X-4.6491 Y-6.1967
G01 X-4.7216 Y-6.2766
G01 X-4.8015 Y-6.3491
G01 X-4.8882 Y-6.4134
G01 X-4.9808 Y-6.4689
G01 X-5.0783 Y-6.5150
G01 X-5.1799 Y-6.5513
G01 X-5.2846 Y-6.5776
G01 X-5.3913 Y-6.5934
G01 X-5.4991 Y-6.5987
G01 X-5.6069 Y-6.5934
G01 X-5.7136 Y-6.5776
G01 X-5.8183 Y-6.5513
G01 X-5.9199 Y-6.5150
G01 X-6.0174 Y-6.4689
G01 X-6.1100 Y-6.4134
G01 X-6.1967 Y-6.3491
G01 X-6.2766 Y-6.2766
G01 X-6.3491 Y-6.1967
G01 X-6.4134 Y-6.1100
G01 X-6.4689 Y-6.0174
G01 X-6.5150 Y-5.9199
G01 X-6.5513 Y-5.8183
G01 X-6.5776 Y-5.7136
G01 X-6.5934 Y-5.6069
G01 X-6.5987 Y-5.4991
G01 X-6.5934 Y-5.3913
G01 X-6.5776 Y-5.2846
G01 X-6.5513 Y-5.1799
G01 X-6.5150 Y-5.0783
G01 X-6.4689 Y-4.9808
G01 X-6.4134 Y-4.8882
G01 X-6.3491 Y-4.8015
G01 X-6.2766 Y-4.7216
G01 X-6.1967 Y-4.6491
G01 X-6.1100 Y-4.5848
G01 X-6.0174 Y-4.5293
G01 X-5.9199 Y-4.4832
G01 X-5.8183 Y-4.4469
G01 X-5.7136 Y-4.4206
G01 X-5.6069 Y-4.4048
G01 X-5.4991 Y-4.3995
G01 X-5.3913 Y-4.4048
G01 X-5.2846 Y-4.4206
G01 X-5.1799 Y-4.4469
G01 X-5.0783 Y-4.4832
G01 X-4.9808 Y-4.5293
G01 X-4.8882 Y-4.5848
G01 X-4.8015 Y-4.6491
G01 X-4.7216 Y-4.7216
G01 X-4.6491 Y-4.8015
G01 X-4.5848 Y-4.8882
G01 X-4.5293 Y-4.9808
G01 X-4.4832 Y-5.0783
G01 X-4.4469 Y-5.1799
G01 X-4.4206 Y-5.2846
G01 X-4.4048 Y-5.3913
G01 X-4.3995 Y-5.4991
G00 Z2.0000
G00 X-5.0491 Y-5.4991
G01 F60.00
G01 Z-0.5000
G01 F120.00
G01 X-5.0577 Y-5.5869
G01 X-5.0834 Y-5.6713
G01 X-5.1249 Y-5.7491
G01 X-5.1809 Y-5.8173
G01 X-5.2491 Y-5.8733
G01 X-5.3269 Y-5.9148
G01 X-5.4113 Y-5.9405
G01 X-5.4991 Y-5.9491
G01 X-5.5869 Y-5.9405
G01 X-5.6713 Y-5.9148
G01 X-5.7491 Y-5.8733
G01 X-5.8173 Y-5.8173
G01 X-5.8733 Y-5.7491
G01 X-5.9148 Y-5.6713
G01 X-5.9405 Y-5.5869
G01 X-5.9491 Y-5.4991
G01 X-5.9405 Y-5.4113
G01 X-5.9148 Y-5.3269
G01 X-5.8733 Y-5.2491
G01 X-5.8173 Y-5.1809
G01 X-5.7491 Y-5.1249
G01 X-5.6713 Y-5.0834
G01 X-5.5869 Y-5.0577
G01 X-5.4991 Y-5.0491
G01 X-5.4113 Y-5.0577
G01 X-5.3269 Y-5.0834
G01 X-5.2491 Y-5.1249
G01 X-5.1809 Y-5.1809
G01 X-5.1249 Y-5.2491
G01 X-5.0834 Y-5.3269
G01 X-5.0577 Y-5.4113
G01 X-5.0491 Y-5.4991
G00 X-5.0491 Y-5.4991
G01 F60.00
G01 Z-1.0000
G01 F120.00
G01 X-5.0577 Y-5.4113
G01 X-5.0834 Y-5.3269
G01 X-5.1249 Y-5.2491
G01 X-5.1809 Y-5.1809
G01 X-5.2491 Y-5.1249
G01 X-5.3269 Y-5.0834
G01 X-5.4113 Y-5.0577
G01 X-5.4991 Y-5.0491
G01 X-5.5869 Y-5.0577
G01 X-5.6713 Y-5.0834
G01 X-5.7491 Y-5.1249
G01 X-5.8173 Y-5.1809
G01 X-5.8733 Y-5.2491
G01 X-5.9148 Y-5.3269
G01 X-5.9405 Y-5.4113
G01 X-5.9491 Y-5.4991
G01 X-5.9405 Y-5.5869
G01 X-5.9148 Y-5.6713
G01 X-5.8733 Y-5.7491
G01 X-5.8173 Y-5.8173
G01 X-5.7491 Y-5.8733
G01 X-5.6713 Y-5.9148
G01 X-5.5869 Y-5.9405
G01 X-5.4991 Y-5.9491
G01 X-5.4113 Y-5.9405
G01 X-5.3269 Y-5.9148
G01 X-5.2491 Y-5.8733
G01 X-5.1809 Y-5.8173
G01 X-5.1249 Y-5.7491
G01 X-5.0834 Y-5.6713
G01 X-5.0577 Y-5.5869
G01 X-5.0491 Y-5.4991
G00 X-5.0491 Y-5.4991
G01 F60.00
G01 Z-1.5000
G01 F120.00
G01 X-5.0577 Y-5.5869
G01 X-5.0834 Y-5.6713
G01 X-5.1249 Y-5.7491
G01 X-5.1809 Y-5.8173
G01 X-5.2491 Y-5.8733
G01 X-5.3269 Y-5.9148
G01 X-5.4113 Y-5.9405
G01 X-5.4991 Y-5.9491
G01 X-5.5869 Y-5.9405
G01 X-5.6713 Y-5.9148
G01 X-5.7491 Y-5.8733
G01 X-5.8173 Y-5.8173
G01 X-5.8733 Y-5.7491
G01 X-5.9148 Y-5.6713
G01 X-5.9405 Y-5.5869
G01 X-5.9491 Y-5.4991
G01 X-5.9405 Y-5.4113
G01 X-5.9148 Y-5.3269
G01 X-5.8733 Y-5.2491
G01 X-5.8173 Y-5.1809
G01 X-5.7491 Y-5.1249
G01 X-5.6713 Y-5.0834
G01 X-5.5869 Y-5.0577
G01 X-5.4991 Y-5.0491
G01 X-5.4113 Y-5.0577
G01 X-5.3269 Y-5.0834
G01 X-5.2491 Y-5.1249
G01 X-5.1809 Y-5.1809
G01 X-5.1249 Y-5.2491
G01 X-5.0834 Y-5.3269
G01 X-5.0577 Y-5.4113
G01 X-5.0491 Y-5.4991
G00 X-5.0491 Y-5.4991
G01 F60.00
G01 Z-2.0000
G01 F120.00
G01 X-5.0577 Y-5.4113
G01 X-5.0834 Y-5.3269
G01 X-5.1249 Y-5.2491
G01 X-5.1809 Y-5.1809
G01 X-5.2491 Y-5.1249
G01 X-5.3269 Y-5.0834
G01 X-5.4113 Y-5.0577
G01 X-5.4991 Y-5.0491
G01 X-5.5869 Y-5.0577
G01 X-5.6713 Y-5.0834
G01 X-5.7491 Y-5.1249
G01 X-5.8173 Y-5.1809
G01 X-5.8733 Y-5.2491
G01 X-5.9148 Y-5.3269
G01 X-5.9405 Y-5.4113
G01 X-5.9491 Y-5.4991
G01 X-5.9405 Y-5.5869
G01 X-5.9148 Y-5.6713
G01 X-5.8733 Y-5.7491
G01 X-5.8173 Y-5.8173
G01 X-5.7491 Y-5.8733
G01 X-5.6713 Y-5.9148
G01 X-5.5869 Y-5.9405
G01 X-5.4991 Y-5.9491
G01 X-5.4113 Y-5.9405
G01 X-5.3269 Y-5.9148
G01 X-5.2491 Y-5.8733
G01 X-5.1809 Y-5.8173
G01 X-5.1249 Y-5.7491
G01 X-5.0834 Y-5.6713
G01 X-5.0577 Y-5.5869
G01 X-5.0491 Y-5.4991
G00 Z2.0000
G00 X-68.3999 Y-5.4991
G01 F60.00
G01 Z-0.5000
G01 F120.00
G01 X-68.4052 Y-5.6069
G01 X-68.4210 Y-5.7136
G01 X-68.4472 Y-5.8183
G01 X-68.4836 Y-5.9199
G01 X-68.5297 Y-6.0174
G01 X-68.5852 Y-6.1100
G01 X-68.6495 Y-6.1967
G01 X-68.7219 Y-6.2766
G01 X-68.8019 Y-6.3491
G01 X-68.8886 Y-6.4134
G01 X-68.9811 Y-6.4689
G01 X-69.0787 Y-6.5150
G01 X-69.1803 Y-6.5513
G01 X-69.2850 Y-6.5776
G01 X-69.3917 Y-6.5934
G01 X-69.4995 Y-6.5987
G01 X-69.6073 Y-6.5934
G01 X-69.7140 Y-6.5776
G01 X-69.8187 Y-6.5513
G01 X-69.9203 Y-6.5150
G01 X-70.0178 Y-6.4689
G01 X-70.1104 Y-6.4134
G01 X-70.1971 Y-6.3491
G01 X-70.2770 Y-6.2766
G01 X-70.3495 Y-6.1967
G01 X-70.4138 Y-6.1100
G01 X-70.4692 Y-6.0174
G01 X-70.5154 Y-5.9199
G01 X-70.5517 Y-5.8183
G01 X-70.5779 Y-5.7136
G01 X-70.5938 Y-5.6069
G01 X-70.5991 Y-5.4991
G01 X-70.5938 Y-5.3913
G01 X-70.5779 Y-5.2846
G01 X-70.5517 Y-5.1799
G01 X-70.5154 Y-5.0783
G01 X-70.4692 Y-4.9808
G01 X-70.4138 Y-4.8882
G01 X-70.3495 Y-4.8015
G01 X-70.2770 Y-4.7216
G01 X-70.1971 Y-4.6491
G01 X-70.1104 Y-4.5848
G01 X-70.0178 Y-4.5293
G01 X-69.9203 Y-4.4832
G01 X-69.8187 Y-4.4469
G01 X-69.7140 Y-4.4206
G01 X-69.6073 Y-4.4048
G01 X-69.4995 Y-4.3995
G01 X-69.3917 Y-4.4048
G01 X-69.2850 Y-4.4206
G01 X-69.1803 Y-4.4469
G01 X-69.0787 Y-4.4832
G01 X-68.9811 Y-4.5293
G01 X-68.8886 Y-4.5848
G01 X-68.8019 Y-4.6491
G01 X-68.7219 Y-4.7216
G01 X-68.6495 Y-4.8015
G01 X-68.5852 Y-4.8882
G01 X-68.5297 Y-4.9808
G01 X-68.4836 Y-5.0783
G01 X-68.4472 Y-5.1799
G01 X-68.4210 Y-5.2846
G01 X-68.4052 Y-5.3913
G01 X-68.3999 Y-5.4991
G00 X-68.3999 Y-5.4991
G01 F60.00
G01 Z-1.0000
G01 F120.00
G01 X-68.4052 Y-5.6069
G01 X-68.4210 Y-5.7136
G01 X-68.4472 Y-5.8183
G01 X-68.4836 Y-5.9199
G01 X-68.5297 Y-6.0174
G01 X-68.5852 Y-6.1100
G01 X-68.6495 Y-6.1967
G01 X-68.7219 Y-6.2766
G01 X-68.8019 Y-6.3491
G01 X-68.8886 Y-6.4134
G01 X-68.9811 Y-6.4689
G01 X-69.0787 Y-6.5150
G01 X-69.1803 Y-6.5513
G01 X-69.2850 Y-6.5776
G01 X-69.3917 Y-6.5934
G01 X-69.4995 Y-6.5987
G01 X-69.6073 Y-6.5934
G01 X-69.7140 Y-6.5776
G01 X-69.8187 Y-6.5513
G01 X-69.9203 Y-6.5150
G01 X-70.0178 Y-6.4689
G01 X-70.1104 Y-6.4134
G01 X-70.1971 Y-6.3491
G01 X-70.2770 Y-6.2766
G01 X-70.3495 Y-6.1967
G01 X-70.4138 Y-6.1100
G01 X-70.4692 Y-6.0174
G01 X-70.5154 Y-5.9199
G01 X-70.5517 Y-5.8183
G01 X-70.5779 Y-5.7136
G01 X-70.5938 Y-5.6069
G01 X-70.5991 Y-5.4991
G01 X-70.5938 Y-5.3913
G01 X-70.5779 Y-5.2846
G01 X-70.5517 Y-5.1799
G01 X-70.5154 Y-5.0783
G01 X-70.4692 Y-4.9808
G01 X-70.4138 Y-4.8882
G01 X-70.3495 Y-4.8015
G01 X-70.2770 Y-4.7216
G01 X-70.1971 Y-4.6491
G01 X-70.1104 Y-4.5848
G01 X-70.0178 Y-4.5293
G01 X-69.9203 Y-4.4832
G01 X-69.8187 Y-4.4469
G01 X-69.7140 Y-4.4206
G01 X-69.6073 Y-4.4048
G01 X-69.4995 Y-4.3995
G01 X-69.3917 Y-4.4048
G01 X-69.2850 Y-4.4206
G01 X-69.1803 Y-4.4469
G01 X-69.0787 Y-4.4832
G01 X-68.9811 Y-4.5293
G01 X-68.8886 Y-4.5848
G01 X-68.8019 Y-4.6491
G01 X-68.7219 Y-4.7216
G01 X-68.6495 Y-4.8015
G01 X-68.5852 Y-4.8882
G01 X-68.5297 Y-4.9808
G01 X-68.4836 Y-5.0783
G01 X-68.4472 Y-5.1799
G01 X-68.4210 Y-5.2846
G01 X-68.4052 Y-5.3913
G01 X-68.3999 Y-5.4991
G00 X-68.3999 Y-5.4991
G01 F60.00
G01 Z-1.5000
G01 F120.00
G01 X-68.4052 Y-5.6069
G01 X-68.4210 Y-5.7136
G01 X-68.4472 Y-5.8183
G01 X-68.4836 Y-5.9199
G01 X-68.5297 Y-6.0174
G01 X-68.5852 Y-6.1100
G01 X-68.6495 Y-6.1967
G01 X-68.7219 Y-6.2766
G01 X-68.8019 Y-6.3491
G01 X-68.8886 Y-6.4134
G01 X-68.9811 Y-6.4689
G01 X-69.0787 Y-6.5150
G01 X-69.1803 Y-6.5513
G01 X-69.2850 Y-6.5776
G01 X-69.3917 Y-6.5934
G01 X-69.4995 Y-6.5987
G01 X-69.6073 Y-6.5934
G01 X-69.7140 Y-6.5776
G01 X-69.8187 Y-6.5513
G01 X-69.9203 Y-6.5150
G01 X-70.0178 Y-6.4689
G01 X-70.1104 Y-6.4134
G01 X-70.1971 Y-6.3491
G01 X-70.2770 Y-6.2766
G01 X-70.3495 Y-6.1967
G01 X-70.4138 Y-6.1100
G01 X-70.4692 Y-6.0174
G01 X-70.5154 Y-5.9199
G01 X-70.5517 Y-5.8183
G01 X-70.5779 Y-5.7136
G01 X-70.5938 Y-5.6069
G01 X-70.5991 Y-5.4991
G01 X-70.5938 Y-5.3913
G01 X-70.5779 Y-5.2846
G01 X-70.5517 Y-5.1799
G01 X-70.5154 Y-5.0783
G01 X-70.4692 Y-4.9808
G01 X-70.4138 Y-4.8882
G01 X-70.3495 Y-4.8015
G01 X-70.2770 Y-4.7216
G01 X-70.1971 Y-4.6491
G01 X-70.1104 Y-4.5848
G01 X-70.0178 Y-4.5293
G01 X-69.9203 Y-4.4832
G01 X-69.8187 Y-4.4469
G01 X-69.7140 Y-4.4206
G01 X-69.6073 Y-4.4048
G01 X-69.4995 Y-4.3995
G01 X-69.3917 Y-4.4048
G01 X-69.2850 Y-4.4206
G01 X-69.1803 Y-4.4469
G01 X-69.0787 Y-4.4832
G01 X-68.9811 Y-4.5293
G01 X-68.8886 Y-4.5848
G01 X-68.8019 Y-4.6491
G01 X-68.7219 Y-4.7216
G01 X-68.6495 Y-4.8015
G01 X-68.5852 Y-4.8882
G01 X-68.5297 Y-4.9808
G01 X-68.4836 Y-5.0783
G01 X-68.4472 Y-5.1799
G01 X-68.4210 Y-5.2846
G01 X-68.4052 Y-5.3913
G01 X-68.3999 Y-5.4991
G00 X-68.3999 Y-5.4991
G01 F60.00
G01 Z-2.0000
G01 F120.00
G01 X-68.4052 Y-5.6069
G01 X-68.4210 Y-5.7136
G01 X-68.4472 Y-5.8183
G01 X-68.4836 Y-5.9199
G01 X-68.5297 Y-6.0174
G01 X-68.5852 Y-6.1100
G01 X-68.6495 Y-6.1967
G01 X-68.7219 Y-6.2766
G01 X-68.8019 Y-6.3491
G01 X-68.8886 Y-6.4134
G01 X-68.9811 Y-6.4689
G01 X-69.0787 Y-6.5150
G01 X-69.1803 Y-6.5513
G01 X-69.2850 Y-6.5776
G01 X-69.3917 Y-6.5934
G01 X-69.4995 Y-6.5987
G01 X-69.6073 Y-6.5934
G01 X-69.7140 Y-6.5776
G01 X-69.8187 Y-6.5513
G01 X-69.9203 Y-6.5150
G01 X-70.0178 Y-6.4689
G01 X-70.1104 Y-6.4134
G01 X-70.1971 Y-6.3491
G01 X-70.2770 Y-6.2766
G01 X-70.3495 Y-6.1967
G01 X-70.4138 Y-6.1100
G01 X-70.4692 Y-6.0174
G01 X-70.5154 Y-5.9199
G01 X-70.5517 Y-5.8183
G01 X-70.5779 Y-5.7136
G01 X-70.5938 Y-5.6069
G01 X-70.5991 Y-5.4991
G01 X-70.5938 Y-5.3913
G01 X-70.5779 Y-5.2846
G01 X-70.5517 Y-5.1799
G01 X-70.5154 Y-5.0783
G01 X-70.4692 Y-4.9808
G01 X-70.4138 Y-4.8882
G01 X-70.3495 Y-4.8015
G01 X-70.2770 Y-4.7216
G01 X-70.1971 Y-4.6491
G01 X-70.1104 Y-4.5848
G01 X-70.0178 Y-4.5293
G01 X-69.9203 Y-4.4832
G01 X-69.8187 Y-4.4469
G01 X-69.7140 Y-4.4206
G01 X-69.6073 Y-4.4048
G01 X-69.4995 Y-4.3995
G01 X-69.3917 Y-4.4048
G01 X-69.2850 Y-4.4206
G01 X-69.1803 Y-4.4469
G01 X-69.0787 Y-4.4832
G01 X-68.9811 Y-4.5293
G01 X-68.8886 Y-4.5848
G01 X-68.8019 Y-4.6491
G01 X-68.7219 Y-4.7216
G01 X-68.6495 Y-4.8015
G01 X-68.5852 Y-4.8882
G01 X-68.5297 Y-4.9808
G01 X-68.4836 Y-5.0783
G01 X-68.4472 Y-5.1799
G01 X-68.4210 Y-5.2846
G01 X-68.4052 Y-5.3913
G01 X-68.3999 Y-5.4991
G00 Z2.0000
G00 X-69.0495 Y-5.4991
G01 F60.00
G01 Z-0.5000
G01 F120.00
G01 X-69.0581 Y-5.5869
G01 X-69.0837 Y-5.6713
G01 X-69.1253 Y-5.7491
G01 X-69.1813 Y-5.8173
G01 X-69.2495 Y-5.8733
G01 X-69.3273 Y-5.9148
G01 X-69.4117 Y-5.9405
G01 X-69.4995 Y-5.9491
G01 X-69.5873 Y-5.9405
G01 X-69.6717 Y-5.9148
G01 X-69.7495 Y-5.8733
G01 X-69.8177 Y-5.8173
G01 X-69.8736 Y-5.7491
G01 X-69.9152 Y-5.6713
G01 X-69.9408 Y-5.5869
G01 X-69.9495 Y-5.4991
G01 X-69.9408 Y-5.4113
G01 X-69.9152 Y-5.3269
G01 X-69.8736 Y-5.2491
G01 X-69.8177 Y-5.1809
G01 X-69.7495 Y-5.1249
G01 X-69.6717 Y-5.0834
G01 X-69.5873 Y-5.0577
G01 X-69.4995 Y-5.0491
G01 X-69.4117 Y-5.0577
G01 X-69.3273 Y-5.0834
G01 X-69.2495 Y-5.1249
G01 X-69.1813 Y-5.1809
G01 X-69.1253 Y-5.2491
G01 X-69.0837 Y-5.3269
G01 X-69.0581 Y-5.4113
G01 X-69.0495 Y-5.4991
G00 X-69.0495 Y-5.4991
G01 F60.00
G01 Z-1.0000
G01 F120.00
G01 X-69.0581 Y-5.4113
G01 X-69.0837 Y-5.3269
G01 X-69.1253 Y-5.2491
G01 X-69.1813 Y-5.1809
G01 X-69.2495 Y-5.1249
G01 X-69.3273 Y-5.0834
G01 X-69.4117 Y-5.0577
G01 X-69.4995 Y-5.0491
G01 X-69.5873 Y-5.0577
G01 X-69.6717 Y-5.0834
G01 X-69.7495 Y-5.1249
G01 X-69.8177 Y-5.1809
G01 X-69.8736 Y-5.2491
G01 X-69.9152 Y-5.3269
G01 X-69.9408 Y-5.4113
G01 X-69.9495 Y-5.4991
G01 X-69.9408 Y-5.5869
G01 X-69.9152 Y-5.6713
G01 X-69.8736 Y-5.7491
G01 X-69.8177 Y-5.8173
G01 X-69.7495 Y-5.8733
G01 X-69.6717 Y-5.9148
G01 X-69.5873 Y-5.9405
G01 X-69.4995 Y-5.9491
G01 X-69.4117 Y-5.9405
G01 X-69.3273 Y-5.9148
G01 X-69.2495 Y-5.8733
G01 X-69.1813 Y-5.8173
G01 X-69.1253 Y-5.7491
G01 X-69.0837 Y-5.6713
G01 X-69.0581 Y-5.5869
G01 X-69.0495 Y-5.4991
G00 X-69.0495 Y-5.4991
G01 F60.00
G01 Z-1.5000
G01 F120.00
G01 X-69.0581 Y-5.5869
G01 X-69.0837 Y-5.6713
G01 X-69.1253 Y-5.7491
G01 X-69.1813 Y-5.8173
G01 X-69.2495 Y-5.8733
G01 X-69.3273 Y-5.9148
G01 X-69.4117 Y-5.9405
G01 X-69.4995 Y-5.9491
G01 X-69.5873 Y-5.9405
G01 X-69.6717 Y-5.9148
G01 X-69.7495 Y-5.8733
G01 X-69.8177 Y-5.8173
G01 X-69.8736 Y-5.7491
G01 X-69.9152 Y-5.6713
G01 X-69.9408 Y-5.5869
G01 X-69.9495 Y-5.4991
G01 X-69.9408 Y-5.4113
G01 X-69.9152 Y-5.3269
G01 X-69.8736 Y-5.2491
G01 X-69.8177 Y-5.1809
G01 X-69.7495 Y-5.1249
G01 X-69.6717 Y-5.0834
G01 X-69.5873 Y-5.0577
G01 X-69.4995 Y-5.0491
G01 X-69.4117 Y-5.0577
G01 X-69.3273 Y-5.0834
G01 X-69.2495 Y-5.1249
G01 X-69.1813 Y-5.1809
G01 X-69.1253 Y-5.2491
G01 X-69.0837 Y-5.3269
G01 X-69.0581 Y-5.4113
G01 X-69.0495 Y-5.4991
G00 X-69.0495 Y-5.4991
G01 F60.00
G01 Z-2.0000
G01 F120.00
G01 X-69.0581 Y-5.4113
G01 X-69.0837 Y-5.3269
G01 X-69.1253 Y-5.2491
G01 X-69.1813 Y-5.1809
G01 X-69.2495 Y-5.1249
G01 X-69.3273 Y-5.0834
G01 X-69.4117 Y-5.0577
G01 X-69.4995 Y-5.0491
G01 X-69.5873 Y-5.0577
G01 X-69.6717 Y-5.0834
G01 X-69.7495 Y-5.1249
G01 X-69.8177 Y-5.1809
G01 X-69.8736 Y-5.2491
G01 X-69.9152 Y-5.3269
G01 X-69.9408 Y-5.4113
G01 X-69.9495 Y-5.4991
G01 X-69.9408 Y-5.5869
G01 X-69.9152 Y-5.6713
G01 X-69.8736 Y-5.7491
G01 X-69.8177 Y-5.8173
G01 X-69.7495 Y-5.8733
G01 X-69.6717 Y-5.9148
G01 X-69.5873 Y-5.9405
G01 X-69.4995 Y-5.9491
G01 X-69.4117 Y-5.9405
G01 X-69.3273 Y-5.9148
G01 X-69.2495 Y-5.8733
G01 X-69.1813 Y-5.8173
G01 X-69.1253 Y-5.7491
G01 X-69.0837 Y-5.6713
G01 X-69.0581 Y-5.5869
G01 X-69.0495 Y-5.4991
G00 Z2.0000
G00 X-69.0495 Y-70.8990
G01 F60.00
G01 Z-0.5000
G01 F120.00
G01 X-69.0581 Y-70.9868
G01 X-69.0837 Y-71.0712
G01 X-69.1253 Y-71.1490
G01 X-69.1813 Y-71.2172
G01 X-69.2495 Y-71.2732
G01 X-69.3273 Y-71.3148
G01 X-69.4117 Y-71.3404
G01 X-69.4995 Y-71.3490
G01 X-69.5873 Y-71.3404
G01 X-69.6717 Y-71.3148
G01 X-69.7495 Y-71.2732
G01 X-69.8177 Y-71.2172
G01 X-69.8736 Y-71.1490
G01 X-69.9152 Y-71.0712
G01 X-69.9408 Y-70.9868
G01 X-69.9495 Y-70.8990
G01 X-69.9408 Y-70.8112
G01 X-69.9152 Y-70.7268
G01 X-69.8736 Y-70.6490
G01 X-69.8177 Y-70.5808
G01 X-69.7495 Y-70.5249
G01 X-69.6717 Y-70.4833
G01 X-69.5873 Y-70.4577
G01 X-69.4995 Y-70.4490
G01 X-69.4117 Y-70.4577
G01 X-69.3273 Y-70.4833
G01 X-69.2495 Y-70.5249
G01 X-69.1813 Y-70.5808
G01 X-69.1253 Y-70.6490
G01 X-69.0837 Y-70.7268
G01 X-69.0581 Y-70.8112
G01 X-69.0495 Y-70.8990
G00 X-69.0495 Y-70.8990
G01 F60.00
G01 Z-1.0000
G01 F120.00
G01 X-69.0581 Y-70.8112
G01 X-69.0837 Y-70.7268
G01 X-69.1253 Y-70.6490
G01 X-69.1813 Y-70.5808
G01 X-69.2495 Y-70.5249
G01 X-69.3273 Y-70.4833
G01 X-69.4117 Y-70.4577
G01 X-69.4995 Y-70.4490
G01 X-69.5873 Y-70.4577
G01 X-69.6717 Y-70.4833
G01 X-69.7495 Y-70.5249
G01 X-69.8177 Y-70.5808
G01 X-69.8736 Y-70.6490
G01 X-69.9152 Y-70.7268
G01 X-69.9408 Y-70.8112
G01 X-69.9495 Y-70.8990
G01 X-69.9408 Y-70.9868
G01 X-69.9152 Y-71.0712
G01 X-69.8736 Y-71.1490
G01 X-69.8177 Y-71.2172
G01 X-69.7495 Y-71.2732
G01 X-69.6717 Y-71.3148
G01 X-69.5873 Y-71.3404
G01 X-69.4995 Y-71.3490
G01 X-69.4117 Y-71.3404
G01 X-69.3273 Y-71.3148
G01 X-69.2495 Y-71.2732
G01 X-69.1813 Y-71.2172
G01 X-69.1253 Y-71.1490
G01 X-69.0837 Y-71.0712
G01 X-69.0581 Y-70.9868
G01 X-69.0495 Y-70.8990
G00 X-69.0495 Y-70.8990
G01 F60.00
G01 Z-1.5000
G01 F120.00
G01 X-69.0581 Y-70.9868
G01 X-69.0837 Y-71.0712
G01 X-69.1253 Y-71.1490
G01 X-69.1813 Y-71.2172
G01 X-69.2495 Y-71.2732
G01 X-69.3273 Y-71.3148
G01 X-69.4117 Y-71.3404
G01 X-69.4995 Y-71.3490
G01 X-69.5873 Y-71.3404
G01 X-69.6717 Y-71.3148
G01 X-69.7495 Y-71.2732
G01 X-69.8177 Y-71.2172
G01 X-69.8736 Y-71.1490
G01 X-69.9152 Y-71.0712
G01 X-69.9408 Y-70.9868
G01 X-69.9495 Y-70.8990
G01 X-69.9408 Y-70.8112
G01 X-69.9152 Y-70.7268
G01 X-69.8736 Y-70.6490
G01 X-69.8177 Y-70.5808
G01 X-69.7495 Y-70.5249
G01 X-69.6717 Y-70.4833
G01 X-69.5873 Y-70.4577
G01 X-69.4995 Y-70.4490
G01 X-69.4117 Y-70.4577
G01 X-69.3273 Y-70.4833
G01 X-69.2495 Y-70.5249
G01 X-69.1813 Y-70.5808
G01 X-69.1253 Y-70.6490
G01 X-69.0837 Y-70.7268
G01 X-69.0581 Y-70.8112
G01 X-69.0495 Y-70.8990
G00 X-69.0495 Y-70.8990
G01 F60.00
G01 Z-2.0000
G01 F120.00
G01 X-69.0581 Y-70.8112
G01 X-69.0837 Y-70.7268
G01 X-69.1253 Y-70.6490
G01 X-69.1813 Y-70.5808
G01 X-69.2495 Y-70.5249
G01 X-69.3273 Y-70.4833
G01 X-69.4117 Y-70.4577
G01 X-69.4995 Y-70.4490
G01 X-69.5873 Y-70.4577
G01 X-69.6717 Y-70.4833
G01 X-69.7495 Y-70.5249
G01 X-69.8177 Y-70.5808
G01 X-69.8736 Y-70.6490
G01 X-69.9152 Y-70.7268
G01 X-69.9408 Y-70.8112
G01 X-69.9495 Y-70.8990
G01 X-69.9408 Y-70.9868
G01 X-69.9152 Y-71.0712
G01 X-69.8736 Y-71.1490
G01 X-69.8177 Y-71.2172
G01 X-69.7495 Y-71.2732
G01 X-69.6717 Y-71.3148
G01 X-69.5873 Y-71.3404
G01 X-69.4995 Y-71.3490
G01 X-69.4117 Y-71.3404
G01 X-69.3273 Y-71.3148
G01 X-69.2495 Y-71.2732
G01 X-69.1813 Y-71.2172
G01 X-69.1253 Y-71.1490
G01 X-69.0837 Y-71.0712
G01 X-69.0581 Y-70.9868
G01 X-69.0495 Y-70.8990
G00 Z2.0000
G00 X-68.3999 Y-70.8990
G01 F60.00
G01 Z-0.5000
G01 F120.00
G01 X-68.4052 Y-71.0068
G01 X-68.4210 Y-71.1135
G01 X-68.4472 Y-71.2182
G01 X-68.4836 Y-71.3198
G01 X-68.5297 Y-71.4174
G01 X-68.5852 Y-71.5099
G01 X-68.6495 Y-71.5966
G01 X-68.7219 Y-71.6766
G01 X-68.8019 Y-71.7490
G01 X-68.8886 Y-71.8133
G01 X-68.9811 Y-71.8688
G01 X-69.0787 Y-71.9149
G01 X-69.1803 Y-71.9513
G01 X-69.2850 Y-71.9775
G01 X-69.3917 Y-71.9933
G01 X-69.4995 Y-71.9986
G01 X-69.6073 Y-71.9933
G01 X-69.7140 Y-71.9775
G01 X-69.8187 Y-71.9513
G01 X-69.9203 Y-71.9149
G01 X-70.0178 Y-71.8688
G01 X-70.1104 Y-71.8133
G01 X-70.1971 Y-71.7490
G01 X-70.2770 Y-71.6766
G01 X-70.3495 Y-71.5966
G01 X-70.4138 Y-71.5099
G01 X-70.4692 Y-71.4174
G01 X-70.5154 Y-71.3198
G01 X-70.5517 Y-71.2182
G01 X-70.5779 Y-71.1135
G01 X-70.5938 Y-71.0068
G01 X-70.5991 Y-70.8990
G01 X-70.5938 Y-70.7912
G01 X-70.5779 Y-70.6845
G01 X-70.5517 Y-70.5798
G01 X-70.5154 Y-70.4782
G01 X-70.4692 Y-70.3807
G01 X-70.4138 Y-70.2881
G01 X-70.3495 Y-70.2014
G01 X-70.2770 Y-70.1215
G01 X-70.1971 Y-70.0490
G01 X-70.1104 Y-69.9847
G01 X-70.0178 Y-69.9293
G01 X-69.9203 Y-69.8831
G01 X-69.8187 Y-69.8468
G01 X-69.7140 Y-69.8206
G01 X-69.6073 Y-69.8047
G01 X-69.4995 Y-69.7994
G01 X-69.3917 Y-69.8047
G01 X-69.2850 Y-69.8206
G01 X-69.1803 Y-69.8468
G01 X-69.0787 Y-69.8831
G01 X-68.9811 Y-69.9293
G01 X-68.8886 Y-69.9847
G01 X-68.8019 Y-70.0490
G01 X-68.7219 Y-70.1215
G01 X-68.6495 Y-70.2014
G01 X-68.5852 Y-70.2881
G01 X-68.5297 Y-70.3807
G01 X-68.4836 Y-70.4782
G01 X-68.4472 Y-70.5798
G01 X-68.4210 Y-70.6845
G01 X-68.4052 Y-70.7912
G01 X-68.3999 Y-70.8990
G00 X-68.3999 Y-70.8990
G01 F60.00
G01 Z-1.0000
G01 F120.00
G01 X-68.4052 Y-71.0068
G01 X-68.4210 Y-71.1135
G01 X-68.4472 Y-71.2182
G01 X-68.4836 Y-71.3198
G01 X-68.5297 Y-71.4174
G01 X-68.5852 Y-71.5099
G01 X-68.6495 Y-71.5966
G01 X-68.7219 Y-71.6766
G01 X-68.8019 Y-71.7490
G01 X-68.8886 Y-71.8133
G01 X-68.9811 Y-71.8688
G01 X-69.0787 Y-71.9149
G01 X-69.1803 Y-71.9513
G01 X-69.2850 Y-71.9775
G01 X-69.3917 Y-71.9933
G01 X-69.4995 Y-71.9986
G01 X-69.6073 Y-71.9933
G01 X-69.7140 Y-71.9775
G01 X-69.8187 Y-71.9513
G01 X-69.9203 Y-71.9149
G01 X-70.0178 Y-71.8688
G01 X-70.1104 Y-71.8133
G01 X-70.1971 Y-71.7490
G01 X-70.2770 Y-71.6766
G01 X-70.3495 Y-71.5966
G01 X-70.4138 Y-71.5099
G01 X-70.4692 Y-71.4174
G01 X-70.5154 Y-71.3198
G01 X-70.5517 Y-71.2182
G01 X-70.5779 Y-71.1135
G01 X-70.5938 Y-71.0068
G01 X-70.5991 Y-70.8990
G01 X-70.5938 Y-70.7912
G01 X-70.5779 Y-70.6845
G01 X-70.5517 Y-70.5798
G01 X-70.5154 Y-70.4782
G01 X-70.4692 Y-70.3807
G01 X-70.4138 Y-70.2881
G01 X-70.3495 Y-70.2014
G01 X-70.2770 Y-70.1215
G01 X-70.1971 Y-70.0490
G01 X-70.1104 Y-69.9847
G01 X-70.0178 Y-69.9293
G01 X-69.9203 Y-69.8831
G01 X-69.8187 Y-69.8468
G01 X-69.7140 Y-69.8206
G01 X-69.6073 Y-69.8047
G01 X-69.4995 Y-69.7994
G01 X-69.3917 Y-69.8047
G01 X-69.2850 Y-69.8206
G01 X-69.1803 Y-69.8468
G01 X-69.0787 Y-69.8831
G01 X-68.9811 Y-69.9293
G01 X-68.8886 Y-69.9847
G01 X-68.8019 Y-70.0490
G01 X-68.7219 Y-70.1215
G01 X-68.6495 Y-70.2014
G01 X-68.5852 Y-70.2881
G01 X-68.5297 Y-70.3807
G01 X-68.4836 Y-70.4782
G01 X-68.4472 Y-70.5798
G01 X-68.4210 Y-70.6845
G01 X-68.4052 Y-70.7912
G01 X-68.3999 Y-70.8990
G00 X-68.3999 Y-70.8990
G01 F60.00
G01 Z-1.5000
G01 F120.00
G01 X-68.4052 Y-71.0068
G01 X-68.4210 Y-71.1135
G01 X-68.4472 Y-71.2182
G01 X-68.4836 Y-71.3198
G01 X-68.5297 Y-71.4174
G01 X-68.5852 Y-71.5099
G01 X-68.6495 Y-71.5966
G01 X-68.7219 Y-71.6766
G01 X-68.8019 Y-71.7490
G01 X-68.8886 Y-71.8133
G01 X-68.9811 Y-71.8688
G01 X-69.0787 Y-71.9149
G01 X-69.1803 Y-71.9513
G01 X-69.2850 Y-71.9775
G01 X-69.3917 Y-71.9933
G01 X-69.4995 Y-71.9986
G01 X-69.6073 Y-71.9933
G01 X-69.7140 Y-71.9775
G01 X-69.8187 Y-71.9513
G01 X-69.9203 Y-71.9149
G01 X-70.0178 Y-71.8688
G01 X-70.1104 Y-71.8133
G01 X-70.1971 Y-71.7490
G01 X-70.2770 Y-71.6766
G01 X-70.3495 Y-71.5966
G01 X-70.4138 Y-71.5099
G01 X-70.4692 Y-71.4174
G01 X-70.5154 Y-71.3198
G01 X-70.5517 Y-71.2182
G01 X-70.5779 Y-71.1135
G01 X-70.5938 Y-71.0068
G01 X-70.5991 Y-70.8990
G01 X-70.5938 Y-70.7912
G01 X-70.5779 Y-70.6845
G01 X-70.5517 Y-70.5798
G01 X-70.5154 Y-70.4782
G01 X-70.4692 Y-70.3807
G01 X-70.4138 Y-70.2881
G01 X-70.3495 Y-70.2014
G01 X-70.2770 Y-70.1215
G01 X-70.1971 Y-70.0490
G01 X-70.1104 Y-69.9847
G01 X-70.0178 Y-69.9293
G01 X-69.9203 Y-69.8831
G01 X-69.8187 Y-69.8468
G01 X-69.7140 Y-69.8206
G01 X-69.6073 Y-69.8047
G01 X-69.4995 Y-69.7994
G01 X-69.3917 Y-69.8047
G01 X-69.2850 Y-69.8206
G01 X-69.1803 Y-69.8468
G01 X-69.0787 Y-69.8831
G01 X-68.9811 Y-69.9293
G01 X-68.8886 Y-69.9847
G01 X-68.8019 Y-70.0490
G01 X-68.7219 Y-70.1215
G01 X-68.6495 Y-70.2014
G01 X-68.5852 Y-70.2881
G01 X-68.5297 Y-70.3807
G01 X-68.4836 Y-70.4782
G01 X-68.4472 Y-70.5798
G01 X-68.4210 Y-70.6845
G01 X-68.4052 Y-70.7912
G01 X-68.3999 Y-70.8990
G00 X-68.3999 Y-70.8990
G01 F60.00
G01 Z-2.0000
G01 F120.00
G01 X-68.4052 Y-71.0068
G01 X-68.4210 Y-71.1135
G01 X-68.4472 Y-71.2182
G01 X-68.4836 Y-71.3198
G01 X-68.5297 Y-71.4174
G01 X-68.5852 Y-71.5099
G01 X-68.6495 Y-71.5966
G01 X-68.7219 Y-71.6766
G01 X-68.8019 Y-71.7490
G01 X-68.8886 Y-71.8133
G01 X-68.9811 Y-71.8688
G01 X-69.0787 Y-71.9149
G01 X-69.1803 Y-71.9513
G01 X-69.2850 Y-71.9775
G01 X-69.3917 Y-71.9933
G01 X-69.4995 Y-71.9986
G01 X-69.6073 Y-71.9933
G01 X-69.7140 Y-71.9775
G01 X-69.8187 Y-71.9513
G01 X-69.9203 Y-71.9149
G01 X-70.0178 Y-71.8688
G01 X-70.1104 Y-71.8133
G01 X-70.1971 Y-71.7490
G01 X-70.2770 Y-71.6766
G01 X-70.3495 Y-71.5966
G01 X-70.4138 Y-71.5099
G01 X-70.4692 Y-71.4174
G01 X-70.5154 Y-71.3198
G01 X-70.5517 Y-71.2182
G01 X-70.5779 Y-71.1135
G01 X-70.5938 Y-71.0068
G01 X-70.5991 Y-70.8990
G01 X-70.5938 Y-70.7912
G01 X-70.5779 Y-70.6845
G01 X-70.5517 Y-70.5798
G01 X-70.5154 Y-70.4782
G01 X-70.4692 Y-70.3807
G01 X-70.4138 Y-70.2881
G01 X-70.3495 Y-70.2014
G01 X-70.2770 Y-70.1215
G01 X-70.1971 Y-70.0490
G01 X-70.1104 Y-69.9847
G01 X-70.0178 Y-69.9293
G01 X-69.9203 Y-69.8831
G01 X-69.8187 Y-69.8468
G01 X-69.7140 Y-69.8206
G01 X-69.6073 Y-69.8047
G01 X-69.4995 Y-69.7994
G01 X-69.3917 Y-69.8047
G01 X-69.2850 Y-69.8206
G01 X-69.1803 Y-69.8468
G01 X-69.0787 Y-69.8831
G01 X-68.9811 Y-69.9293
G01 X-68.8886 Y-69.9847
G01 X-68.8019 Y-70.0490
G01 X-68.7219 Y-70.1215
G01 X-68.6495 Y-70.2014
G01 X-68.5852 Y-70.2881
G01 X-68.5297 Y-70.3807
G01 X-68.4836 Y-70.4782
G01 X-68.4472 Y-70.5798
G01 X-68.4210 Y-70.6845
G01 X-68.4052 Y-70.7912
G01 X-68.3999 Y-70.8990
G00 Z2.0000
G00 X-5.0491 Y-70.8990
G01 F60.00
G01 Z-0.5000
G01 F120.00
G01 X-5.0577 Y-70.9868
G01 X-5.0834 Y-71.0712
G01 X-5.1249 Y-71.1490
G01 X-5.1809 Y-71.2172
G01 X-5.2491 Y-71.2732
G01 X-5.3269 Y-71.3148
G01 X-5.4113 Y-71.3404
G01 X-5.4991 Y-71.3490
G01 X-5.5869 Y-71.3404
G01 X-5.6713 Y-71.3148
G01 X-5.7491 Y-71.2732
G01 X-5.8173 Y-71.2172
G01 X-5.8733 Y-71.1490
G01 X-5.9148 Y-71.0712
G01 X-5.9405 Y-70.9868
G01 X-5.9491 Y-70.8990
G01 X-5.9405 Y-70.8112
G01 X-5.9148 Y-70.7268
G01 X-5.8733 Y-70.6490
G01 X-5.8173 Y-70.5808
G01 X-5.7491 Y-70.5249
G01 X-5.6713 Y-70.4833
G01 X-5.5869 Y-70.4577
G01 X-5.4991 Y-70.4490
G01 X-5.4113 Y-70.4577
G01 X-5.3269 Y-70.4833
G01 X-5.2491 Y-70.5249
G01 X-5.1809 Y-70.5808
G01 X-5.1249 Y-70.6490
G01 X-5.0834 Y-70.7268
G01 X-5.0577 Y-70.8112
G01 X-5.0491 Y-70.8990
G00 X-5.0491 Y-70.8990
G01 F60.00
G01 Z-1.0000
G01 F120.00
G01 X-5.0577 Y-70.8112
G01 X-5.0834 Y-70.7268
G01 X-5.1249 Y-70.6490
G01 X-5.1809 Y-70.5808
G01 X-5.2491 Y-70.5249
G01 X-5.3269 Y-70.4833
G01 X-5.4113 Y-70.4577
G01 X-5.4991 Y-70.4490
G01 X-5.5869 Y-70.4577
G01 X-5.6713 Y-70.4833
G01 X-5.7491 Y-70.5249
G01 X-5.8173 Y-70.5808
G01 X-5.8733 Y-70.6490
G01 X-5.9148 Y-70.7268
G01 X-5.9405 Y-70.8112
G01 X-5.9491 Y-70.8990
G01 X-5.9405 Y-70.9868
G01 X-5.9148 Y-71.0712
G01 X-5.8733 Y-71.1490
G01 X-5.8173 Y-71.2172
G01 X-5.7491 Y-71.2732
G01 X-5.6713 Y-71.3148
G01 X-5.5869 Y-71.3404
G01 X-5.4991 Y-71.3490
G01 X-5.4113 Y-71.3404
G01 X-5.3269 Y-71.3148
G01 X-5.2491 Y-71.2732
G01 X-5.1809 Y-71.2172
G01 X-5.1249 Y-71.1490
G01 X-5.0834 Y-71.0712
G01 X-5.0577 Y-70.9868
G01 X-5.0491 Y-70.8990
G00 X-5.0491 Y-70.8990
G01 F60.00
G01 Z-1.5000
G01 F120.00
G01 X-5.0577 Y-70.9868
G01 X-5.0834 Y-71.0712
G01 X-5.1249 Y-71.1490
G01 X-5.1809 Y-71.2172
G01 X-5.2491 Y-71.2732
G01 X-5.3269 Y-71.3148
G01 X-5.4113 Y-71.3404
G01 X-5.4991 Y-71.3490
G01 X-5.5869 Y-71.3404
G01 X-5.6713 Y-71.3148
G01 X-5.7491 Y-71.2732
G01 X-5.8173 Y-71.2172
G01 X-5.8733 Y-71.1490
G01 X-5.9148 Y-71.0712
G01 X-5.9405 Y-70.9868
G01 X-5.9491 Y-70.8990
G01 X-5.9405 Y-70.8112
G01 X-5.9148 Y-70.7268
G01 X-5.8733 Y-70.6490
G01 X-5.8173 Y-70.5808
G01 X-5.7491 Y-70.5249
G01 X-5.6713 Y-70.4833
G01 X-5.5869 Y-70.4577
G01 X-5.4991 Y-70.4490
G01 X-5.4113 Y-70.4577
G01 X-5.3269 Y-70.4833
G01 X-5.2491 Y-70.5249
G01 X-5.1809 Y-70.5808
G01 X-5.1249 Y-70.6490
G01 X-5.0834 Y-70.7268
G01 X-5.0577 Y-70.8112
G01 X-5.0491 Y-70.8990
G00 X-5.0491 Y-70.8990
G01 F60.00
G01 Z-2.0000
G01 F120.00
G01 X-5.0577 Y-70.8112
G01 X-5.0834 Y-70.7268
G01 X-5.1249 Y-70.6490
G01 X-5.1809 Y-70.5808
G01 X-5.2491 Y-70.5249
G01 X-5.3269 Y-70.4833
G01 X-5.4113 Y-70.4577
G01 X-5.4991 Y-70.4490
G01 X-5.5869 Y-70.4577
G01 X-5.6713 Y-70.4833
G01 X-5.7491 Y-70.5249
G01 X-5.8173 Y-70.5808
G01 X-5.8733 Y-70.6490
G01 X-5.9148 Y-70.7268
G01 X-5.9405 Y-70.8112
G01 X-5.9491 Y-70.8990
G01 X-5.9405 Y-70.9868
G01 X-5.9148 Y-71.0712
G01 X-5.8733 Y-71.1490
G01 X-5.8173 Y-71.2172
G01 X-5.7491 Y-71.2732
G01 X-5.6713 Y-71.3148
G01 X-5.5869 Y-71.3404
G01 X-5.4991 Y-71.3490
G01 X-5.4113 Y-71.3404
G01 X-5.3269 Y-71.3148
G01 X-5.2491 Y-71.2732
G01 X-5.1809 Y-71.2172
G01 X-5.1249 Y-71.1490
G01 X-5.0834 Y-71.0712
G01 X-5.0577 Y-70.9868
G01 X-5.0491 Y-70.8990
G00 Z2.0000
G00 X-4.3995 Y-70.8990
G01 F60.00
G01 Z-0.5000
G01 F120.00
G01 X-4.4048 Y-71.0068
G01 X-4.4206 Y-71.1135
G01 X-4.4469 Y-71.2182
G01 X-4.4832 Y-71.3198
G01 X-4.5293 Y-71.4174
G01 X-4.5848 Y-71.5099
G01 X-4.6491 Y-71.5966
G01 X-4.7216 Y-71.6766
G01 X-4.8015 Y-71.7490
G01 X-4.8882 Y-71.8133
G01 X-4.9808 Y-71.8688
G01 X-5.0783 Y-71.9149
G01 X-5.1799 Y-71.9513
G01 X-5.2846 Y-71.9775
G01 X-5.3913 Y-71.9933
G01 X-5.4991 Y-71.9986
G01 X-5.6069 Y-71.9933
G01 X-5.7136 Y-71.9775
G01 X-5.8183 Y-71.9513
G01 X-5.9199 Y-71.9149
G01 X-6.0174 Y-71.8688
G01 X-6.1100 Y-71.8133
G01 X-6.1967 Y-71.7490
G01 X-6.2766 Y-71.6766
G01 X-6.3491 Y-71.5966
G01 X-6.4134 Y-71.5099
G01 X-6.4689 Y-71.4174
G01 X-6.5150 Y-71.3198
G01 X-6.5513 Y-71.2182
G01 X-6.5776 Y-71.1135
G01 X-6.5934 Y-71.0068
G01 X-6.5987 Y-70.8990
G01 X-6.5934 Y-70.7912
G01 X-6.5776 Y-70.6845
G01 X-6.5513 Y-70.5798
G01 X-6.5150 Y-70.4782
G01 X-6.4689 Y-70.3807
G01 X-6.4134 Y-70.2881
G01 X-6.3491 Y-70.2014
G01 X-6.2766 Y-70.1215
G01 X-6.1967 Y-70.0490
G01 X-6.1100 Y-69.9847
G01 X-6.0174 Y-69.9293
G01 X-5.9199 Y-69.8831
G01 X-5.8183 Y-69.8468
G01 X-5.7136 Y-69.8206
G01 X-5.6069 Y-69.8047
G01 X-5.4991 Y-69.7994
G01 X-5.3913 Y-69.8047
G01 X-5.2846 Y-69.8206
G01 X-5.1799 Y-69.8468
G01 X-5.0783 Y-69.8831
G01 X-4.9808 Y-69.9293
G01 X-4.8882 Y-69.9847
G01 X-4.8015 Y-70.0490
G01 X-4.7216 Y-70.1215
G01 X-4.6491 Y-70.2014
G01 X-4.5848 Y-70.2881
G01 X-4.5293 Y-70.3807
G01 X-4.4832 Y-70.4782
G01 X-4.4469 Y-70.5798
G01 X-4.4206 Y-70.6845
G01 X-4.4048 Y-70.7912
G01 X-4.3995 Y-70.8990
G00 X-4.3995 Y-70.8990
G01 F60.00
G01 Z-1.0000
G01 F120.00
G01 X-4.4048 Y-71.0068
G01 X-4.4206 Y-71.1135
G01 X-4.4469 Y-71.2182
G01 X-4.4832 Y-71.3198
G01 X-4.5293 Y-71.4174
G01 X-4.5848 Y-71.5099
G01 X-4.6491 Y-71.5966
G01 X-4.7216 Y-71.6766
G01 X-4.8015 Y-71.7490
G01 X-4.8882 Y-71.8133
G01 X-4.9808 Y-71.8688
G01 X-5.0783 Y-71.9149
G01 X-5.1799 Y-71.9513
G01 X-5.2846 Y-71.9775
G01 X-5.3913 Y-71.9933
G01 X-5.4991 Y-71.9986
G01 X-5.6069 Y-71.9933
G01 X-5.7136 Y-71.9775
G01 X-5.8183 Y-71.9513
G01 X-5.9199 Y-71.9149
G01 X-6.0174 Y-71.8688
G01 X-6.1100 Y-71.8133
G01 X-6.1967 Y-71.7490
G01 X-6.2766 Y-71.6766
G01 X-6.3491 Y-71.5966
G01 X-6.4134 Y-71.5099
G01 X-6.4689 Y-71.4174
G01 X-6.5150 Y-71.3198
G01 X-6.5513 Y-71.2182
G01 X-6.5776 Y-71.1135
G01 X-6.5934 Y-71.0068
G01 X-6.5987 Y-70.8990
G01 X-6.5934 Y-70.7912
G01 X-6.5776 Y-70.6845
G01 X-6.5513 Y-70.5798
G01 X-6.5150 Y-70.4782
G01 X-6.4689 Y-70.3807
G01 X-6.4134 Y-70.2881
G01 X-6.3491 Y-70.2014
G01 X-6.2766 Y-70.1215
G01 X-6.1967 Y-70.0490
G01 X-6.1100 Y-69.9847
G01 X-6.0174 Y-69.9293
G01 X-5.9199 Y-69.8831
G01 X-5.8183 Y-69.8468
G01 X-5.7136 Y-69.8206
G01 X-5.6069 Y-69.8047
G01 X-5.4991 Y-69.7994
G01 X-5.3913 Y-69.8047
G01 X-5.2846 Y-69.8206
G01 X-5.1799 Y-69.8468
G01 X-5.0783 Y-69.8831
G01 X-4.9808 Y-69.9293
G01 X-4.8882 Y-69.9847
G01 X-4.8015 Y-70.0490
G01 X-4.7216 Y-70.1215
G01 X-4.6491 Y-70.2014
G01 X-4.5848 Y-70.2881
G01 X-4.5293 Y-70.3807
G01 X-4.4832 Y-70.4782
G01 X-4.4469 Y-70.5798
G01 X-4.4206 Y-70.6845
G01 X-4.4048 Y-70.7912
G01 X-4.3995 Y-70.8990
G00 X-4.3995 Y-70.8990
G01 F60.00
G01 Z-1.5000
G01 F120.00
G01 X-4.4048 Y-71.0068
G01 X-4.4206 Y-71.1135
G01 X-4.4469 Y-71.2182
G01 X-4.4832 Y-71.3198
G01 X-4.5293 Y-71.4174
G01 X-4.5848 Y-71.5099
G01 X-4.6491 Y-71.5966
G01 X-4.7216 Y-71.6766
G01 X-4.8015 Y-71.7490
G01 X-4.8882 Y-71.8133
G01 X-4.9808 Y-71.8688
G01 X-5.0783 Y-71.9149
G01 X-5.1799 Y-71.9513
G01 X-5.2846 Y-71.9775
G01 X-5.3913 Y-71.9933
G01 X-5.4991 Y-71.9986
G01 X-5.6069 Y-71.9933
G01 X-5.7136 Y-71.9775
G01 X-5.8183 Y-71.9513
G01 X-5.9199 Y-71.9149
G01 X-6.0174 Y-71.8688
G01 X-6.1100 Y-71.8133
G01 X-6.1967 Y-71.7490
G01 X-6.2766 Y-71.6766
G01 X-6.3491 Y-71.5966
G01 X-6.4134 Y-71.5099
G01 X-6.4689 Y-71.4174
G01 X-6.5150 Y-71.3198
G01 X-6.5513 Y-71.2182
G01 X-6.5776 Y-71.1135
G01 X-6.5934 Y-71.0068
G01 X-6.5987 Y-70.8990
G01 X-6.5934 Y-70.7912
G01 X-6.5776 Y-70.6845
G01 X-6.5513 Y-70.5798
G01 X-6.5150 Y-70.4782
G01 X-6.4689 Y-70.3807
G01 X-6.4134 Y-70.2881
G01 X-6.3491 Y-70.2014
G01 X-6.2766 Y-70.1215
G01 X-6.1967 Y-70.0490
G01 X-6.1100 Y-69.9847
G01 X-6.0174 Y-69.9293
G01 X-5.9199 Y-69.8831
G01 X-5.8183 Y-69.8468
G01 X-5.7136 Y-69.8206
G01 X-5.6069 Y-69.8047
G01 X-5.4991 Y-69.7994
G01 X-5.3913 Y-69.8047
G01 X-5.2846 Y-69.8206
G01 X-5.1799 Y-69.8468
G01 X-5.0783 Y-69.8831
G01 X-4.9808 Y-69.9293
G01 X-4.8882 Y-69.9847
G01 X-4.8015 Y-70.0490
G01 X-4.7216 Y-70.1215
G01 X-4.6491 Y-70.2014
G01 X-4.5848 Y-70.2881
G01 X-4.5293 Y-70.3807
G01 X-4.4832 Y-70.4782
G01 X-4.4469 Y-70.5798
G01 X-4.4206 Y-70.6845
G01 X-4.4048 Y-70.7912
G01 X-4.3995 Y-70.8990
G00 X-4.3995 Y-70.8990
G01 F60.00
G01 Z-2.0000
G01 F120.00
G01 X-4.4048 Y-71.0068
G01 X-4.4206 Y-71.1135
G01 X-4.4469 Y-71.2182
G01 X-4.4832 Y-71.3198
G01 X-4.5293 Y-71.4174
G01 X-4.5848 Y-71.5099
G01 X-4.6491 Y-71.5966
G01 X-4.7216 Y-71.6766
G01 X-4.8015 Y-71.7490
G01 X-4.8882 Y-71.8133
G01 X-4.9808 Y-71.8688
G01 X-5.0783 Y-71.9149
G01 X-5.1799 Y-71.9513
G01 X-5.2846 Y-71.9775
G01 X-5.3913 Y-71.9933
G01 X-5.4991 Y-71.9986
G01 X-5.6069 Y-71.9933
G01 X-5.7136 Y-71.9775
G01 X-5.8183 Y-71.9513
G01 X-5.9199 Y-71.9149
G01 X-6.0174 Y-71.8688
G01 X-6.1100 Y-71.8133
G01 X-6.1967 Y-71.7490
G01 X-6.2766 Y-71.6766
G01 X-6.3491 Y-71.5966
G01 X-6.4134 Y-71.5099
G01 X-6.4689 Y-71.4174
G01 X-6.5150 Y-71.3198
G01 X-6.5513 Y-71.2182
G01 X-6.5776 Y-71.1135
G01 X-6.5934 Y-71.0068
G01 X-6.5987 Y-70.8990
G01 X-6.5934 Y-70.7912
G01 X-6.5776 Y-70.6845
G01 X-6.5513 Y-70.5798
G01 X-6.5150 Y-70.4782
G01 X-6.4689 Y-70.3807
G01 X-6.4134 Y-70.2881
G01 X-6.3491 Y-70.2014
G01 X-6.2766 Y-70.1215
G01 X-6.1967 Y-70.0490
G01 X-6.1100 Y-69.9847
G01 X-6.0174 Y-69.9293
G01 X-5.9199 Y-69.8831
G01 X-5.8183 Y-69.8468
G01 X-5.7136 Y-69.8206
G01 X-5.6069 Y-69.8047
G01 X-5.4991 Y-69.7994
G01 X-5.3913 Y-69.8047
G01 X-5.2846 Y-69.8206
G01 X-5.1799 Y-69.8468
G01 X-5.0783 Y-69.8831
G01 X-4.9808 Y-69.9293
G01 X-4.8882 Y-69.9847
G01 X-4.8015 Y-70.0490
G01 X-4.7216 Y-70.1215
G01 X-4.6491 Y-70.2014
G01 X-4.5848 Y-70.2881
G01 X-4.5293 Y-70.3807
G01 X-4.4832 Y-70.4782
G01 X-4.4469 Y-70.5798
G01 X-4.4206 Y-70.6845
G01 X-4.4048 Y-70.7912
G01 X-4.3995 Y-70.8990
G00 Z2.0000
M05
G00 Z2.0000
G00 Z22.00
G00 X0.0 Y0.0


